/* XPM */
static char *_57130efb15346faf54ebb79dbd9e3e96TtyLMaQDaCHBB0Y[] = {
/* columns rows colors chars-per-pixel */
"500 500 256 2 ",
"   c None",
".  c #040202",
"X  c #0B0302",
"o  c #0C0A0B",
"O  c #0A0707",
"+  c #130401",
"@  c #1C0B03",
"#  c #130C0B",
"$  c #180804",
"%  c #1A120D",
"&  c #141314",
"*  c #1C1413",
"=  c #1C1A1D",
"-  c #18161A",
";  c #100E11",
":  c #230D03",
">  c #270C05",
",  c #24130C",
"<  c #2B140B",
"1  c #291406",
"2  c #341A0C",
"3  c #3C1B0B",
"4  c #361606",
"5  c #231513",
"6  c #231916",
"7  c #241C1B",
"8  c #2C1E1D",
"9  c #2B1913",
"0  c #331D13",
"q  c #3C1D13",
"w  c #3C1E1A",
"e  c #331D19",
"r  c #330D00",
"t  c #2C211E",
"y  c #25211D",
"u  c #3D2115",
"i  c #34221C",
"p  c #3D231C",
"a  c #362318",
"s  c #3D210C",
"d  c #1E1D22",
"f  c #211E24",
"g  c #2B1E21",
"h  c #1E2124",
"j  c #232225",
"k  c #2C2322",
"l  c #252429",
"z  c #2A262B",
"x  c #2C2A2D",
"c  c #2B2927",
"v  c #332422",
"b  c #3B2522",
"n  c #3C2A24",
"m  c #322C2C",
"M  c #362C28",
"N  c #3A312D",
"B  c #35312C",
"V  c #2E2B31",
"C  c #2C2933",
"Z  c #312C32",
"A  c #392D32",
"S  c #353234",
"D  c #3A3434",
"F  c #3A353A",
"G  c #3C3A3C",
"H  c #383638",
"J  c #2E3132",
"K  c #1D211E",
"L  c #431D0C",
"P  c #471B04",
"I  c #421E14",
"U  c #421F1A",
"Y  c #531D06",
"T  c #4A230A",
"R  c #572909",
"E  c #432215",
"W  c #43241B",
"Q  c #4C2A1C",
"!  c #492617",
"~  c #532D1D",
"^  c #582B17",
"/  c #5D321D",
"(  c #56311C",
")  c #513219",
"_  c #62331D",
"`  c #693718",
"'  c #753C18",
"]  c #69320B",
"[  c #442B24",
"{  c #4B2D23",
"}  c #442925",
"|  c #532E22",
" . c #572E25",
".. c #4C342B",
"X. c #483228",
"o. c #553224",
"O. c #5B3424",
"+. c #5D3925",
"@. c #54352A",
"#. c #5A352A",
"$. c #5B3A2B",
"%. c #553A2C",
"&. c #453A37",
"*. c #583B32",
"=. c #623522",
"-. c #643925",
";. c #6B3B24",
":. c #643B2A",
">. c #6B3C2B",
",. c #663626",
"<. c #733E24",
"1. c #643D32",
"2. c #652D21",
"3. c #7A4214",
"4. c #4A423D",
"5. c #58473B",
"6. c #5C412E",
"7. c #6D412C",
"8. c #694128",
"9. c #73442C",
"0. c #7B462C",
"q. c #7D4B2D",
"w. c #774426",
"e. c #6C4432",
"r. c #674737",
"t. c #734532",
"y. c #754A34",
"u. c #7C4B34",
"i. c #7C4D39",
"p. c #764A37",
"a. c #7C523A",
"s. c #6A523C",
"d. c #3D3C41",
"f. c #423E42",
"g. c #4C4442",
"h. c #484647",
"j. c #524642",
"k. c #544A44",
"l. c #5B4C43",
"z. c #564C49",
"x. c #5A514A",
"c. c #5A5555",
"v. c #4F4F52",
"b. c #675548",
"n. c #795846",
"m. c #655B56",
"M. c #685248",
"N. c #796558",
"B. c #726355",
"V. c #766963",
"C. c #746D69",
"Z. c #5E5C61",
"A. c #3F4243",
"S. c #87481B",
"D. c #824C2D",
"F. c #864927",
"G. c #89522C",
"H. c #96562A",
"J. c #814D33",
"K. c #834E37",
"L. c #845234",
"P. c #8B5434",
"I. c #83533A",
"U. c #8D5A3B",
"Y. c #8B5739",
"T. c #935C3B",
"R. c #9A5E3B",
"E. c #955935",
"W. c #934E28",
"Q. c #A25D32",
"!. c #9C623C",
"~. c #99633A",
"^. c #966233",
"/. c #A3643C",
"(. c #A5693D",
"). c #AB6B3D",
"_. c #A86636",
"`. c #B16D3A",
"'. c #B5733B",
"]. c #A96933",
"[. c #885A44",
"{. c #945D42",
"}. c #89644B",
"|. c #9C6442",
" X c #986747",
".X c #836A5A",
"XX c #886A56",
"oX c #98755A",
"OX c #946D55",
"+X c #A36542",
"@X c #A46A44",
"#X c #AB6C42",
"$X c #A76C4A",
"%X c #AC7144",
"&X c #AB734B",
"*X c #A67449",
"=X c #B37343",
"-X c #B87949",
";X c #A97756",
":X c #B77C54",
">X c #AF6D46",
",X c #977A65",
"<X c #87766C",
"1X c #A67B63",
"2X c #C27D47",
"3X c #C27F51",
"4X c #C87C3C",
"5X c #BA8359",
"6X c #BA814E",
"7X c #968373",
"8X c #A58669",
"9X c #B88664",
"0X c #A88D77",
"qX c #98815F",
"wX c #CB854B",
"eX c #C7844A",
"rX c #D68A4B",
"tX c #C98856",
"yX c #D38D56",
"uX c #D89659",
"iX c #D09155",
"pX c #E39C58",
"aX c #E5A15C",
"sX c #EBA45D",
"dX c #EAA65A",
"fX c #F1A95E",
"gX c #C98D63",
"hX c #D89865",
"jX c #CD966C",
"kX c #E39D63",
"lX c #DBA26A",
"zX c #DBA574",
"xX c #E8A666",
"cX c #F3AB65",
"vX c #F7B56C",
"bX c #FDBC73",
"nX c #F8B876",
"mX c #EAAC72",
"MX c #DEA25B",
"NX c #FEC376",
"BX c #FCC46F",
"VX c #CF823F",
"CX c #817F80",
"ZX c #7F8281",
"AX c #878585",
"SX c #948D89",
"DX c #AC9988",
"FX c #B8A594",
"GX c #D0AE93",
"HX c #F6BB84",
"JX c #D6BAA0",
"KX c #FBC487",
"LX c #E5C6AA",
"PX c #D9C4AC",
"IX c #DDD1C4",
"UX c #7F7E80",
/* pixels */
"                                                                                                                                                                                                                                                                                                                                                                                                                                                                                                                                                                                                                                                                                                                                                                                                                                                                                                                                                                                                                                        ",
"                                                                                                                                                                                                                                                                                                                                                                                                                                                                                                                                                                                                                                                                                                                                                                                                                                                                                                                                                                                                                                        ",
"                                                                                                                                                                                                                                                                                                                                                                                                                                                                                                                                                                                                                                                                                                                                                                                                                                                                                                                                                                                                                                        ",
"                                                                                                                                                                                                                                                                                                                                                                                                                                                                                                                                                                                                                                                                                                                                                                                                                                                                                                                                                                                                                                        ",
"                                                                                                                                                                                                                                                                                                                                                                                                                                                                                                                                                                                                                                                                                                                                                                                                                                                                                                                                                                                                                                        ",
"                                                                                                                                                                                                                                                                                                                                                                                                                                                                                                                                                                                                                                                                                                                                                                                                                                                                                                                                                                                                                                        ",
"                                                                                                                                                                                                                                                                                                                                                                                                                                                                                                                                                                                                                                                                                                                                                                                                                                                                                                                                                                                                                                        ",
"                                                                                                                                                                                                                                                                                                                                                                                                                                                                                                                                                                                                                                                                                                                                                                                                                                                                                                                                                                                                                                        ",
"                                                                                                                                                                                                                                                                                                                                                                                                                                                                                                                                                                                                                                                                                                                                                                                                                                                                                                                                                                                                                                        ",
"                                                                                                                                                                                                                                                                                                                                                                                                                                                                                                                                                                                                                                                                                                                                                                                                                                                                                                                                                                                                                                        ",
"                                                                                                                                                                                                                                                                                                                                                                                                                                                                                                                                                                                                                                                                                                                                                                                                                                                                                                                                                                                                                                        ",
"                                                                                                                                                                                                                                                                                                                                                                                                                                                                                                                                                                                                                                                                                                                                                                                                                                                                                                                                                                                                                                        ",
"                                                                                                                                                                                                                                                                                                                                                                                                                                                                                                                                                                                                                                                                                                                                                                                                                                                                                                                                                                                                                                        ",
"                                                                                                                                                                                                                                                                                                                                                                                                                                                                                                                                                                                                                                                                                                                                                                                                                                                                                                                                                                                                                                        ",
"                                                                                                                                                                                                                                                                                                                                                                                                                                                                                                                                                                                                                                                                                                                                                                                                                                                                                                                                                                                                                                        ",
"                                                                                                                                                                                                                                                                                                                                                                                                                                                                                                                                                                                                                                                                                                                                                                                                                                                                                                                                                                                                                                        ",
"                                                                                                                                                                                                                                                                                                                                                                                                                                                                                                                                                                                                                                                                                                                                                                                                                                                                                                                                                                                                                                        ",
"                                                                                                                                                                                                                                                                                                                                                                                                                                                                                                                                                                                                                                                                                                                                                                                                                                                                                                                                                                                                                                        ",
"                                                                                                                                                                                                                                                                                                                                                                                                                                                                                                                                                                                                                                                                                                                                                                                                                                                                                                                                                                                                                                        ",
"                                                                                                                                                                                                                                                                                                                                                                                                                                                                                                                                                                                                                                                                                                                                                                                                                                                                                                                                                                                                                                        ",
"                                                                                                                                                                                                                                                                                                                                                                                                                                                                                                                                                                                                                                                                                                                                                                                                                                                                                                                                                                                                                                        ",
"                                                                                                                                                                                                                                                                                                                                                                                                                                                                                                                                                                                                                                                                                                                                                                                                                                                                                                                                                                                                                                        ",
"                                                                                                                                                                                                                                                                                                                                                                                                                                                                                                                                                                                                                                                                                                                                                                                                                                                                                                                                                                                                                                        ",
"                                                                                                                                                                                                                                                                                                                                                                                                                                                                                                                                                                                                                                                                                                                                                                                                                                                                                                                                                                                                                                        ",
"                                                                                                                                                                                                                                                                                                                                                                                                                                                                                                                                                                                                                                                                                                                                                                                                                                                                                                                                                                                                                                        ",
"                                                                                                                                                                                                                                                                                                                                                                                                                                                                                                                                                                                                                                                                                                                                                                                                                                                                                                                                                                                                                                        ",
"                                                                                                                                                                                                                                                                                                                                                                                                                                                                                                                                                                                                                                                                                                                                                                                                                                                                                                                                                                                                                                        ",
"                                                                                                                                                                                                                                                                                                                                                                                                                                                                                                                                                                                                                                                                                                                                                                                                                                                                                                                                                                                                                                        ",
"                                                                                                                                                                                                                                                                                                                                                                                                                                                                                                                                                                                                                                                                                                                                                                                                                                                                                                                                                                                                                                        ",
"                                                                                                                                                                                                                                                                                                                                                                                                                                                                                                                                                                                                                                                                                                                                                                                                                                                                                                                                                                                                                                        ",
"                                                                                                                                                                                                                                                                                                                                                                                                                                                                                                                                                                                                                                                                                                                                                                                                                                                                                                                                                                                                                                        ",
"                                                                                                                                                                                                                                                                                                                                                                                                                                                                                                                                                                                                                                                                                                                                                                                                                                                                                                                                                                                                                                        ",
"                                                                                                                                                                                                                                                                                                                                                                                                                                                                                                                                                                                                                                                                                                                                                                                                                                                                                                                                                                                                                                        ",
"                                                                                                                                                                                                                                                                                                                                                                                                                                                                                                                                                                                                                                                                                                                                                                                                                                                                                                                                                                                                                                        ",
"                                                                                                                                                                                                                                                                                                                                                                                                                                                                                                                                                                                                                                                                                                                                                                                                                                                                                                                                                                                                                                        ",
"                                                                                                                                                                                                                                                                                                                                                                                                                                                                                                                                                                                                                                                                                                                                                                                                                                                                                                                                                                                                                                        ",
"                                                                                                                                                                                                                                                                                                                                                                                                                                                                                                                                                                                                                                                                                                                                                                                                                                                                                                                                                                                                                                        ",
"                                                                                                                                                                                                                                                                                                                                                                                                                                                                                                                                                                                                                                                                                                                                                                                                                                                                                                                                                                                                                                        ",
"                                                                                                                                                                                                                                                                                                                                                                                                                                                                                                                                                                                                                                                                                                                                                                                                                                                                                                                                                                                                                                        ",
"                                                                                                                                                                                                                                                                                                                                                                                                                                                                                                                                                                                                                                                                                                                                                                                                                                                                                                                                                                                                                                        ",
"                                                                                                                                                                                                                                                                                                                                                                                                                                                                                                                                                                                                                                                                                                                                                                                                                                                                                                                                                                                                                                        ",
"                                                                                                                                                                                                                                                                                                                                                                                                                                                                                                                                                                                                                                                                                                                                                                                                                                                                                                                                                                                                                                        ",
"                                                                                                                                                                                                                                                                                                                                                                                                                                                                                                                                                                                                                                                                                                                                                                                                                                                                                                                                                                                                                                        ",
"                                                                                                                                                                                                                                                                                                                                                                                                                                                                                                                                                                                                                                                                                                                                                                                                                                                                                                                                                                                                                                        ",
"                                                                                                                                                                                                                                                                                                                                                                                                                                                                                                                                                                                                                                                                                                                                                                                                                                                                                                                                                                                                                                        ",
"                                                                                                                                                                                                                                                                                                                                                                                                                                                                                                                                                                                                                                                                                                                                                                                                                                                                                                                                                                                                                                        ",
"                                                                                                                                                                                                                                                                                                                                                                                                                                                                                                                                                                                                                                                                                                                                                                                                                                                                                                                                                                                                                                        ",
"                                                                                                                                                                                                                                                                                                                                                                                                                                                                                                                                                                                                                                                                                                                                                                                                                                                                                                                                                                                                                                        ",
"                                                                                                                                                                                                                                                                                                                                                                                                                                                                                                                                                                                                                                                                                                                                                                                                                                                                                                                                                                                                                                        ",
"                                                                                                                                                                                                                                                                                                                                                                                                                                                                                                                                                                                                                                                                                                                                                                                                                                                                                                                                                                                                                                        ",
"                                                                                                                                                                                                                                                                                                                                                                                                                                                                                                                                                                                                                                                                                                                                                                                                                                                                                                                                                                                                                                        ",
"                                                                                                                                                                                                                                                                                                                                                                                                                                                                                                                                                                                                                                                                                                                                                                                                                                                                                                                                                                                                                                        ",
"                                                                                                                                                                                                                                                                                                                                                                                                                                                                                                                                                                                                                                                                                                                                                                                                                                                                                                                                                                                                                                        ",
"                                                                                                                                                                                                                                                                                                                                                                                                                                                                                                                                                                                                                                                                                                                                                                                                                                                                                                                                                                                                                                        ",
"                                                                                                                                                                                                                                                                                                                                                                                                                                                                                                                                                                                                                                                                                                                                                                                                                                                                                                                                                                                                                                        ",
"                                                                                                                                                                                                                                                                                                                                                                                                                                                                                                                                                                                                                                                                                                                                                                                                                                                                                                                                                                                                                                        ",
"                                                                                                                                                                                                                                                                                                                                                                                                                                                                                                                                                                                                                                                                                                                                                                                                                                                                                                                                                                                                                                        ",
"                                                                                                                                                                                                                                                                                                                                                                                                                                                                                                                                                                                                                                                                                                                                                                                                                                                                                                                                                                                                                                        ",
"                                                                                                                                                                                                                                                                                                                                                                                                                                                                                                                                                                                                                                                                                                                                                                                                                                                                                                                                                                                                                                        ",
"                                                                                                                                                                                                                                                                                                                                                                                                                                                                                                                                                                                                                                                                                                                                                                                                                                                                                                                                                                                                                                        ",
"                                                                                                                                                                                                                                                                                                                                                                                                                                                                                                                                                                                                                                                                                                                                                                                                                                                                                                                                                                                                                                        ",
"                                                                                                                                                                                                                                                                                                                                                                                                                                                                                                                                                                                                                                                                                                                                                                                                                                                                                                                                                                                                                                        ",
"                                                                                                                                                                                                                                                                                                                                                                                                                                                                                                                                                                                                                                                                                                                                                                                                                                                                                                                                                                                                                                        ",
"                                                                                                                                                                                                                                                                                                                                                                                                                                                                                                                                                                                                                                                                                                                                                                                                                                                                                                                                                                                                                                        ",
"                                                                                                                                                                                                                                                                                                                                                                                                                                                                                                                                                                                                                                                                                                                                                                                                                                                                                                                                                                                                                                        ",
"                                                                                                                                                                                                                                                                                                                                                                                                                                                                                                                                                                                                                                                                                                                                                                                                                                                                                                                                                                                                                                        ",
"                                                                                                                                                                                                                                                                                                                                                                                                                                                                                                                                                                                                                                                                                                                                                                                                                                                                                                                                                                                                                                        ",
"                                                                                                                                                                                                                                                                                                                                                                                                                                                                                                                                                                                                                                                                                                                                                                                                                                                                                                                                                                                                                                        ",
"                                                                                                                                                                                                                                                                                                                                                                                                                                                                                                                                                                                                                                                                                                                                                                                                                                                                                                                                                                                                                                        ",
"                                                                                                                                                                                                                                                                                                                                                                                                                                                                                                                                                                                                                                                                                                                                                                                                                                                                                                                                                                                                                                        ",
"                                                                                                                                                                                                                                                                                                                                                                                                                                                                                                                                                                                                                                                                                                                                                                                                                                                                                                                                                                                                                                        ",
"                                                                                                                                                                                                                                                                                                                                                                                                                                                                                                                                                                                                                                                                                                                                                                                                                                                                                                                                                                                                                                        ",
"                                                                                                                                                                                                                                                                                                                                                                                                                                                                                                                                                                                                                                                                                                                                                                                                                                                                                                                                                                                                                                        ",
"                                                                                                                                                                                                                                                                                                                                                                                                                                                                                                                                                                                                                                                                                                                                                                                                                                                                                                                                                                                                                                        ",
"                                                                                                                                                                                                                                                                                                                                                                                                                                                                                                                                                                                                                                                                                                                                                                                                                                                                                                                                                                                                                                        ",
"                                                                                                                                                                                                                                                                                                                                                                                                                                                                                                                                                                                                                                                                                                                                                                                                                                                                                                                                                                                                                                        ",
"                                                                                                                                                                                                                                                                                                                                                                                                                                                                                                                                                                                                                                                                                                                                                                                                                                                                                                                                                                                                                                        ",
"                                                                                                                                                                                                                                                                                                                                                                                                                                                                                                                                                                                                                                                                                                                                                                                                                                                                                                                                                                                                                                        ",
"                                                                                                                                                                                                                                                                                                                                                                                                                                                                                                                                                                                                                                                                                                                                                                                                                                                                                                                                                                                                                                        ",
"                                                                                                                                                                                                                                                                                                                                                                                                                                                                                                                                                                                                                                                                                                                                                                                                                                                                                                                                                                                                                                        ",
"                                                                                                                                                                                                                                                                                                                                                                                                                                                                                                                                                                                                                                                                                                                                                                                                                                                                                                                                                                                                                                        ",
"                                                                                                                                                                                                                                                                                                                                                                                                                                                                                                                                                                                                                                                                                                                                                                                                                                                                                                                                                                                                                                        ",
"                                                                                                                                                                                                                                                                                                                                                                                                                                                                                                                                                                                                                                                                                                                                                                                                                                                                                                                                                                                                                                        ",
"                                                                                                                                                                                                                                                                                                                                                                                                                                                                                                                                                                                                                                                                                                                                                                                                                                                                                                                                                                                                                                        ",
"                                                                                                                                                                                                                                                                                                                                                                                                                                                                                                                                                                                                                                                                                                                                                                                                                                                                                                                                                                                                                                        ",
"                                                                                                                                                                                                                                                                                                                                                                                                                                                                                                                                                                                                                                                                                                                                                                                                                                                                                                                                                                                                                                        ",
"                                                                                                                                                                                                                                                                                                                                                                                                                                                                                                                                                                                                                                                                                                                                                                                                                                                                                                                                                                                                                                        ",
"                                                                                                                                                                                                                                                                                                                                                                                                                                                                                                                                                                                                                                                                                                                                                                                                                                                                                                                                                                                                                                        ",
"                                                                                                                                                                                                                                                                                                                                                                                                                                                                                                                                                                                                                                                                                                                                                                                                                                                                                                                                                                                                                                        ",
"                                                                                                                                                                                                                                                                                                                                                                                                                                                                                                                                                                                                                                                                                                                                                                                                                                                                                                                                                                                                                                        ",
"                                                                                                                                                                                                                                                                                                                                                                                                                                                                                                                                                                                                                                                                                                                                                                                                                                                                                                                                                                                                                                        ",
"                                                                                                                                                                                                                                                                                                                                                                                                                                                                                                                                                                                                                                                                                                                                                                                                                                                                                                                                                                                                                                        ",
"                                                                                                                                                                                                                                                                                                                                                                                                                                                                                                                                                                                                                                                                                                                                                                                                                                                                                                                                                                                                                                        ",
"                                                                                                                                                                                                                                                                                                                                                                                                                                                                                                                                                                                                                                                                                                                                                                                                                                                                                                                                                                                                                                        ",
"                                                                                                                                                                                                                                                                                                                                                                                                                                                                                                                                                                                                                                                                                                                                                                                                                                                                                                                                                                                                                                        ",
"                                                                                                                                                                                                                                                                                                                                                                                                                                                                                                                                                                                                                                                                                                                                                                                                                                                                                                                                                                                                                                        ",
"                                                                                                                                                                                                                                                                                                                                                                                                                                                                                                                                                                                                                                                                                                                                                                                                                                                                                                                                                                                                                                        ",
"                                                                                                                                                                                                                                                                                                                                                                                                                                                                                                                                                                                                                                                                                                                                                                                                                                                                                                                                                                                                                                        ",
"                                                                                                                                                                                                                                                                                                                                                                                                                                                                                                                                                                                                                                                                                                                                                                                                                                                                                                                                                                                                                                        ",
"                                                                                                                                                                                                                                                                                                                                                                                                                                                                                                                                                                                                                                                                                                                                                                                                                                                                                                                                                                                                                                        ",
"                                                                                                                                                                                                                                                                                                                                                                                                                                                                                                                                                                                                                                                                                                                                                                                                                                                                                                                                                                                                                                        ",
"                                                                                                                                                                                                                                                                                                                                                                                                                                                                                                                                                                                                                                                                                                                                                                                                                                                                                                                                                                                                                                        ",
"                                                                                                                                                                                                                                                                                                                                                                                                                                                                                                                                                                                                                                                                                                                                                                                                                                                                                                                                                                                                                                        ",
"                                                                                                                                                                                                                                                                                                                                                                                                                                                                                                                                                                                                                                                                                                                                                                                                                                                                                                                                                                                                                                        ",
"                                                                                                                                                                                                                                                                                                                                                                                                                                                                                                                                                                                                                                                                                                                                                                                                                                                                                                                                                                                                                                        ",
"                                                                                                                                                                                                                                                                                                                                                                                                                                                                                                                                                                                                                                                                                                                                                                                                                                                                                                                                                                                                                                        ",
"                                                                                                                                                                                                                                                                                                                                                                                                                                                                                                                                                                                                                                                                                                                                                                                                                                                                                                                                                                                                                                        ",
"                                                                                                                                                                                                                                                                                                                                                                                                                                                                                                                                                                                                                                                                                                                                                                                                                                                                                                                                                                                                                                        ",
"                                                                                                                                                                                                                                                                                                                                                                                                                                                                                                                                                                                                                                                                                                                                                                                                                                                                                                                                                                                                                                        ",
"                                                                                                                                                                                                                                                                                                                                                                                                                                                                                                                                                                                                                                                                                                                                                                                                                                                                                                                                                                                                                                        ",
"                                                                                                                                                                                                                                                                                                                                                                                                                                                                                                                                                                                                                                                                                                                                                                                                                                                                                                                                                                                                                                        ",
"                                                                                                                                                                                                                                                                                                                                                                                                                                                                                                                                                                                                                                                                                                                                                                                                                                                                                                                                                                                                                                        ",
"                                                                                                                                                                                                                                                                                                                                                                                                                                                                                                                                                                                                                                                                                                                                                                                                                                                                                                                                                                                                                                        ",
"                                                                                                                                                                                                                                                                                                                                                                                                                                                                                                                                                                                                                                                                                                                                                                                                                                                                                                                                                                                                                                        ",
"                                                                                                                                                                                                                                                                                                                                                                                                                                                                                                                                                                                                                                                                                                                                                                                                                                                                                                                                                                                                                                        ",
"                                                                                                                                                                                                                                                                                                                                                                                                                                                                                                                                                                                                                                                                                                                                                                                                                                                                                                                                                                                                                                        ",
"                                                                                                                                                                                                                                                                                                                                                                                                                                                                                                                                                                                                                                                                                                                                                                                                                                                                                                                                                                                                                                        ",
"                                                                                                                                                                                                                                                                                                                                                                                                                                                                                                                                                                                                                                                                                                                                                                                                                                                                                                                                                                                                                                        ",
"                                                                                                                                                                                                                                                                                                                                                                                                                                                                                                                                                                                                                                                                                                                                                                                                                                                                                                                                                                                                                                        ",
"                                                                                                                                                                                                                                                                                                                                                                                                                                                                                                                                                                                                                                                                                                                                                                                                                                                                                                                                                                                                                                        ",
"                                                                                                                                                                                                                                                                                                                                                                                                                                                                                                                                                                                                                                                                                                                                                                                                                                                                                                                                                                                                                                        ",
"                                                                                                                                                                                                                                                                                                                                                                                                                                                                                                                                                                                                                                                                                                                                                                                                                                                                                                                                                                                                                                        ",
"                                                                                                                                                                                                                                                                                                                                                                                                                                                                                                                                                                                                                                                                                                                                                                                                                                                                                                                                                                                                                                        ",
"                                                                                                                                                                                                                                                                                                                                                                                                                                                                                                                                                                                                                                                                                                                                                                                                                                                                                                                                                                                                                                        ",
"                                                                                                                                                                                                                                                                                                                                                                                                                                                                                                                                                                                                                                                                                                                                                                                                                                                                                                                                                                                                                                        ",
"                                                                                                                                                                                                                                                                                                                                                                                                                                                                                                                                                                                                                                                                                                                                                                                                                                                                                                                                                                                                                                        ",
"                                                                                                                                                                                                                                                                                                                                                                                                                                                                                                                                                                                                                                                                                                                                                                                                                                                                                                                                                                                                                                        ",
"                                                                                                                                                                                                                                                                                                                                                                                                                                                                                                                                                                                                                                                                                                                                                                                                                                                                                                                                                                                                                                        ",
"                                                                                                                                                                                                                                                                                                                                                                                                                                                                                                                                                                                                                                                                                                                                                                                                                                                                                                                                                                                                                                        ",
"                                                                                                                                                                                                                                                                                                                                                                                                                                                                                                                                                                                                                                                                                                                                                                                                                                                                                                                                                                                                                                        ",
"                                                                                                                                                                                                                                                                                                                                                                                                                                                                                                                                                                                                                                                                                                                                                                                                                                                                                                                                                                                                                                        ",
"                                                                                                                                                                                                                                                                                                                                                                                                                                                                                                                                                                                                                                                                                                                                                                                                                                                                                                                                                                                                                                        ",
"                                                                                                                                                                                                                                                                                                                                                                                                                                                                                                                                                                                                                                                                                                                                                                                                                                                                                                                                                                                                                                        ",
"                                                                                                                                                                                                                                                                                                                                                                                                                                                                                                                                                                                                                                                                                                                                                                                                                                                                                                                                                                                                                                        ",
"                                                                                                                                                                                                                                                                                                                                                                                                                                                                                                                                                                                                                                                                                                                                                                                                                                                                                                                                                                                                                                        ",
"                                                                                                                                                                                                                                                                                                                                                                                                                                                                                                                                                                                                                                                                                                                                                                                                                                                                                                                                                                                                                                        ",
"                                                                                                                                                                                                                                                                                                                                                                                                                                                                                                                                                                                                                                                                                                                                                                                                                                                                                                                                                                                                                                        ",
"                                                                                                                                                                                                                                                                                                                                                                                                                                                                                                                                                                                                                                                                                                                                                                                                                                                                                                                                                                                                                                        ",
"                                                                                                                                                                                                                                                                                                                                                                                                                                                                                                                                                                                                                                                                                                                                                                                                                                                                                                                                                                                                                                        ",
"                                                                                                                                                                                                                                                                                                                                                                                                                                                                                                                                                                                                                                                                                                                                                                                                                                                                                                                                                                                                                                        ",
"                                                                                                                                                                                                                                                                                                                                                                                                                                                                                                                                                                                                                                                                                                                                                                                                                                                                                                                                                                                                                                        ",
"                                                                                                                                                                                                                                                                                                                                                                                                                                                                                                                                                                                                                                                                                                                                                                                                                                                                                                                                                                                                                                        ",
"                                                                                                                                                                                                                                                                                                                                                                                                                                                                                                                                                                                                                                                                                                                                                                                                                                                                                                                                                                                                                                        ",
"                                                                                                                                                                                                                                                                                                                                                                                                                                                                                                                                                                                                                                                                                                                                                                                                                                                                                                                                                                                                                                        ",
"                                                                                                                                                                                                                                                                                                                                                                                                                                                                                                                                                                                                                                                                                                                                                                                                                                                                                                                                                                                                                                        ",
"                                                                                                                                                                                                                                                                                                                                                                                                                                                                                                                                                                                                                                                                                                                                                                                                                                                                                                                                                                                                                                        ",
"                                                                                                                                                                                                                                                                                                                                                                                                                                                                                                                                                                                                                                                                                                                                                                                                                                                                                                                                                                                                                                        ",
"                                                                                                                                                                                                                                                                                                                                                                                                                                                                                                                                                                                                                                                                                                                                                                                                                                                                                                                                                                                                                                        ",
"                                                                                                                                                                                                                                                                                                                                                                                                                                                                                                                                                                                                                                                                                                                                                                                                                                                                                                                                                                                                                                        ",
"                                                                                                                                                                                                                                                                                                                                                                                                                                                                                                                                                                                                                                                                                                                                                                                                                                                                                                                                                                                                                                        ",
"                                                                                                                                                                                                                                                                                                                                                                                                                                                                                                                                                                                                                                                                                                                                                                                                                                                                                                                                                                                                                                        ",
"                                                                                                                                                                                                                                                                                                                                                                                                                                                                                                                                                                                                                                                                                                                                                                                                                                                                                                                                                                                                                                        ",
"                                                                                                                                                                                                                                                                                                                                                                                                                                                                                                                                                                                                                                                                                                                                                                                                                                                                                                                                                                                                                                        ",
"                                                                                                                                                                                                                                                                                                                                                                                                                                                                                                                                                                                                                                                                                                                                                                                                                                                                                                                                                                                                                                        ",
"                                                                                                                                                                                                                                                                                                                                                                                                                                                                                                                                                                                                                                                                                                                                                                                                                                                                                                                                                                                                                                        ",
"                                                                                                                                                                                                                                                                                                                                                                                                                                                                                                                                                                                                                                                                                                                                                                                                                                                                                                                                                                                                                                        ",
"                                                                                                                                                                                                                                                                                                                                                                                                                                                                                                                                                                                                                                                                                                                                                                                                                                                                                                                                                                                                                                        ",
"                                                                                                                                                                                                                                                                                                                                                                                                                                                                                                                                                                                                                                                                                                                                                                                                                                                                                                                                                                                                                                        ",
"                                                                                                                                                                                                                                                                                                                                                                                                                                                                                                                                                                                                                                                                                                                                                                                                                                                                                                                                                                                                                                        ",
"                                                                                                                                                                                                                                                                                                                                                                                                                                                                                                                                                                                                                                                                                                                                                                                                                                                                                                                                                                                                                                        ",
"                                                                                                                                                                                                                                                                                                                                                                                                                                                                                                                                                                                                                                                                                                                                                                                                                                                                                                                                                                                                                                        ",
"                                                                                                                                                                                                                                                                                                                                                                                                                                                                                                                                                                                                                                                                                                                                                                                                                                                                                                                                                                                                                                        ",
"                                                                                                                                                                                                                                                                                                                                                                                                                                                                                                                                                                                                                                                                                                                                                                                                                                                                                                                                                                                                                                        ",
"                                                                                                                                                                                                                                                                                                                                                                                                                                                                                                                                                                                                                                                                                                                                                                                                                                                                                                                                                                                                                                        ",
"                                                                                                                                                                                                                                                                                                                                                                                                                                                                                                                                                                                                                                                                                                                                                                                                                                                                                                                                                                                                                                        ",
"                                                                                                                                                                                                                                                                                                                                                                                                                                                                                                                                                                                                                                                                                                                                                                                                                                                                                                                                                                                                                                        ",
"                                                                                                                                                                                                                                                                                                                                                                                                                                                                                                                                                                                                                                                                                                                                                                                                                                                                                                                                                                                                                                        ",
"                                                                                                                                                                                                                                                                                                                                                                                                                                                                                                                                                                                                                                                                                                                                                                                                                                                                                                                                                                                                                                        ",
"                                                                                                                                                                                                                                                                                                                                                                                                                                                                                                                                                                                                                                                                                                                                                                                                                                                                                                                                                                                                                                        ",
"                                                                                                                                                                                                                                                                                                                                                                                                                                                                                                                                                                                                                                                                                                                                                                                                                                                                                                                                                                                                                                        ",
"                                                                                                                                                                                                                                                                                                                                                                                                                                                                                                                                                                                                                                                                                                                                                                                                                                                                                                                                                                                                                                        ",
"                                                                                                                                                                                                                                                                                                                                                                                                                                                                                                                                                                                                                                                                                                                                                                                                                                                                                                                                                                                                                                        ",
"                                                                                                                                                                                                                                                                                                                                                                                                                                                                                                                                                                                                                                                                                                                                                                                                                                                                                                                                                                                                                                        ",
"                                                                                                                                                                                                                                                                                                                                                                                                                                                                                                                                                                                                                                                                                                                                                                                                                                                                                                                                                                                                                                        ",
"                                                                                                                                                                                                                                                                                                                                                                                                                                                                                                                                                                                                                                                                                                                                                                                                                                                                                                                                                                                                                                        ",
"                                                                                                                                                                                                                                                                                                                                                                                                                                                                                                                                                                                                                                                                                                                                                                                                                                                                                                                                                                                                                                        ",
"                                                                                                                                                                                                                                                                                                                                                                                                                                                                                                                                                                                                                                                                                                                                                                                                                                                                                                                                                                                                                                        ",
"                                                                                                                                                                                                                                                                                                                                                                                                                                                                                                                                                                                                                                                                                                                                                                                                                                                                                                                                                                                                                                        ",
"                                                                                                                                                                                                                                                                                                                                                                                                                                                                                                                                                                                                                                                                                                                                                                                                                                                                                                                                                                                                                                        ",
"                                                                                                                                                                                                                                                                                                                                                                                                                                                                                                                                                                                                                                                                                                                                                                                                                                                                                                                                                                                                                                        ",
"                                                                                                                                                                                                                                                                                                                                                                                                                                                                                                                                                                                                                                                                                                                                                                                                                                                                                                                                                                                                                                        ",
"                                                                                                                                                                                                                                                                                                                                                                                                                                                                                                                                                                                                                                                                                                                                                                                                                                                                                                                                                                                                                                        ",
"                                                                                                                                                                                                                                                                                                                                                                                                                                                                                                                                                                                                                                                                                                                                                                                                                                                                                                                                                                                                                                        ",
"                                                                                                                                                                                                                                                                                                                                                                                                                                                                                                                                                                                                                                                                                                                                                                                                                                                                                                                                                                                                                                        ",
"                                                                                                                                                                                                                                                                                                                                                                                                                                                                                                                                                                                                                                                                                                                                                                                                                                                                                                                                                                                                                                        ",
"                                                                                                                                                                                                                                                                                                                                                                                                                                                                                                                                                                                                                                                                                                                                                                                                                                                                                                                                                                                                                                        ",
"                                                                                                                                                                                                                                                                                                                                                                                                                                                                                                                                                                                                                                                                                                                                                                                                                                                                                                                                                                                                                                        ",
"                                                                                                                                                                                                                                                                                                                                                                                                                                                                                                                                                                                                                                                                                                                                                                                                                                                                                                                                                                                                                                        ",
"                                                                                                                                                                                                                                                                                                                                                                                                                                                                                                                                                                                                                                                                                                                                                                                                                                                                                                                                                                                                                                        ",
"                                                                                                                                                                                                                                                                                                                                                                                                                                                                                                                                                                                                                                                                                                                                                                                                                                                                                                                                                                                                                                        ",
"                                                                                                                                                                                                                                                                                                                                                                                                                                                                                                                                                                                                                                                                                                                                                                                                                                                                                                                                                                                                                                        ",
"                                                                                                                                                                                                                                                                                                                                                                                                                                                                                                                                                                                                                                                                                                                                                                                                                                                                                                                                                                                                                                        ",
"                                                                                                                                                                                                                                                                                                                                                                                                                                                                                                                                                                                                                                                                                                                                                                                                                                                                                                                                                                                                                                        ",
"                                                                                                                                                                                                                                                                                                                                                                                                                                                                                                                                                                                                                                                                                                                                                                                                                                                                                                                                                                                                                                        ",
"                                                                                                                                                                                                                                                                                                                                                                                                                                                                                                                                                                                                                                                                                                                                                                                                                                                                                                                                                                                                                                        ",
"                                                                                                                                                                                                                                                                                                                                                                                                                                                                                                                                                                                                                                                                                                                                                                                                                                                                                                                                                                                                                                        ",
"                                                                                                                                                                                                                                                                                                                                                                                                                                                                                                                                                                                                                                                                                                                                                                                                                                                                                                                                                                                                                                        ",
"                                                                                                                                                                                                                                                                                                                                                                                                                                                                                                                                                                                                                                                                                                                                                                                                                                                                                                                                                                                                                                        ",
"                                                                                                                                                                                                                                                                                                                                                                                                                                                                                                                                                                                                                                                                                                                                                                                                                                                                                                                                                                                                                                        ",
"                                                                                                                                                                                                                                                                                                                                                                                                                                                                                                                                                                                                                                                                                                                                                                                                                                                                                                                                                                                                                                        ",
"                                                                                                                                                                                                                                                                                                                                                                                                                                                                                                                                                                                                                                                                                                                                                                                                                                                                                                                                                                                                                                        ",
"                                                                                                                                                                                                                                                                                                                                                                                                                                                                                                                                                                                                                                                                                                                                                                                                                                                                                                                                                                                                                                        ",
"                                                                                                                                                                                                                                                                                                                                                                                                                                                                                                                                                                                                                                                                                                                                                                                                                                                                                                                                                                                                                                        ",
"                                                                                                                                                                                                                                                                                                                                                                                                                                                                                                                                                                                                                                                                                                                                                                                                                                                                                                                                                                                                                                        ",
"                                                                                                                                                                                                                                                                                                                                                                                                                                                                                                                                                                                                                                                                                                                                                                                                                                                                                                                                                                                                                                        ",
"                                                                                                                                                                                                                                                                                                                                                                                                                                                                                                                                                                                                                                                                                                                                                                                                                                                                                                                                                                                                                                        ",
"                                                                                                                                                                                                                                                                                                                                                                                                                                                                                                                                                                                                                                                                                                                                                                                                                                                                                                                                                                                                                                        ",
"                                                                                                                                                                                                                                                                                                                                                                                                                                                                                                                                                                                                                                                                                                                                                                                                                                                                                                                                                                                                                                        ",
"                                                                                                                                                                                                                                                                                                                                                                                                                                                                                                                                                                                                                                                                                                                                                                                                                                                                                                                                                                                                                                        ",
"                                                                                                                                                                                                                                                                                                                                                                                                                                                                                                                                                                                                                                                                                                                                                                                                                                                                                                                                                                                                                                        ",
"                                                                                                                                                                                                                                                                                                                                                                                                                                                                                                                                                                                                                                                                                                                                                                                                                                                                                                                                                                                                                                        ",
"                                                                                                                                                                                                                                                                                                                                                                                                                                                                                                                                                                                                                                                                                                                                                                                                                                                                                                                                                                                                                                        ",
"                                                                                                                                                                                                                                                                                                                                                                                                                                                                                                                                                                                                                                                                                                                                                                                                                                                                                                                                                                                                                                        ",
"                                                                                                                                                                                                                                                                                                                                                                                                                                                                                                                                                                                                                                                                                                                                                                                                                                                                                                                                                                                                                                        ",
"                                                                                                                                                                                                                                                                                                                                                                                                                                                                                                                                                                                                                                                                                                                                                                                                                                                                                                                                                                                                                                        ",
"                                                                                                                                                                                                                                                                                                                                                                                                                                                                                                                                                                                                                                                                                                                                                                                                                                                                                                                                                                                                                                        ",
"                                                                                                                                                                                                                                                                                                                                                                                                                                                                                                                                                                                                                                                                                                                                                                                                                                                                                                                                                                                                                                        ",
"                                                                                                                                                                                                                                                                                                                                                                                                                                                                                                                                                                                                                                                                                                                                                                                                                                                                                                                                                                                                                                        ",
"                                                                                                                                                                                                                                                                                                                                                                                                                                                                                                                                                                                                                                                                                                                                                                                                                                                                                                                                                                                                                                        ",
"                                                                                                                                                                                                                                                                                                                                                                                                                                                                                                                                                                                                                                                                                                                                                                                                                                                                                                                                                                                                                                        ",
"                                                                                                                                                                                                                                                                                                                                                                                                                                                                                                                                                                                                                                                                                                                                                                                                                                                                                                                                                                                                                                        ",
"                                                                                                                                                                                                                                                                                                                                                                                                                                                                                                                                                                                                                                                                                                                                                                                                                                                                                                                                                                                                                                        ",
"                                                                                                                                                                                                                                                                                                                                                                                                                                                                                                                                                                                                                                                                                                                                                                                                                                                                                                                                                                                                                                        ",
"                                                                                                                                                                                                                                                                                                                                                                                                                                                                                                                                                                                                                                                                                                                                                                                                                                                                                                                                                                                                                                        ",
"                                                                                                                                                                                                                                                                                                                                                                                                                                                                                                                                                                                                                                                                                                                                                                                                                                                                                                                                                                                                                                        ",
"                                                                                                                                                                                                                                                                                                                                                                                                                                                                                                                                                                                                                                                                                                                                                                                                                                                                                                                                                                                                                                        ",
"                                                                                                                                                                                                                                                                                                                                                                                                                                                                                                                                                                                                                                                                                                                                                                                                                                                                                                                                                                                                                                        ",
"                                                                                                                                                                                                                                                                                                                                                                                                                                                                                                                                                                                                                                                                                                                                                                                                                                                                                                                                                                                                                                        ",
"                                                                                                                                                                                                                                                                                                                                                                                                                                                                                                                                                                                                                                                                                                                                                                                                                                                                                                                                                                                                                                        ",
"                                                                                                                                                                                                                                                                                                                                                                                                                                                                                                                                                                                                                                                                                                                                                                                                                                                                                                                                                                                                                                        ",
"                                                                                                                                                                                                                                                                                                                                                                                                                                                                                                                                                                                                                                                                                                                                                                                                                                                                                                                                                                                                                                        ",
"                                                                                                                                                                                                                                                                                                                                                                                                                                                                                                                                                                                                                                                                                                                                                                                                                                                                                                                                                                                                                                        ",
"                                                                                                                                                                                                                                                                                                                                                                                                                                                                                                                                                                                                                                                                                                                                                                                                                                                                                                                                                                                                                                        ",
"                                                                                                                                                                                                                                                                                                                                                                                                                                                                                                                                                                                                                                                                                                                                                                                                                                                                                                                                                                                                                                        ",
"                                                                                                                                                                                                                                                                                                                                                                                                                                                                                                                                                                                                                                                                                                                                                                                                                                                                                                                                                                                                                                        ",
"                                                                                                                                                                                                                                                                                                                                                                                                                                                                                                                                                                                                                                                                                                                                                                                                                                                                                                                                                                                                                                        ",
"                                                                                                                                                                                                                                                                                                                                                                                                                                                                                                                                                                                                                                                                                                                                                                                                                                                                                                                                                                                                                                        ",
"                                                                                                                                                                                                                                                                                                                                                                                                                                                                                                                                                                                                                                                                                                                                                                                                                                                                                                                                                                                                                                        ",
"                                                                                                                                                                                                                                                                                                                                                                                                                                                                                                                                                                                                                                                                                                                                                                                                                                                                                                                                                                                                                                        ",
"                                                                                                                                                                                                                                                                                                                                                                                                                                                                                                                                                                                                                                                                                                                                                                                                                                                                                                                                                                                                                                        ",
"                                                                                                                                                                                                                                                                                                                                                                                                                                                                                                                                                                                                                                                                                                                                                                                                                                                                                                                                                                                                                                        ",
"                                                                                                                                                                                                                                                                                                                                                                                                                                                                                                                                                                                                                                                                                                                                                                                                                                                                                                                                                                                                                                        ",
"                                                                                                                                                                                                                                                                                                                                                                                                                                                                                                                                                                                                                                                                                                                                                                                                                                                                                                                                                                                                                                        ",
"                                                                                                                                                                                                                                                                                                                                                                                                                                                                                                                                                                                                                                                                                                                                                                                                                                                                                                                                                                                                                                        ",
"                                                                                                                                                                                                                                                                                                                                                                                                                                                                                                                                                                                                                                                                                                                                                                                                                                                                                                                                                                                                                                        ",
"                                                                                                                                                                                                                                                                                                                                                                                                                                                                                                                                                                                                                                                                                                                                                                                                                                                                                                                                                                                                                                        ",
"                                                                                                                                                                                                                                                                                                                                                                                                                                                                                                                                                                                                                                                                                                                                                                                                                                                                                                                                                                                                                                        ",
"                                                                                                                                                                                                                                                                                                                                                                                                                                                                                                                                                                                                                                                                                                                                                                                                                                                                                                                                                                                                                                        ",
"                                                                                                                                                                                                                                                                                                                                                                                                                                                                                                                                                                                                                                                                                                                                                                                                                                                                                                                                                                                                                                        ",
"                                                                                                                                                                                                                                                                                                                                                                                                                                                                                                                                                                                                                                                                                                                                                                                                                                                                                                                                                                                                                                        ",
"                                                                                                                                                                                                                                                                                                                                                                                                                                                                                                                                                                                                                                                                                                                                                                                                                                                                                                                                                                                                                                        ",
"                                                                                                                                                                                                                                                                                                                                                                                                                                                                                                                                                                                                                                                                                                                                                                                                                                                                                                                                                                                                                                        ",
"                                                                                                                                                                                                                                                                                                                                                                                                                                                                                                                                                                                                                                                                                                                                                                                                                                                                                                                                                                                                                                        ",
"                                                                                                                                                                                                                                                                                                                                                                                                                                                                                                                                                                                                                                                                                                                                                                                                                                                                                                                                                                                                                                        ",
"                                                                                                                                                                                                                                                                                                                                                                                                                                                                                                                                                                                                                                                                                                                                                                                                                                                                                                                                                                                                                                        ",
"                                                                                                                                                                                                                                                                                                                                                                                                                                                                                                                                                                                                                                                                                                                                                                                                                                                                                                                                                                                                                                        ",
"                                                                                                                                                                                                                                                                                                                                                                                                                                                                                                                                                                                                                                                                                                                                                                                                                                                                                                                                                                                                                                        ",
"                                                                                                                                                                                                                                                                                                                                                                                                                                                                                                                                                                                                                                                                                                                                                                                                                                                                                                                                                                                                                                        ",
"                                                                                                                                                                                                                                                                                                                                                                                                                                                                                                                                                                                                                                                                                                                                                                                                                                                                                                                                                                                                                                        ",
"                                                                                                                                                                                                                                                                                                                                                                                                                                                                                                                                                                                                                                                                                                                                                                                                                                                                                                                                                                                                                                        ",
"                                                                                                                                                                                                                                                                                                                                                                                                                                                                                                                                                                                                                                                                                                                                                                                                                                                                                                                                                                                                                                        ",
"                                                                                                                                                                                                                                                                                                                                                                                                                                                                                                                                                                                                                                                                                                                                                                                                                                                                                                                                                                                                                                        ",
"                                                                                                                                                                                                                                                                                                                                                                                                                                                                                                                                                                                                                                                                                                                                                                                                                                                                                                                                                                                                                                        ",
"                                                                                                                                                                                                                                                                                                                                                                                                                                                                                                                                                                                                                                                                                                                                                                                                                                                                                                                                                                                                                                        ",
"                                                                                                                                                                                                                                                                                                                                                                                                                                                                                                                                                                                                                                                                                                                                                                                                                                                                                                                                                                                                                                        ",
"                                                                                                                                                                                                                                                                                                                                                                                                                                                                                                                                                                                                                                                                                                                                                                                                                                                                                                                                                                                                                                        ",
"                                                                                                                                                                                                                                                                                                                                                                                                                                                                                                                                                                                                                                                                                                                                                                                                                                                                                                                                                                                                                                        ",
"                                                                                                                                                                                                                                                                                                                                                                                                                                                                                                                                                                                                                                                                                                                                                                                                                                                                                                                                                                                                                                        ",
"                                                                                                                                                                                                                                                                                                                                                                                                                                                                                                                                                                                                                                                                                                                                                                                                                                                                                                                                                                                                                                        ",
"                                                                                                                                                                                                                                                                                                                                                                                                                                                                                                                                                                                                                                                                                                                                                                                                                                                                                                                                                                                                                                        ",
"                                                                                                                                                                                                                                                                                                                                                                                                                                                                                                                                                                                                                                                                                                                                                                                                                                                                                                                                                                                                                                        ",
"                                                                                                                                                                                                                                                                                                                                                                                                                                                                                                                                                                                                                                                                                                                                                                                                                                                                                                                                                                                                                                        ",
"                                                                                                                                                                                                                                                                                                                                                                                                                                                                                                                                                                                                                                                                                                                                                                                                                                                                                                                                                                                                                                        ",
"                                                                                                                                                                                                                                                                                                                                                                                                                                                                                                                                                                                                                                                                                                                                                                                                                                                                                                                                                                                                                                        ",
"                                                                                                                                                                                                                                                                                                                                                                                                                                                                                                                                                                                                                                                                                                                                                                                                                                                                                                                                                                                                                                        ",
"                                                                                                                                                                                                                                                                                                                                                                                                                                                                                                                                                                                                                                                                                                                                                                                                                                                                                                                                                                                                                                        ",
"                                                                                                                                                                                                                                                                                                                                                                                                                                                                            6 5 9 0 0 0 0 0 0 0 0 0 0 9 e e e e e e e e e e 0 0 0 0 0 0 0 0 0 0 2 0 0 9 9                                                                                                                                                                                                                                                                                                                                                                                                                                                                               ",
"                                                                                                                                                                                                                                                                                                                                                                                                                                                    @ , , , 2 1 < , 2 2 3 L e.oX;X;X*X&X&X@X%X*X%X&X&X*X*X&X&X&X&X&X&X&X&X&X&X&X&X&X&X*X*X&X*X*X&X*X;X[.e.r 4 2 1 1 1 9 , , , 1 , ,                                                                                                                                                                                                                                                                                                                                                                                                                                                     ",
"                                                                                                                                                                                                                                                                                                                                                                                                                                                  @ : > > 1 r r 4 4 3 4 r P y.OX;X5X*X#X@X%X%X%X%X%X%X%X&X&X&X%X%X&X&X%X%X&X&X&X%X&X&X%X&X&X%X%X%X:X;XU.y.4 4 4 4 1 > 1 1 4 r 1 > <                                                                                                                                                                                                                                                                                                                                                                                                                                                     ",
"                                                                                                                                                                                                                                                                                                                                                                                                                                  % @ 5 < < 2 2 4 OX&X5X5X5X6X5X5X5X9X9X9XgXgX3.Y jXjXtXyXtXtXtXtXiXiXiXiXiXiXiXiXiXiXiXiXgXhXyXyXyXhXyXyXyXiXtXhXgX] ` 9X5X5X8X8X;X;X&X:X&X-X;X;X}.E 2 2 9 a 9 5 %                                                                                                                                                                                                                                                                                                                                                                                                                                     ",
"                                                                                                                                                                                                                                                                                                                                                                                                                                  0 1 2 P P P P Y *X=X6X6X:X6X5X6X5X5X5X9XjX9Xw.R 9XgXgXgXtXtXtXgXgXgXgXgXgXgXgXgXgXgXgXgXgXgXgXgXgXgXgXgXgXgXgXgXgX] ` 9X9X9X;X;X;X;X%X5X-X=X%X-X!.R T P L 3 4 2 1                                                                                                                                                                                                                                                                                                                                                                                                                                     ",
"                                                                                                                                                                                                                                                                                                                                                                                                                  > > 1 1 > > > L -.OX8X9X9X9X9X9X5X5X6X:X-X;X X` ` ` ` ;.>.e.~ ! >.>.9.w.<.w.w.8.w.w.w.w.w.w.w.w.w.w.w.w.w.w.w.w.w.w.w.w.w.w.w.q.q.^ / t.9.9.w.w.w.w.w.gX5X:X5X:X5XgX5X5X5X5X:X;Xu.T > 1 : 1 2 2 1 &.                                                                                                                                                                                                                                                                                                                                                                                                                  ",
"                                                                                                                                                                                                                                                                                                                                                                                                            DXDXDX_ _ -.8.-.-.8.9.L.L.Y.L.Y. X|.~.~.!.^.T.Y.I.[.;.<.<.>.>.e.r.| E e.t.7.9.9.9.9.9.7.7.9.7.7.9.9.9.9.9.9.9.9.9.9.9.9.9.9.9.9.q.q.9.a.! ( t.t.9.9.w.w.w.8.;X@X@X+X$X+X@X X|./.!.G.Y.q.7.8./ +.-.8.8.+.&.                                                                                                                                                                                                                                                                                                                                                                                                                  ",
"                                                                                                                                                                                                                                                                                                                                                                                                        , 1 1 r 4 -X6X5X5X9X5X9X9X9XT 4 2 2 ~ ( / =._ ;._ ` ,.,.:.>.>.>.>.>.:.{ Q e.e.t.t.t.e.e.e.e.e.e.e.e.t.t.t.t.t.t.t.y.t.t.e.t.e.p.t.p.p.p.p.t.^ ( p.t.y.9.9.9.9.w.<.<.<.w.<.;.8.8.7.7.-.T T 1X;X9X:X:X6X:X-X X9.4 r , ,                                                                                                                                                                                                                                                                                                                                                                                                           ",
"                                                                                                                                                                                                                                                                                                                                                                                                  N N Q %.}.}.OX;XtXtX:X@XF.` / ^ ( ! ( q 3 o.O.+.+.+.>.:.>.:.:.>.>.>.>.:.O.E E L ! ! ! ! E T E E T T T T ! ! ! ! ! T ! T T ! ! T T T ! ! ! ! ! ! ~ ! T ~ e.t.t.t.y.t.t.t.0.0.9.t.9.7.;.7.r.e.Q 4 e.9.w.w.w.#X&X-X:X&X|. Xi.8.X.X.B m                                                                                                                                                                                                                                                                                                                                                                                                   ",
"                                                                                                                                                                                                                                                                                                                                                                                                &.2 3 R L.;X;XY.Y.$X X Xu.>.^ ~ Q { ..{ q 3  . .O.| @.{ ..{ Q Q Q Q Q Q Q ! ( O.O.o.O.O.O.O.O.O.O.O.O.O.O.O.O.O.:.-.-.-.-.=.O.O.O.O.O.O.O.O.+.+.:.+.-.O.O.+.O.o.O.o.@.o.+.( ( / _ 9.7.w.w.p.e.! T e.:.:.7.>.}.[.!.|.!.E.&X!.D./ T E p                                                                                                                                                                                                                                                                                                                                                                                                   ",
"                                                                                                                                                                                                                                                                                                                                                                                          + $ @ $.OX8X9X9X9X9XP P _ / _ ^ ^ ^ | o.@.....q q O.O.#.#.W 2 E I s s 3 3 3 3 L ! e.t.t.t.u.u.i.u.p.p.p.u.u.u.u.u.u.u.K.K.u.u.J.J.u.u.u.u.u.u.u.u.a.u.L.I.I.i.u.T P L L 3 L L T ! ! ! L t.9.7.7.:.e.~ E e.e.e.e.-.>.=.w.` ' Y P.:X:X;XoX[.n.> > @                                                                                                                                                                                                                                                                                                                                                                                             ",
"                                                                                                                                                                                                                                                                                                                                                                                    # $ @ SX<X:X*X&X-XS.Y Y P E q  .o. . .| | o.#.#.I 3 8 9 3 q 4 4 r.}.}.}.}.}.}.}.}.OXOXOX$X$X$X@X$X+X$X$X$X$X$X$X>X#X#X#X#X#X#X>X:XtX:X:X:X:X:X:X:X:X:X:X:X:X-X:X:X:X:X;X;X;X;X1X1X;X}.}.[.[.n.E q q q 3 E 3 L p.e.t.9.9.;.;.e.1.6.u ! ) R 3.!.E.[.OX}..X5.6 *                                                                                                                                                                                                                                                                                                                                                                                       ",
"                                                                                                                                                                                                                                                                                                                                                                                    $ > r >X#X-X-X;X1Xp.3 3 I q w | #.@.@...@.o.o.@.4 3 2 2 4 3 P P w. XT.~.R.R.R.R.R./././._._._._.).).).).).).`.`.).).).).`.`.`.).tXtXtX:X6X-X-X-X-X:X6X6X:X:X:X:X:X-X-X-X-X:X-X-X-X:XR.T.P.[.[.T L L L P P T T e.r.e.e.r.r.r.7.e.1.q { o.O.7.}.}.|.+X/.*X8.3 2                                                                                                                                                                                                                                                                                                                                                                                       ",
"                                                                                                                                                                                                                                                                                                                                                                                5 @ 8X9X:X-X-X5XT.q.r 3 W Q } e e o.@.#.q q I q L L [.[.n.n.a.I.J.Y.P.E.E.E.H.H.R.E./.tXtXtXeXeXeXwXwXtXtXtXyXwXwXwXwXtXtXyXwXwXeXwXtXH.W.H.H.H.H.H.H.H.H.H.H.H.H.H.W.W.W.H.H.H.H.H.H.E.W.E.G.P.P.L.I.I.I.I.[.[.[.P T I E I I I e.e.$.q { $.#.! 4 p.u.&X%X%X&X}.I.E :                                                                                                                                                                                                                                                                                                                                                                                   ",
"                                                                                                                                                                                                                                                                                                                                                                              % oXoX:X:X=X-X'.u.P I 2 e X.[ X.0 9 q q { M.n.n.[.n.[.[.[.P.P.G.@X5X5XtXeX3X-XtXtXtXtXtXtXtXtXtXwXwXwXwXwXwXwXuXxXxXxXxXxXxXxXxXxXaXxXxXhXxXxXxXxXxXxXhXhXhXhXhXhXhXhXhXuXuXhXhXhXhXhXhXuXiXiXiXgXtXtXtX5X6X:X+X!. X~. X}.}.[.[.[.L I q 2 } %.$.E q p 3 |.~.'.=X%X&XOX}.X X                                                                                                                                                                                                                                                                                                                                                                               ",
"                                                                                                                                                                                                                                                                                                                                                                              X ,X1X$X-X=X-X-Xn.! 0 q i } } } e 0 q I ! n.n.n.[.I.[.I.[.P.P.P.%X5X:XtXeXeX2XtXtXtXtXtXtXtXtXtXeXeXwXwXtXwXwXuXmXxXxXxXxXxXxXxXxXcXxXxXxXxXxXxXxXxXxXxXlXlXlXhXhXuXuXuXuXhXhXhXhXuXuXuXuXiXiXiXiXgXtXiXtX6X6X!.R.!. X|. X[.[.[.[.3 3 2 2 u @.%.p u e E  XE.'.`.-X%X@X}.+ .                                                                                                                                                                                                                                                                                                                                                                               ",
"                                                                                                                                                                                                                                                                                                                                                                              $ ,X;X&X&X&X:X&XQ p b n p q 2 3 | #.O.O.O.=._ _ _ ` ' w.' ` ' w.0.F.w.G.G.H.H.H.H.H.H.H.H.Q.Q.Q.Q.Q.H.Q.Q.Q.Q.Q.Q.Q.Q.Q.].].].].].].`.`.].].`.`.'.'.'.'.'.`.`.`.`.`.`.`.'.'.`.`.`.`.).).).(._./._./.Q./._./._./.(./.F.' <.;.;.=.;.-.O.$.:.! 3 3 u a i p T R :X*X$X&XY.[.+ +                                                                                                                                                                                                                                                                                                                                                                               ",
"                                                                                                                                                                                                                                                                                                                                                                              + ,X1X;X*X;X;X;Xp p b i p u 3 P ( / _ / _ _ ] ] ] ] ' ' ' ' ' 3.w.w.w.F.W.W.H.H.H.H.H.H.Q.Q.Q.H.Q.H.Q.Q.Q.Q.Q.Q.Q.].].].].].].].].`.].`.].`.`.'.'.'.'.`.'.`.`.].`.'.`.`.'.'.`.`.`.`.].].)././././././._./._._.).).@X' ' ` ` _ _ ;.=._ -.:.! 4 L u p a i ! T ;X;X;X X X[.@ X                                                                                                                                                                                                                                                                                                                                                                               ",
"                                                                                                                                                                                                                                                                                                                                                                            O % E T T T T ^ ^ a p W W o.a.u.0.T.T.P.P.G.G.%XtXtXtXtXjXhXhXhXuXyXyXiXyXyXyXyXiXiXyXuXuXuXuXuXuXuXuXuXuXuXuXuXpXpXpXpXpXuXuXpXpXpXaXpXxXpXuXuXxXvXbXvXbXbXvXvXvXvXxXuXuXpXuXuXuXuXuXyXyXiXiXiXiXiXiXiXiXiXuXiXiXtXtX-X(.!.!.|.~.~.|.|.|. XY.q.y.O.u q i q E ) ( ^ R ^ ( e 9 O .                                                                                                                                                                                                                                                                                                                                                                           ",
"                                                                                                                                                                                                                                                                                                                                                                            . $ r.-.;.` 8.;.;.2 u u { :.u.P.G.+X+X!.!.!.!.=X-XtX6X-XtXtXtXtXtXtXwXwXwXyXrXyXiXiXuXuXuXuXuXuXuXpXpXpXuXuXuXuXuXuXpXpXpXuXuXpXpXpXpXpXxXxXxXxXcXvXbXbXvXvXvXvXvXvXxXuXuXpXuXuXuXuXuXuXyXiXiXiXwXwXwXwXeXwXwXwXtXtXtX=X(.!.!.|.!.!.!.~.|.~.T.U.u.:.~ q a 3 L _ :.=._ ;.7.< , & o                                                                                                                                                                                                                                                                                                                                                                           ",
"                                                                                                                                                                                                                                                                                                                                                                          ; . @ XXOX&X&X&X&X X3 3 E p.i.0.>X-XeX3XeXeXeXeXeXwXtX-X`.).'.'.`.'.'.'.'.eXyXuXuXuXuXuXuXuXuXpXuXaXuXpXpXpXpXpXpXaXaXaXaXaXaXaXaXaXaXaXsXbXbXbXbXnXnXnXvXbXnXbXbXnXbXcXaXaXpXuXuXuXuXuXyXyXuXuXwXeX-X-X-X=X=X'.=X'.).#X%X/././././././.R.~.!.!.T.w.u.a.E u L 4 *X;X&X&X$XoX: , O o                                                                                                                                                                                                                                                                                                                                                                           ",
"                                                                                                                                                                                                                                                                                                                                                                          O X $ p.Y.>X&X%X-X%XOX8.3 ^ ` P.>X=X=X=XeXeXeXeXeXwXyXiXiXtXtXiXyXiXiXuXuXyXuXyXuXuXuXuXuXuXuXpXaXvXnXbXbXbXbXbXbXbXbXbXbXbXbXbXnXbXbXnXvXbXbXbXNXbXBXbXbXbXvXbXbXvXvXbXvXvXvXvXvXvXcXcXxXxXxXxXxXxXkXhXhXhXuXuXiXtXtXtXtXtXtXtXtXeXtXtX&X/.!.!.@X|.7.! 3 2 OX X&X>X=X#X~.L.@ , . O                                                                                                                                                                                                                                                                                                                                                                           ",
"                                                                                                                                                                                                                                                                                                                                                                          . . % *.r.1X;X-X'.'.:XG.' ` 8.y.}.}. XT.&X&X&X:X-X-XeXtXtXtXtXwXtXtXtXtXtXtXyXiXyXiXtXtXtXtXtXiXuXmXcXvXvXvXcXvXvXvXvXvXcXvXvXvXvXvXvXvXvXvXvXvXvXvXvXcXnXkXuXhXuXuXuXuXuXhXuXuXuXhXhXhXgXgXhXuXhXyXtXgXtXtXtXtX2X=X-X:X:X:X:X&X*X*X*X;XOX[.[.I.[.Y.q.] ] ] -X-X=X-X%X&X}.s.O o . o                                                                                                                                                                                                                                                                                                                                                                           ",
"                                                                                                                                                                                                                                                                                                                                                                          . = m., : oX;X&X-X-X-X-X;X:XU.P R Y ` ] G.G.T.G.R._.].).).)._.].`.].`.].`.'.'.'.'.'.'.'.`.].].].'.uXuXaXpXaXpXpXpXpXpXpXpXpXpXpXpXaXaXaXaXaXaXaXaXpXaXaXuX`.'.`.`.`.`.].].].].].].].Q.Q.Q.H.Q.Q.Q.Q._.Q.H.H.H.W.W.H.E.G.H.H.H.G.G.G.G.L.u.y.p.^ P R D.:X&X;X-X-X-X=X-X X( @ g.f.. O                                                                                                                                                                                                                                                                                                                                                                           ",
"                                                                                                                                                                                                                                                                                                                                                                          . = H m.V.> > r ;X;X-X-X-X-XtXjXjXzXP P L P R 9X5XtXtXgXgXtXtXiXtXtXtXuXiXiXMXnXnXbXbXbXbXbXbXbXbXNXbXNXNXNXNXNXNXNXNXNXNXNXBXBXNXNXNXNXNXNXNXNXNXbXbXbXNXNXNXKXHXHXbXnXnXnXnXbXbXbXvXvXvXvXnXmXmXiXiXtXiXtXtX6XtX:X:X5X5X5X5X5X:X:X:XP T P P  XGXzXgX:X:X=X=X%X*Xq.r 1 p l.D S . .                                                                                                                                                                                                                                                                                                                                                                           ",
"                                                                                                                                                                                                                                                                                                                                                                          . & G V.V.: 1 4 ,X1X=X=X3X3XyXhXzXGXT T Y P / 9XgXgXgXgXgXtX5XyXtXyXyXyXuXuXuXbXbXbXnXbXbXbXbXbXbXbXbXbXBXbXbXbXbXbXbXBXBXBXBXBXBXBXBXBXNXNXNXNXBXbXNXbXbXNXbXbXbXnXnXbXbXnXbXbXvXvXvXvXvXvXnXnXmXiXyXyXtXwXeXeX-X6X:X5X5X5X5X5X5X9X9XP T P P  XGXjXjX-X&X=X&X;XoXn.: $ m m.D B . &                                                                                                                                                                                                                                                                                                                                                                           ",
"                                                                                                                                                                                                                                                                                                                                                                        . S H G h.G m.m., @ 1 ;X;X:X5XH.S.H.H.zXzXlXzXzXR R ] R ] ] ] ` tXtXyXyXuXuXuXuXuXuXuXuXuXuXuXvXvXbXnXbXbXbXbXbXbXbXbXBXBXbXbXbXbXbXbXbXbXbXbXbXbXbXbXbXBXbXbXBXBXNXbXbXbXvXaXuXuXuXuXuXuXiXiXyXiXyXiXiXtXtXtXtXeX:X:X0.T Y ! ! R R R R zXjXjXjXT.` ' F.5X;X6XoXoX+ X & v.H S M H x l                                                                                                                                                                                                                                                                                                                                                                           ",
"                                                                                                                                                                                                                                                                                                                                                                        o l S x S S c.m.6 $ , oXXX;X;XR.F.E.^.hXlXlXlXzX] ] ] ] ] ] ] ` tXgXtXtXiXhXhXhXyXyXuXuXhXuXuXvXmXvXxXcXcXvXbXbXbXbXbXbXbXbXbXbXbXbXbXbXbXbXbXbXbXbXbXbXNXvXbXbXbXbXnXnXbXbXaXuXuXuXuXuXyXtXtXgXtXtXtXtXtXtXtXtX5X:X;Xq.^ ! ^ R R R ] ] lXhXjXgX!.0.` L.OXOXOXXXXXX X d h.H G F S c c O                                                                                                                                                                                                                                                                                                                                                                         ",
"                                                                                                                                                                                                                                                                                                                                                                        O S H F H S H D c.c.z.$ + @ 1 { XX;X5X=X-X-X-XtXmXmXmXHXHXHX] R R R ] ] ] ] ] ] ` ] ] ' ' ' 3.lXlXhXhXhXhXhXhXmXhXhXxXxXxXxXxXxXxXxXxXxXxXxXxXxXxXxXhXxXlXlXxXxXlXhXlXlXlXlXlXhXhXhXhXhXgX] ] ] ] ] ] R ] R R R R ` R R ] JXzXzXlXxXxXmX'.=X=X&X;XOX,Xr.1 @ + X X g.h.h.H Z S S F c x O                                                                                                                                                                                                                                                                                                                                                                         ",
"                                                                                                                                                                                                                                                                                                                                                                        O S H H j 7 m c 4.x.z.B M B , e X.O._ E.!.-X-X6XhXuXhX(.(.!.%X(.*X*X-X6X-X6X6X6X6X-X6X:XtX6X-X(.).(._.).).).(./.+X=X).`.`.).%X).).=X%X).).).).).).).).).(.).).).=X=X=X=X=X%X#X/.(./.(.).).=X%X%X%X(.(.!.!.!.@X@X|.(.@X|.@X;X%X/.gXgXgXlX=X-X:X~.w.~ | a $ 8 l j j h.h.c x F F S H x S O                                                                                                                                                                                                                                                                                                                                                                         ",
"                                                                                                                                                                                                                                                                                                                                                                        X D G G 7 - l z c x.c.z.c.z.* % , 1 > n.n.9X1X9X9X9X9X` ' ] HXnXnXKXKXnXbXbXbXbXNXNXNXNXNXKXKX3.' ' ' ' ' ] ' ' ] ] 3.3.3.3.3.3.3.3.3.3.3.3.3.3.3.3.' ' ' ' ' ' S.S.' F.S.3.S.3.' ] ] ] S.mXnXvXmXmXmXmXmXmXnXnXnXvXvXHXmX] ] R OXoXoXoX;X;X1Xa.{ + $ X # h.h.v.v.h.&.= m S m G F S S O                                                                                                                                                                                                                                                                                                                                                                         ",
"                                                                                                                                                                                                                                                                                                                                                                        O &.x.c.k f m m z m z m m S G x.V.N..X2 4 4 4 r r r 4  XjXjXgXhXuXuXwXwXrXrXdXvXbXbXBXBXbXNXKXKXKXHXHXHXHXKXKX] ' KXKXKXKXKXKXKXKXKXKXKXKXKXKXKXKXKXKXHXHXHXHXKXHXtXW.KXHXHXHXHXHXHXnXmXmXnXcXcXcXcXxXcXxXwXrXyXeX'.-X6XtX5X;X;X4 > @ : > r > > [ m.m.z.c.j d l l z l j m = = m.Z.H S O                                                                                                                                                                                                                                                                                                                                                                         ",
"                                                                                                                                                                                                                                                                                                                                                                        X &.j.z.k f z Z z z Z Z A M &.4.5.m.B.5.5.5.5.5.l.Q r _ q.D.D.F.S.S.tXyXrXrXpXcXcXcXvXxXvXvXnXvXvXvXfXvXBX'.`.eX-XnXNXBXBXNXNXNXNXNXNXNXNXNXNXNXNXNXNXNXNXBXNXNXKXxXiXtXMXnXvXvXxXxXxXxXxXaXaXpXpXpXuXuXuXeXwXeX2X1X;.w.w.` 8.+.1 @ &.N *...&.&.k.m.D G D = 7 7 7 f = j x = * Z.c.F S O                                                                                                                                                                                                                                                                                                                                                                         ",
"                                                                                                                                                                                                                                                                                                                                                                        . D D c.k 6 z c M m M m m V z V x z.j.B.B.V.B.N.<X&., 2 2 2 2 4 r 4 9X9XgXtXgXjXjXzXhXzXlXxXhXxXxXaXpXvXNX3.3.NXnXNXNXNXNXNXNXNXNXNXNXNXNXNXNXNXNXNXNXNXNXNXNXbXKXKXHXS.'.bXbXcXuXuXyXyXgXgXjX9X5X5XtX5X5X5X6X;X;X.X> 2 1 1 , , % , b.m.m.m.m.m.c.g.l j f d d f j f f z x d f c.c.G S .                                                                                                                                                                                                                                                                                                                                                                         ",
"                                                                                                                                                                                                                                                                                                                                                                        . H k z l S x x m M M m x S x Z m D M &.b &.N N V.V.<X0X0X0X0X0XDX0X4 P P T R R R R _ R ] ] ] hXlXpXuXcXBXS.S.hXuXxXxXxXxXxXxXdXdXdXxXxXaXaXaXsXsXaXaXaXaXpXpXaXxXxXzXS.'.uXiXuXiXiXiXjX5XY P L L P 4 4 4 r r r r < <XN..XN.V.V.m.x.m.m.t 7 7 7 f l l j d j d f f f f d f l z f - S V .                                                                                                                                                                                                                                                                                                                                                                         ",
"                                                                                                                                                                                                                                                                                                                                                                        . S S z m x x x x m m Z c m M D B N m m m n M &.m.B.V.<X<X7X7X,XDX0X5.%.6.r.s.s.s.s.s.s.n.a.u.*X&X-X=X6XiXF.w.:X-X=X=X=X=X=X-X-X-X-X-X-X-X-X-X-X-X-X=X=X=X&X=X%X*X*X*X<.U.*X*X*X*X*X@X XOX8.8.5.6.6.X.[ X.X.n b i p N.m.m.m.B.m.x.x.j.x.z f = d = j j l l f j f f f j l l j z d f S V .                                                                                                                                                                                                                                                                                                                                                                         ",
"                                                                                                                                                                                                                                                                                                                                                                        O F H S Z c x x x x m x m m N M N &.v N N n &.&.&.&.5.b.b.b.b.s.7X7X7X0XGXPXPXPXJXJXPXPXJXLXJXR R R R ] ] ` ' ] ` ] ] ] ] ] ] ] ] ] ] ] R R R R R R R R R R R T T P ^ T ^ R R R R R R T ( 0XDXDX0X7X.XN.N.V.N.N.B.m.b.&.M X.X.N N N v m m j d f = = d d l V j j f f f = d l H Z Z S S .                                                                                                                                                                                                                                                                                                                                                                         ",
"                                                                                                                                                                                                                                                                                                                                                                        . o # H x x x x x x m c B G m.<XIXt t m S N &.&.k.l.l.l.b.b.b.b.s.n.n.n..XXXoXoXoXoXqXqXoX0XJXGXFXGXGXGXJXJXGXGXGXGXGXGXGXGXGXGXGXGXGXGXGXGXGXGXGXGXGXGXDX0X,X,X,XoX<X<X,X,X,X,X,X,X,X,X<X7XN.m.b.b.*.*.&.&.&.&.N &.N D N N D D k 7 c m V l d = = c C.c.g.x l j j f f j d l F S Z O # O                                                                                                                                                                                                                                                                                                                                                                         ",
"                                                                                                                                                                                                                                                                                                                                                                        . X # G m x J x x c S x m D C.7XIXM y B S N &.&.l.x.l.l.x.x.b.b.s.M.n.n.n.N..X.XXXoXOXXXOX8XJXJXGXJXJXLXLXLXLXLXLXLXLXLXLXLXLXLXLXLXLXLXLXLXLXLXLXLXJXJXGXGX0X0X7X7X7X,X,X7X0X0X7X7X,X7X7X7XN.l.k.5.&.&.&.&.&.A A M N M N N D D k y m m V l d d - c AXC.h.z j j f j f d d z Z A A . O O                                                                                                                                                                                                                                                                                                                                                                         ",
"                                                                                                                                                                                                                                                                                                                                                                        X i 5 + v m c x c x c S m M g.4.4.* * m D N 4.l.x.l.x.l.b.b.b.b.M.M.n.B.B.B.N.N..XN.}.}.,X,XoXoXoX8X8X8X8X8X8X8X0X0X8X}.XXXXXX}.}.}.}.}.OXOXXXXXOXXXXXXXXXXXXXXXN..XN.s.r.M.b.M.b.M.l.b.l.l.5.5.5.4.&.&.&.&.N B m M N N M M D H M m m c x l = = = - z.4.G j l j j j d d d l m X + v M X                                                                                                                                                                                                                                                                                                                                                                         ",
"                                                                                                                                                                                                                                                                                                                                                                        : n , $ 8 t x B x m m m M B &.4.&.y 6 D H &.&.j.x.x.b.x.b.b.b.b.b.b.m.b.M.M.N.N.N.N.}.}.,X,XoX8X8X8X8XqXqX0X8X8X0X0XoX}.XX}.}.XX}.XX}.}.XXXXXXXXXXXXXXXXXX.X.X.XN..XN.s.M.l.l.l.l.5.r.l.l.5.5.5.5.5.4.&.&.&.D M M M M N N M D D A S m m x l j = = y h.4.H j j d j f f = j k k X + b v X                                                                                                                                                                                                                                                                                                                                                                         ",
"                                                                                                                                                                                                                                                                                                                                                                    X * W @.....+ + c B x B B m M c * * % D D N N X.X.&.l.l.l.l.b.b.b.b.b.b.b.M.s.n.n..XN.N.n.}.oXqXoXqX8X8X8XXXs.0X0X0X0XXXXXOXXXXXXXXX.X.XXX.X.X.X.X.X.X.XXX.X.X.XN.N..X.X.XB.M.b.l.5.l.l.M.5.5.5.5.l.k.k.x.&.&.N m D n M N M N N N N A M S D S B x j = = & = & d d j j j j f j # X b p X.p i . O                                                                                                                                                                                                                                                                                                                                                                     ",
"                                                                                                                                                                                                                                                                                                                                                                    O 6 I | o...0 t % % & x k m m c j l j M M N D 4.4.4.x.l.l.l.b.b.b.b.b.M.s.n.,X,XN.s.N.N.n.n.oX8X,X8X8X8X8X1XoX0X8X,X,XXXXXOXXXXXXXXXXXXXXXXXn.n.n.N.XXXXXXXXXX.X.XN.N..X.Xn.n.b.l.5.x.l.l.5.5.5.5.l.k.5.z.N m C.k.4.y t N M N N D N D S M M S B z d = d = j d d h j j l d ; # # , n n W } i $ #                                                                                                                                                                                                                                                                                                                                                                     ",
"                                                                                                                                                                                                                                                                                                                                                                    X , 3 o.~ ~ @.@.$ + $ v m c M x B J S S B &...x.x.b.l.l.l.x.x.x.x.b.M.M.r.0XJXLX8X) .Xn.N.N.7X7X8X8X8X8X8X8X8X8X8XXXXXXXXXXXXXXXXXXXXXXXXX}.r.a.r.s.N..X.X.X.X.X.X.X.X.X.X.XN.N.5.5.l.l.l.l.l.5.l.l.5.5.l.M v IX<Xm.6 * B B m N m D M S 7 7 N B c j h h = d = d h h = k * X X 9 [ W Q ! Q b X O                                                                                                                                                                                                                                                                                                                                                                     ",
"                                                                                                                                                                                                                                                                                                                                                                    X , ~ e.:.o.o.@.{ ....X X + * B B S x S D N X.z.x.l.l.x.x.x.b.b.b.b.M.M.6.M.n.0Xn.) .Xn.N.n.,X7X8X8X8X8X8X8X8X8X8XXXXXXXXXXXXXXXXXXXXXXXs.n.LXLXqXn.o..X.X.XXX.X.X.X.X.X.X.XN.N.s.5.l.l.l.l.l.5.5.z.k.k.l.M N x.N &.% * m m m N D D M S m S m c d d d = h j = d h O . X % M v b X.Q W o.o.n X X                                                                                                                                                                                                                                                                                                                                                                     ",
"                                                                                                                                                                                                                                                                                                                                                                    X , O.e.:.O.O.O.#.o...e e . O * * * % x D D D 4.4.4.z.x.x.x.b.b.M.M.m.m.b.b.s.s.s.6.B.N.n.n.,X,X8X8X8X8X8X8X8X8X8X}.XXXXXXXXXXoXOXXXXXXXn.s.LXLX,Xn.{ N..X.X.X.X.X.X.X.X.XN..XN.n.M.l.l.l.l.l.l.5.k.k.j.z.D m m c c y k N N N N N N D M m m S z h h h = ; & ; o o O X % 9 b } } W W u o.@.n . .                                                                                                                                                                                                                                                                                                                                                                     ",
"                                                                                                                                                                                                                                                                                                                                                                    X i t.p.>.O.O.^ O.O.@.%.} . X X X X X D D H &.D &.&.x.x.x.x.b.b.M.M.b.b.B.5.X.X.5.N.N.N.}.}.,X,X8X8X8X8X8X0X0X8X8X}.XXXX.XXXXXXXXXoXXXXX$.6.8X8XqXB.[ N.XXXXXXXX.X.X.X.XN.N..X.X.XB.l.l.l.l.l.l.l.z.z.j.k.&.&.* 6 * D N N N N N D N N M D D J x l d h h . . . X . X X n } } W W W W W #.@.n . .                                                                                                                                                                                                                                                                                                                                                                     ",
"                                                                                                                                                                                                                                                                                                                                                                    X a u.u.>.=.t.t.0.t. .| { 7 b *.*.%.5.5 $ % * * % $ 6 &.x.b.b.b.b.M.b.b.n.B.M.M.B.N.N..X}.}.,XqX8X8X8X8X8X,X}.8X0X}.XXXXXXXXXXXXXXOXoXXX6.r.s.s.s.6.{ N.XXXXXXXX.XXX.X.X.X.X.XN.M.M.l.l.l.l.l.k.k.5.5.5.5.X.X.N &.&.N D D D D D B D B D * % o o o O O # t n M b v $ , } } Q #.#.#.q w o.@.[ . O                                                                                                                                                                                                                                                                                                                                                                     ",
"                                                                                                                                                                                                                                                                                                                                                                    + p 0.0.;./ u.i.J.K.=.o.| e } 5.*.r.*.$ $ @ @ $ X $ % &.x.b.b.b.b.m.b.b.n.M.B.n.n.B.n.N.N.N.,XqX8X8X8X8X8XXXn.8X0X}.XXXXXXXXXXXXXXXX,XXX6.6.s.s.s.%.[ .XXXXXXXXX.X.X.X.X.XN.N..Xr.5.l.l.l.l.k.k.k.5.5.5.k.X.&.&.D N D D G D D D D G B D O . . . . X X + ..[ [ X.N 6 9 } W E :.o.#.w w #.#.[ . .                                                                                                                                                                                                                                                                                                                                                                     ",
"                                                                                                                                                                                                                                                                                                                                                                    $ ! u.u.;.( t.u.0.J.OX3 2 3 | ,.;.;.7.:.8.r.r.r.r.5.: > , @ , , , , b.b.m.m.B.B.N.N.N..X.X.X7X0X0X8X8X8X0XOXn.oX,X}.}.XXXXXXXXoXoXXXXXoX,X,Xo.o.{ M..X.X.X.X.X.X.X.X.X.X.X.X.X.Xb.l.l.l.x.4.l.l.l.k.x.4.&.D D D D D D G D * X X X X X + . X [ [ X.X.X.{ { ! W Q X.9 , 0 q o.O.+.#.w p #.#...+ +                                                                                                                                                                                                                                                                                                                                                                     ",
"                                                                                                                                                                                                                                                                                                                                                                    1 L u.u.>.O.t.u.0.0.OX3 q 3 ^ ;.` <.` ;.9.8.7.e.t.p.> > : < < , < < b.b.b.m.m.B.N.N.N..X.XXX0X0XqX8X8X8X8XOXa.oX,XXXXXXXXXXXXXoXOXOXoXXX,X,Xo.o.o.M..XN..X.X.X.X.X.X.X.X.XN..XN.b.l.l.5.l.l.b.5.5.g.z.4.D G G G H H F N m 6 + X X X X X X + W W } W { Q ! ! ! Q [ 9 9 < 0 O.+.+.O.u p :.#.{ + +                                                                                                                                                                                                                                                                                                                                                                     ",
"                                                                                                                                                                                                                                                                                                                                                                X X o.7.J.u.>.O.t.u.0.0.}.3 2 ^ q.|.|.+X&X&X$X3.' ' 3.w.q.y.y.8.o.! r.r.r > 2 r 4 3 3 3 L L P ^ T T ! 8X8X8X8X8X0X0X0XDX0XOXoXoX,X,X,X,XoX,X,X,X,X,X,X,X.X.X.X.X.X.X.X.X.X.X.X.XB.b.l.b.b.b.l.l.*.@ > @ : $ @ + $ + + + + + + p %.u W ..%.%.@.@.! ! ! ! ( :.:.O.~ | @.2 0 < 0 @.O.O.+.E u $.#.{ [ X..                                                                                                                                                                                                                                                                                                                                                                   ",
"                                                                                                                                                                                                                                                                                                                                                                X $ a.J.D.0.>.O.t.u.<.w. X3 q |.|.T.E./.#X#X(.#X>XeX3XtX/.P.D.;.^ T I.i.q.I.L.Y.Y.U.U.T.Y.T.~.Y.U.[.t.E I E E u E ! E ! ! ! ! ! ! ! ! s ! ! ! W ! ! E E ! E u u u u u a 0 0 2 0 0 0 0 2 0 2 0 2 q 1.s.e.t.e.e.e.e.e.e.e.e.e.1.1.e.3 ! O.-.=.O.( :.:.:.:.:.-.:.#.| | ~ @.@.9 9 o.O.O.+.E E $.:.#.*.*.X                                                                                                                                                                                                                                                                                                                                                                   ",
"                                                                                                                                                                                                                                                                                                                                                                X $ t.u.D.u.>.=.p.0.D.F.}.3 q U.|.R././.(.(.(.#X#XeXtX-X#XE.T.<.^ T [.[.P.T.Y.P.T.E.R.T.T.E.T.R.T.Y.>.I I E u u W ! E Q ! W ! ! ! W E E E E ! 3 E E ! E W L u u u u a a 0 2 9 2 2 9 2 0 0 0 q q u *.n.t.9.t.t.t.t.9.9.9.7.t.p.t.t.4 T O.;.>.,.=.>.>.>.>.:.-.-.+.| o.( o...9 9 @.+.=.O.E E o.O.#.%.*.X                                                                                                                                                                                                                                                                                                                                                                   ",
"                                                                                                                                                                                                                                                                                                                                                                X + p.t.t.( _ _ 9.9.|./. XI p T.|.|.T.+X@X(.).`.).wXwXeX`.tXmX` =.,.lXxXeXeXH.W.H.W.W.W.H.H.H.E.H.H.E.T.E.P.P.T.{._ 2.{.E.E.P.E.E.T.Y.P.P.P.P.P.E.E.T.E.E.E.P.P.P.P.Y.P.L.q.e.! / u.u.u.J.J.D.J.J.D.F.<.<.<.<.<.<.<.<.<.<.<.F.R. X4 u Q ;X-XP.Y.;.;.-.-.-.=.=.O.~ o. .#.@.< 2 #.O.+.+.O.$.q I #.@.*..                                                                                                                                                                                                                                                                                                                                                                   ",
"                                                                                                                                                                                                                                                                                                                                                                X + r.9.t.( =.>.y.9.|./.@XI p T.T.T.D.E.#X).).`.).wXwXeX'.wXmX] =.,.lXxXeXwX).).=XeXeX3XeX3X-X3XE.R.E.E.P.E.P.E.R.` ,.E.E.E.E.H.W.G.G.H.H.H.G.H.E.P.E.W.H.H.H.E.E.P.P.P.P.q.t.~ ` q.q.F.D.D.0.D.D.F.E.!.!.E.E.E.E.T.E.T.Y.Y.G.E. X4 u Q ;X-XP.P.;.;.-.-.-.=.=.O.~ o. .@...< 0 #.O.O.O.O.$.q I #.@.%..                                                                                                                                                                                                                                                                                                                                                                   ",
"                                                                                                                                                                                                                                                                                                                                                                X + e.7.e.( >.i.u.0.|./.@XL I T.T.T.0.E.#X).#X).).wXwXwX'.eXxX] O.=.lXxXwXwXtXwXtXxXkXuXxXxXxXxXH.W.W.H.H.H.H.H.H.] ' H.W.Q.H.H.H.W.W.W.W.W.H.H.W.W.Q.H.H.H.H.H.H.H.W.W.R.F.7.^ ] F.S.S.F.F.F.W.H.W.>XeX-X=X=X#X).).).).(.@XF.E.OX4 q Q ;X-XP.P.;.;.-.-.;.-.=.O.~ ~ | o.@.2 q #.O.O.O.O.#.q I o.o.@..                                                                                                                                                                                                                                                                                                                                                                   ",
"                                                                                                                                                                                                                                                                                                                                                                X + e.9.e.( ;.u.u.0.|./.$XL I E.E.T.w.E.#X).#X).).wXwXwX'.2XxX] / _ lXxXwXeXwXwXwXxXuXrXxXxXxXnXxXmXmXxXxXhXwXhXmX3.S.HXnXvXnXvXvXhXyXyXyXyXkXkXwXwXkXkXpXuXyXyXyXyXyXyXhX/.;.^ _.lXtXeXtXtXtXtX:XH.#XeX2X-X'.).).).).).). XF.E.;X4 q ! ;X-XG.P.;.-.-.-.-.;.-.-.O.~ | @.@.< 3 O.O.O.O.+.#.q I o.o.@..                                                                                                                                                                                                                                                                                                                                                                   ",
"                                                                                                                                                                                                                                                                                                                                                                X + p.9.:.( :.i.u.D.|.|.$XY T ~.~.T.0.E.$X#X#X).#XyXwX2X`.eXzX] / _ hXmXwXeXeXwXwXxXpXrXdXxXxXdXcXcXcXcXcXxXpXxXcX3.S.vXvXcXvXcXvXpXrXrXrXrXxXcX4X2XpXpXpXpXrXrXrXrXrXrXhXR.;./ Q.hX2X2X2XeXwX3XtXH.).eX2X-X=X#X#X#X#X#X#X|.F.E.*XP 3 I ;X:XG.G.;.-.-.:.:.>.-.-.:.~ | o.@.2 2 $.O.+.+.+.$.q I O.@.@.X                                                                                                                                                                                                                                                                                                                                                                   ",
"                                                                                                                                                                                                                                                                                                                                                                X $ p.t.e.O.>.t.q.q.@X|.;XY Y E.E.R.0.P.$X#X=X_.).wXtX2X].eXzX` R ` xXmXeXeXeXwXwXxXaXsXsXaXdXdXsXsXdXcXfXcXcXcXcXS.S.cXvXcXcXfXcXpXrXrXrXrXcXcX4X4XuXuXrXrXrXrXrXrXrXrXhX_.;./ Q.hX2X2X2X2X2XeX:XW._.2XeX-X-X=X#X$X#X+X+X|.F.Y.;XP 3 I ;X;XG.G.>.>.:.:.-.-.-.-.:.~ o.o.$.r 2 $.O.+.O.+.+.q q o.o.*.X                                                                                                                                                                                                                                                                                                                                                                   ",
"                                                                                                                                                                                                                                                                                                                                                              O # + p.>.7./ >.t.q.F.*X XR {.[.E.R.T.w.G.$X#X=X3XeXyX2X_.].2XzX` |.lXxXkXwXeXwXeXrXxXaXpXaXaXaXdXdXsXdXdXfXfXfXcXcXS.' vXcXfXcXfXfXpXrXrXrXpXfXcX4XVXuXrXrXrXrXrXrXrXrXrXkX/.;._ Q.xXeX2X2X2X-X-X-XW.#XeXeX-X=X%X#X#X(.(./.+XF.R.&Xq.-.! ;X&XG.W.;._ =.-.:.-.-.-.:.~ ~ $.r.*.W E $.+.O.O.#.u q o.o.%.X .                                                                                                                                                                                                                                                                                                                                                                 ",
"                                                                                                                                                                                                                                                                                                                                                            h . + + n.t.9._ >.t.D.D.$X*XY  XU.T.T.T.w.P.+X(.`.tXtXwX-X_.].eXzX` |.lXkXcXeXeXwXwXwXxXaXaXaXaXsXdXsXsXsXdXfXdXdXvXvXS.' cXcXcXcXfXfXpXrXrXrXxXcXsX4XVXrXrXrXrXrXrXrXrXrXrXhX/.<.=.Q.xXeX2X2X2X-X-X-XW.#XtXeX-X-X%X).).(.(.(.!.F.R.&XU.-.L OX;XE.P.;._ =.-.:.-.-.:.:.~ Q :.1.r.{ 4 $.O.O.O.#.u I o.@.*.X O ;                                                                                                                                                                                                                                                                                                                                                               ",
"                                                                                                                                                                                                                                                                                                                                                            K . # + p.y.0.=.>.i.T.R.|. XP {.U.Y.T.Y.0.P.$X#X`.tXwXtX'./.'.eXmX` ^.lXkXcXeXeXeXwXrXxXaXaXaXaXaXaXdXdXcXdXcXcXcXcXnX' ' xXcXfXfXfXfXpXrXrXrXsXfXcXcXsXrXrXrXrXrXrXrXrXrXrXhX/.<.;.].xXwX2X2X2X2X-X-XW.#XtX].).=X).#X).(.(.(.@XF.R.@XT.;.P ;X;XP.W.{.0.=.O.:.-.-.:.:.! ! +.1.r.Q 4 $.O.+.O.+.u I O.@.*.% . &                                                                                                                                                                                                                                                                                                                                                               ",
"                                                                                                                                                                                                                                                                                                                                                            j O . + n.t.0.;.>.i.R./.~. XT {.T.Y.T.Y.q.P.@X_.).wXeXtX-X).'.eXhX] (.lXcXkXeXeXeXeXwXkXpXpXaXaXaXaXdXxXxXdXcXxXxXvXcXF.' mXdXcXfXdXfXpXrXrXrXsXfXcXcXcXrXrXrXrXrXrXrXrXrXrXkX/.w.;.].xXwX2X2X2X2X-X-XW.=XtX_.).=X#X#X#X(.(./.+XF.R.@XH.` P ;X;XE.E. X0._ ( -.:.-.:.:.! ! $.:.*.W 4 $.O.+.-.-.p E #.@.*.. . &                                                                                                                                                                                                                                                                                                                                                               ",
"                                                                                                                                                                                                                                                                                                                                                          . m H m.c.+ v M.1.t.u.T.|.$X!.T U.I.Y.0.<.0.P.$X#X).eXeXtX-X`.iX(.F.^ !.lX-X2XeXeXeXeXwXpXaXaXaXsXsXsXxXsXxXwXpXcXcX).S.w.3.xXcXdXdXdXdXpXrXrXrXsXfXdXsXcXrXrXrXrXrXrXwXwXyXrXhX_.F.` ].xXeX4X2X2X2X-X-XW.&XtX].`.=X).#X#X#X#X(.|.w.T.(.@Xq.4 1XoXG.H.|.0.=. .,.-.-.-.:.! ! $.r.$.! 3 $.+.( / =.n p &.X O h.d.j .                                                                                                                                                                                                                                                                                                                                                             ",
"                                                                                                                                                                                                                                                                                                                                                          . x H j.g.N M W q ~ i.{. X X$XT U.U.Y.u.0.T.R.$X(._.eXeXtX-X`.iX(.F._ !.lX-X2XeXeXeXeXwXpXpXpXaXsXsXsXxXdXdXwXuXxXcX%XS.0.3.xXcXdXdXdXdXuXrXrXrXsXfXdXsXsXrXrXrXrXrXrXrXwXwXwXhX`.E.' _.mX2X4X2X2X-X-X-XF.&XyX_.).'.=X#X#X#X#X(. X3.E.(.!.w.P i.u.E.H.|.0.-.O.$.-.>.-.:.! ! $.$.$.W 3 @.+.$.+.-., , 9 k j F Z j . 7X                                                                                                                                                                                                                                                                                                                                                          ",
"                                                                                                                                                                                                                                                                                                                                                          O S H H D x.&.% % a 6.n.n.OXOXP [.[.Y.D.D.@X@X/._._.eXtXtX-X).tX#XD._ |.lX-X2X2X2X2XwXrXpXpXpXuXpXsXsXxXsXaXwXuXxXcX%XS.0.S.xXcXdXdXdXdXuXwXrXrXsXsXdXfXpXrXrXrXrXrXrXwXwXwXwXuXeX&X` %XhXrXwX2X2X2X-X-XF.>XyX].`.'.=X).(.#X(.(.|.F.R././.w.P O.=.+X/.~.w.O.O.+.-.-.-.:.( ^ :.+.$.Q 0 *.@.{ { { % % $ G G l z z O AX                                                                                                                                                                                                                                                                                                                                                          ",
"                                                                                                                                                                                                                                                                                                                                                          O S S D D D g.c.c.N @ + @ N.}.4 [.[.Y.D.F.|.+X/._.).eXwXtX-X).tX+XD./ |.lX-X-X2X2X2XyXpXaXpXaXwXwXsXsXaXaXaXwXuXxXcX%XF.q.S.xXcXdXsXdXsXuXwXrXrXsXsXsXsXsXrXpXxXrXrXrXwXwXwXwXuXtX:X' H.6XmXuX'.2X2X-X-XF.$XhXyXtX=X).).(.(.(.(.*X+X#X#X+X9.P :.>.!.R.~.w./ ( +.-.-.-.:.O.O.$.:.*.{ 0 5.0 $ $ + g.g.4.j l l x l O UX                                                                                                                                                                                                                                                                                                                                                          ",
"                                                                                                                                                                                                                                                                                                                                                        SXO V F c H B G 4.G D N M n n a $ W W I.u.q.|.+X@X(.).eXwXtX-X_.eX/.0._ @XlX-X-X2X2X2XrXuXpXaXaXeX2XaXaXxXaXaXwXuXdXxX).S.q.S.xXxXxXsXsXdXuXwXwXeXpXsXdXpXpXrXrXuXpXrXrXwXrXwXwXyXtX:X' w.S.mXuX'.2X2X-X-XR./.Q.tXtX-X).).(.(.(./.!.@X+X/.!.8.4 $.+.|.!.T.w./ ( -.:.:.:.:.$.$.@.$.a < $ 6 6 m m M S c x = l z x l . AX                                                                                                                                                                                                                                                                                                                                                          ",
"                                                                                                                                                                                                                                                                                                                                                        SXO x V S m l m M B &.m.m.m.X X $ + : [.p.y.OX|.+X(.).tXtXtX-X_.eX!.0._ @XlX-X-X-X2X2XyXpXpXaXpXeX2XaXaXxXaXaXwXuXdXxX).S.0.S.xXxXsXsXsXsXrXeXeXeXpXsXpXsXpXrXrXrXxXpXrXwXrXwX2XyXeX:X' ' ' xXuX2X2X2X-XeX-X/.S.hXeX).).).(.(././.!./././.!.8.4 $.+.T.!.T.w./ O.$.:.:.+.$.%.%.%.%.+ X X X k c.v.v.l c l = & z l l . AX                                                                                                                                                                                                                                                                                                                                                          ",
"                                                                                                                                                                                                                                                                                                                                                        SX. x S S H = = g M m A z c h.h.4.j.4.+ + : > ^ OX$X@X#X(.(.%X_.tXR.D._ @XhX'.-X-X2X2XwXpXpXaXaXeX'.sXaXxXaXaXwXyXsXxX#Xw.0.3.xXcXdXxXdXsXuXeXeXeXpXpXpXpXpXrXrXwXxXaXrXrXrXrXwXyXtX:X' ;.' zXkXeX2X2XeX6X-X_.W.iX-X_.).(.#X(././._._./././.8.4 @.(  XR.{.9.O.#.*.$.$.u $ X . X X D G f.h.S l l c f j - z c z z j . AX                                                                                                                                                                                                                                                                                                                                                          ",
"                                                                                                                                                                                                                                                                                                                                                        AX. x S F G h.x = x c m x x G H D &.&.D &...*.6.:.7.7.8.' 8./ w.5X Xw.^ |.gX&X-X=X2X2XyXuXuXpXpXeX'.aXaXxXaXdXuXuXaXxX#X' w.3.xXxXxXxXsXxXuXeX2X2XpXpXpXpXpXrXrXwXxXaXrXyXyX2X2X2X-X&X` ,.` zXxXeXeX2X-X6X6X(.S.tX6X(.).(.#X#X/._._.Q.+X+X X9.3 o.| [.[.:.W e 0 p u p i v c l d j c c x J l l y y l j = h.h.V V j . 7X                                                                                                                                                                                                                                                                                                                                                          ",
"                                                                                                                                                                                                                                                                                                                                                        SX. x S H &.C.&.= z l z z j l l M k N C.V.V.<X5.1 4 r r r r 4 T 9XU.y.~ }.9X;X:X-X-X2XyXkXuXpXpXeX-XaXaXxXaXxXkXkXaXxX).w.w.' xXxXsXxXsXsXuXeX2X2XpXpXpXpXpXrXrXwXxXaXrXuXyX'.-X-X-X&X` :.` zXxXeXeXeXeX2X3X).W.tX-X).).(.#X#X/./././.+X XOXe.I } { [.}.2 @ + X + + $ v x.h.h.h.h.f j d d f j j c l f - c.m.Z V l . ZX                                                                                                                                                                                                                                                                                                                                                          ",
"                                                                                                                                                                                                                                                                                                                                                        SX. m H D M z.S = z z z z z z c j m x k k N 4.l.<X<X<X<X<X<X<Xn.3 r > > 4 4 P P :X:X-X3XwXyXuXuX2X-XaXxXxXxXaXxXkXpXMX(.3.w.' xXxXsXsXdXxXuXeXeX2XuXpXpXpXpXrXwXwXkXpXuXyXuX2X-X=X=X&X` :.] hXuXeX2X2X3X3XeX=XH.tX:X/.(././.+X+X/.|. X^ 1 : @ + $ + + X b.c.c.c.c.c.c.&.z d = = 7 f f = f f j j d h j - c c x C l . ZX                                                                                                                                                                                                                                                                                                                                                          ",
"                                                                                                                                                                                                                                                                                                                                                        SXO B G H D z.M d z z Z l z z l z Z z k M M j.b.C.C.C.<X<X<X<XB.: 4 1 0 4 4 L P tXtX-XeXwXwXuXuX2X-XaXxXxXxXxXxXkXpXMX(.' w.3.xXxXsXxXsXcXuXwXeX2XpXpXpXpXpXwXwXeXkXaXuXuXuX2X-X-X=X*X` :.] hXuXeX2X2X3XeXtX3X>XjX:X(.(./.+X+X#X(. XOXT : : @ $ + $ + O x.c.c.c.c.c.x.h.l d y = j f f f f f f d l d j - j l z J l . ZX                                                                                                                                                                                                                                                                                                                                                          ",
"                                                                                                                                                                                                                                                                                                                                                          o = = S x = j j j l z z x z z z c x x M k c c M D D 4.4.4.j.x.m.<X7X7XSXDX0X7X3 4 4 3 T T T T T T R R R / T xXkXhXhX|.w.;.' lXxXuXuXxXxXhXeX2X2XuXuXuXuXhXeXeXtXxXmXiXyXyX=X=X=X&X;X` ` ] jXhX:X-X:X5X;XT T 3 3 3 3 2 2 2 < 1 1 < , *.b.m.m.m.m.m.m.c.x j l j j h f f j - & & - d j d f f f f d j j j = = V S j .                                                                                                                                                                                                                                                                                                                                                             ",
"                                                                                                                                                                                                                                                                                                                                                            = = H c - f z z z z z z z z z x x k M c c c M D D g.4.&.4.4.B.<X7XSXSXSXDX7X1 2 r 3 s s 3 3 L T T T ) T R zXzXzXzX X9.>.9.jXzXzXlXzXzXjX5X5X5XhXhXhXgXjX5XtXgXzXzXjXjXjX:X:X&X*XOX>./ 8.jXjX5X5X5X9XoXT r 2 2 2 2 1 < 9 1 : 1 1 $ &.m.m.c.c.m.m.m.m.c f j = j = j f d f = - = f j f f f f f f j j j = = z S d -                                                                                                                                                                                                                                                                                                                                                             ",
"                                                                                                                                                                                                                                                                                                                                                            j . c m l z l l z z z z z V z V V z z.Z.7Xc.% M m g.g.g.g.k.4.4.4.x.l.l.<X7X7X7XDXDXFXDXDXDXFXFXGXFXGXGXGXT R T P E W W W T T R R T T R ^ ^ ^ R T T T T T T T T T T T ! ! T T ! Q W u W E 4 T L 3 3 Q ,X,X<X<X<X<XC.C.V.m.m.m.B.x.z.z.B m m B B S S x c l = = d j - - C.C.H &.f = f f f f f f d d j j c m = =                                                                                                                                                                                                                                                                                                                                                               ",
"                                                                                                                                                                                                                                                                                                                                                            j . * * & = l z z z z z V V V V V l g.z.C.c.* m m g.&.g.&.k.4.k.k.4.5.5.N.N.N.m.V.V.<X<X<X<X7X7X0XDX7XDXDX}.}.XXXXN.B.N..XXXXXOX}.}.}.}.XXXXXXXXXXXXXXXXXXXX}.}.N.N.n.n.}.XXN..XN.l.M.l.M.r.r.r.5.5.5.<X.XV.V.B.m.m.x.z.4.4.4.j.&.&.G x c x x c M M l z c j h = j d - Z.Z.m G f 7 f f j f f f h d j & & * & =                                                                                                                                                                                                                                                                                                                                                               ",
"                                                                                                                                                                                                                                                                                                                                                            = . $ # X # = = f z x z z z z z z j S g.&.D 6 m m 4.&.&.g.4.z.g.z.j.5.l.5.l.4.k.k.k.l.l.l.l.l.b..XN.B.N.<XDXDXDXFXFXFXFXFXFXFXFXFXFXDXDXDXDXDXDXDXDXDXDXDXDXDXDXDXDX0X0X0XDX0XDXDXN.V.V.N.B.V.B.V.B.B.x.z.x.x.j.&.&.D D m M B S x l x x x x c c c c j z z z h j = = = v.h.l Z = j j j j f f d = = - X X X X &                                                                                                                                                                                                                                                                                                                                                               ",
"                                                                                                                                                                                                                                                                                                                                                            = X 7 k M % . . ; l z z m z x z Z z f 7 = j m m M 4.4.g.g.g.j.j.j.j.k.k.k.k.k.5.N &.&.l.x.l.x.x..XN.N.N.N.N.N.N.N.N.B.XXXXXXN..XN.5.b.5.5.5.5.5.s.b.s.b.b.5.s.5.5.5.5.5.5.5.5.s.5.5.&.X.&.D N N N D D D &.D D D D D G S k 7 y j c c x x x x x x c c m x z z j = = j j = - & & l j j j j f f j O . . v k 8 * =                                                                                                                                                                                                                                                                                                                                                               ",
"                                                                                                                                                                                                                                                                                                                                                            % X i p b 9 * X * 6 * * z c c H z c l j j l m M M g.g.g.g.g.j.j.g.j.j.j.j.j.[ [ SX7XB.&.l.l.l.l.M.M.N.N.N.B.N.N.N.B.B..X.XN..Xb.b.l.l.l.l.l.5.l.l.l.5.5.*.5.l.l.l.l.l.l.l.5.5.5.l.l.4.&.N N N N N D D D D D D D N N G y B.<XN H = j c c x x x z x x m z l z d = d d d d = - - j h h j = # # # X . % 8 v v 6 7                                                                                                                                                                                                                                                                                                                                                               ",
"                                                                                                                                                                                                                                                                                                                                                          . X + i p p a n % # $ X X m M x z x m c x c m m m M g.g.g.g.g.g.j.g.g.j.j.j.j.a i IXFX<Xn 5.x.l.l.l.l.N.N.N.N.N.N.N.N.N.<X.X.X<Xl.l.l.l.l.l.l.l.l.M.l.5.5...*.x.l.l.z.l.l.z.l.l.l.l.z.l.4.&.N N N N D D D D D D D D D S 7 7XFX4.h.- = c c c x x x x x Z j f z j d d d d j d l l l l d l ; . X X X X i i b e v t X                                                                                                                                                                                                                                                                                                                                                             ",
"                                                                                                                                                                                                                                                                                                                                                          . % , %.#.I W } p X.b n n + X O x c x c x z V x m M g.g.g.g.g.g.g.g.g.g.j.j.j.i 9 B.B.m.b 4.x.l.l.l.l.N.N.B.N.N.N.N.m.b.N.N.b.b.l.l.z.z.l.l.z.j.l.5.5.LXPX<Xb.v j.l.l.z.z.z.z.k.z.k.z.z.z.k.k.x.z.g.D N S D D D D D H S y 4.4.D G = j c c c c z x x x Z x V V d f d j j j l j l c = O . 5 v v n i 0 p p } } i t +                                                                                                                                                                                                                                                                                                                                                             ",
"                                                                                                                                                                                                                                                                                                                                                          . 5 9 1.1.q Q } } { } X.n X X . Z c z z c z x Z A M g.g.g.g.g.4.4.4.g.4.j.j.j.v n m.m.x.t &.l.x.k.k.k.B.N.B.B.N.N.N.m.b.N.N.5.5.l.5.j.5.5.5.k.4.5...6.IXLX<Xl.v c.l.5.k.k.l.k.k.l.k.k.g.j.j.k.k.x.k.D D S S D D S S H d.- G 4.D H * 7 c m z z z x x V Z V V V j j h = = = y j l c = O X 5 v i i b e w w w p b 7 . <X                                                                                                                                                                                                                                                                                                                                                          ",
"                                                                                                                                                                                                                                                                                                                                                        AX. i W 1.:.! +.>.! ! W } } b n 6 . . X . X . * m x B g.h.h.g.j.&.h.h.4.5.4.4.k.x.x.M v M x.l.l.l.k.x.4.N.m.N.N.N.N.N.N.V.N.V.k.k.k.k.j.j.5.5.l.j.5.b i 7X<XC.z.v k.l.k.k.k.j.j.j.j.j.j.k.k.j.z.k.&.&.D S A A S S S S S H G K - & * Z x V z c c c x z V V l j 7 j K K & . X . X X X $ 0 b n b W W w w #.#.#.w i 7 . 7X                                                                                                                                                                                                                                                                                                                                                          ",
"                                                                                                                                                                                                                                                                                                                                                        AX. t p 1.1.! +.,.! ! E W p n } 5 X . X X X + # D B B g.g.h.g.&.k.g.h.g.4.5.k.k.l.z.M v M x.z.l.l.l.5.k.B.N.N.N.N.N.N.N.N.N.N.5.k.k.k.k.k.k.k.j.k.4.N M 7X7XV.k.i 5.k.k.k.k.j.j.j.j.k.j.k.k.j.z.k.D D H D D S S D S D S H G j = - * S S z Z m c z z Z A x j j f = c y # X X . . X + $ 5 b i w W W W W #.#.#.w i t . 7X                                                                                                                                                                                                                                                                                                                                                          ",
"                                                                                                                                                                                                                                                                                                                                                        SX. i W 1.:.! O.>.>.t.e.! E a p 9 X.........*.0 $ $ $ $ $ # $ % 4.h.h.4.4.5.z.v.4.z.x.x.z.l.l.l.l.k.l.j.N.V.N.N.N.N.B.B.B.N.B.5.4.5.4.j.j.j.5.j.5.j.t v N N D B y k.k.k.k.j.j.j.j.j.j.4.j.k.j.z.k.&.G S H H D S S S S D D H Z Z V Z V V Z A x c x x x Z o X X X X X X , n } ..X...X.p 9 p a W #.#.W W #.#.#.p i t . 7X                                                                                                                                                                                                                                                                                                                                                          ",
"                                                                                                                                                                                                                                                                                                                                                          . i W :.:.! +.>.9.9.>.:.e.2 a , } [ { o...@.} 0 e e a e * # % t y y y M M z.j.j.l.j.j.j.z.j.j.j.j.j.*.N.B.N.N.N.B.B.B.b.N.N.x.b.4.j.j.j.k.k.j.j.j.N &.M k v B M k.k.k.k.k.k.k.j.j.j.j.j.k.&.&.&.D D S S S B S S S S S S S x V V Z J x x # * * & & - = $ # 5 , 5 9 , a } X.X.X.[ X.n 9 0 p { O.O.W W #.o.#.w i t . ZX                                                                                                                                                                                                                                                                                                                                                          ",
"                                                                                                                                                                                                                                                                                                                                                          . b { ,.>.! o.8.>.<.;.[.[., , 1 Q Q ^ ^ O.( #.+.:.$.$.$.v 8 1 + X X # $ @ &.c.k.k.j.j.j.j.j.j.k.j.j.k.V.V.B.N.N.N.N.b.s.B.B.B.B.4.j.j.j.j.j.j.k.g.j.k.7 7 k M k.j.k.k.k.k.k.j.g.g.j.g.k.j.D M m B J S B B G H H H H H S H x z z x x B t $ + X . . X X + , [ } [ ....Q Q ~ Q Q { ..p , , } $.( / E E #.o.#.p i t . ZX                                                                                                                                                                                                                                                                                                                                                          ",
"                                                                                                                                                                                                                                                                                                                                                        SX. ..*.:.:.! O.8.7.<.<.[.[.: , 1 p.n.u.J.i._ _ _ / O.O.O.@.@.O.o.W 9 7 ..r.: $ + X X X X X + X X X $ $ @ @ $ N.N.N.V.N.V.V.B.V.V.g.j.k.k.k.k.k.k.k.h.h.h.h.h.h.h.k.k.z.k.k.k.z.k.z.g.z.h.h.H S D S D G m + X X X X X X X . . . . X X $ @ *.} 0 6 6 X.[ Q } { Q { ! ! O.:.-.:.~ | ..b , 5 p %.O.=.E E #.#.#.w i t . UX                                                                                                                                                                                                                                                                                                                                                          ",
"                                                                                                                                                                                                                                                                                                                                                        SX. X.*.>.:.! O.8.7.<.<.[.}.1 , > a.[.J.J.u.;._ ;.9.9./ _ #.O.-./ W 9 i @.r.r > < , : : , , , , , , 1 < 1 1 2 5.5.4.4.4.j.4.4.&.&.M N N N N N B B B M c B B B B B B N N N N M M M N m m m m y 7 y t k t 8 , : @ @ : @ @ @ @ @ $ $ : @ @ 1 *...0 5 , { { { Q { Q o.O.O.-.:.-.$.Q | ..b 5 9 n %.O.O.E E #.#.o.p i t . UX                                                                                                                                                                                                                                                                                                                                                          ",
"                                                                                                                                                                                                                                                                                                                                                        SX. ..1.>.:.! o.:.:.;.w.[.}.4 : s a.I.L.J.L.L.Y.L. X X' ;.>.;.' w.~ 1 e o.:.:.:.1.>.>.>.>.>.>.1.1.e.>.t.>.e.e.> : , , $ + @ @ < , 1 > : > > > 1 1 1 > > : @ @ @ : : @ @ : : @ : @ : , $ $ + % $ $ @ @ : < *.1.1.1.1.1.>.:.:.:.:.:.$.$.+.:.:.o.< 9 , O.O.~ ! Q Q O.:.>.-.-.:.:.~ Q ..} 0 , } %.O.+.E E #.#.o.W p t . UX                                                                                                                                                                                                                                                                                                                                                          ",
"                                                                                                                                                                                                                                                                                                                                                        SX. ..1.>.:.! ~ :.>.q.P.[.[.3 u a.Y.J.J.J.u.J.J.J. X X X X X*X&X&Xt.3 0 ~ :.;.;.>.>.;.;.=.;.>.7.>.e.t.>.t.e.e.1.*.5.5.n a a p r.r.r.r.r.r.r.r.e.r.r.e.e.e.1.1.1.1.1.5.5.r.r.5.5.5.r.5.} i a *.*.*.*.*.1.r.1.1.>.>.>.>.,.>.:.:.:.,.:.:.O.>.>.{ < 5 9 }.OX-.O.o.~ O.:.:.>.:.:.:.! ~ o...} 9 W @.O.+.E E O.#.o.p i t . CX                                                                                                                                                                                                                                                                                                                                                          ",
"                                                                                                                                                                                                                                                                                                                                                        SX. ..1.:.-.! ~ >.=.w.P.L.U.4 3 I.D.D.u.u.w.J.D.D.L.D.P.E.@X#X#X#Xy.E 0 e.}.q.q.D.D.Y.Y.T.Y.q.` w.;.;.9.;.;.7.>.>.>.1.~ L q I e.e.>.>.>.>.>.>.>.>.>.>.>.>.>.>.>.>.>.:.>.>.>.>.:.:.:.e.I 2 3 1.1.>.:.:.-.:.>.>.>.;.9.a.u.u.q.u.q.q.t.=.;.9.y.o.< 5 < [.[.O.O.@.) O.:.:.:.:.:.:.O.O.Q { { , W @.O.-.E q o.o.o.W p t . CX                                                                                                                                                                                                                                                                                                                                                          ",
"                                                                                                                                                                                                                                                                                                                                                        SX. ..1.:.-.T ~ ,.;.w.Y.L.[.L L I.D.G.u.w.` L.L.q.F.F.F.F.*X%X=X#X7.E u a.;XY.U.P.T.&X*X&X;XP.` <.;.9.7.9.<.;.>.>.>.>.^ L I E e.:.>.;.;.;.,.;.;.;.;.;.;.>.;.>.>.,.,.,.,.;.;.=.,.>.e.e.3 3 L 1.>.>.-.=./ _ =.=.:.=.y.[.Y.I.Y.L.L.u.i.=.>.u.I.%.< 5 < [.[.-.+.O.~ O.:.:.:.:.:.:.:.:.~ o.{ 1 Q @.O.-.E q o.o.#.W p t . AX                                                                                                                                                                                                                                                                                                                                                          ",
"                                                                                                                                                                                                                                                                                                                                                        SX. ..5.:.-.O.+.;.=.9.Y.P.U.3 L I.J.J.u.>.=.a.u.q.J.K.D.D.%X#X#X#X9.T 3 p.;XP.Y.Y.E.#X#X=X=X(.R.:XtX6X:X:X:X;X{.|.5X:Xu.^ Q ) jXjX:X&X&X&X&X&X:X&X0.:X:X-X:X&X&X&X*X&X&X#X#X&X$X<.Y.oXT w ~ ;X5X&X+X|.|.|. X X|.|.T.T.P.P.P.P.P.L.i.=.9.J.u.@.2 5 , I.Y.O.O.O.~ O.-.-.-.:.>.:.:.:.~ ~ { < p %.O.+.W W | | O.o.{ 8 X AX                                                                                                                                                                                                                                                                                                                                                          ",
"                                                                                                                                                                                                                                                                                                                                                          X ..*.=.-.-.:.;.=.9.Y.P.U.3 L i.J.J.u.>.=.I.u.D.L.I.J.G.%X#X#X#Xq.T E u.;XP.P.P.E.#X).=X=X/.E.:X-X-X-X:X&X&XT.|.:X:Xu.! E T jXjX>X&X>X>X>X>X%X&X<.:X-X>X&X>X#X$X$X$X@X#X#X$X;X0. XoXL w ^ 9X5X/./.!.~.~.|.|.!.|.R.E.P.P.P.P.P.L.i.=.9.J.J.o.< 9 < [.}.O.O.O.~ O.-.-.-.:.:.:.:.:.| ~ { < p %.O.-.W W | | o.#.{ 8 X AX                                                                                                                                                                                                                                                                                                                                                          ",
"                                                                                                                                                                                                                                                                                                                                                        SX. ..*.:.=.-.:.;.;.9.U.Y.U.3 3 u.J.J.u.>.=.a.L.q.J.I.L.G.).#X).#Xq.T L u.*XD.E.P.E.#X#X=X=X/.E.-X=X=X=X=X=X&XH./.-X-Xu.! ! T gXhX=X#X%X#X#X#X=X%XF.&X=X#X>X>X#X#X#X#X#X).).#X$XF.P.oXL q P ;X6X/././././././.!.R.T.P.P.P.P.L.L.L.i.=.9.J.J.O.1 < < [.U.O.O.+.~ O.:.-.-.-.:.:.:.:.o.o.{ < p @.O.+.u q o.o.o.o.{ e X UX                                                                                                                                                                                                                                                                                                                                                          ",
"                                                                                                                                                                                                                                                                                                                                                          . ..*.=.=.-.:.;.;.9.Y.T.U.3 3 u.J.J.u.>.=.a.L.D.L.I.P.G.).).#X#X9.T L w.*XP.G.P.E.#X#X=X%X/.H.-X-X).=X=X`.'.H._.=X=Xq.! Q ^ gXhX`.#X).).#X>X).%XF.:X=X>X>X#X).(.(.#X#X).).#X$Xw.P. X3 I T :X:X_././././././.!.!.R.E.P.P.P.L.L.L.i.;.9.J.J.^ 4 : < Y.U./ O.+.~ O.:.-.-.-.:.:.:.:.o.o.{ < p @.o.+.u q o.| o.#.{ 8 X CX                                                                                                                                                                                                                                                                                                                                                          ",
"                                                                                                                                                                                                                                                                                                                                                        SX. ..*.=.=.=.:.9.;.0.Y.Y.U.3 3 u.u.J.u.>.=.a.L.D.J.I.J.D.).).#X$X9.L OX$X&XG.P.P.E.%X=X=X)./.H.=X=X).=X=X'.=X_./.-X=X9.! Q ! jXtX`.`.'.).=X#X).#XF.&X).`.).>X).).).#X#X).).#X+XF.T. XT E Y ;X:X/./././././././.+XT.P.P.P.L.L.L.J.p.;.>.J.D.u.a.2 2 }.[.=.O.+.~ O.+.+.-.-.:.-.:.:.o.o.{ < p @.o.+.u u o.| o.#...e X UX                                                                                                                                                                                                                                                                                                                                                          ",
"                                                                                                                                                                                                                                                                                                                                                        SXX ..*.-.=.-.:.;.<.u.Y.Y.U.3 3 u.u.J.u.;.=.I.L.L.J.I.J.G.(.(.(.&X9.L  X$X!.E.P.P.G.%X).#X%X/.H.=X=X).=X=X=X=X(.#X-X=Xw.! { T gXiX`.`.`.%X=X#X%X#XF.&X%X).>X#X).).#X(.#X).]./.$XF.P.;XT q T ;X-XR././././././.R./.E.P.P.P.L.L.J.u.i.-.9.J.D.u.p.2 r [.}.=./ +.| o.O.~ -.-.,.:.:.:.| o.{ < p %.o.-.u E o.| | #.{ b X CX                                                                                                                                                                                                                                                                                                                                                          ",
"                                                                                                                                                                                                                                                                                                                                                          X ..$.-.=.-.>.;.9.u.Y.Y.U.3 3 u.u.u.u.;.=.I.L.L.L.I.J.G.(.).#X$X7.L OX|.G.P.P.E.H.).).#X#X!.H.%X=X%X%X-X=X-X-X-X-X-X9.! ! T gXtX).).%X%X#X#X%X#X0.$X(.#X#X#X).#X$X(.#X(.(.+X$Xw.E. X^ ! P ;X:XR.R.!.!./././.+X+XR.E.P.P.L.L.J.J.i.-.7.u.D.u.p.3 3 [.[.>.=.O.| o.~ T O.-.:.:.:.:.| o.{ < p @.O.O.E u o.| | @.@.X.X CX                                                                                                                                                                                                                                                                                                                                                          ",
"                                                                                                                                                                                                                                                                                                                                                          X ..$.-.=.-.>.;.9.u.Y.Y.U.3 3 u.u.u.u.;.=.I.L.L.L.I.J.G.(.(.#X|.>.L OX@XE.P.Y.@X/.=X=X#X#X!.G.#X%X%X%X-X#X/./.#X-X-Xq.! ( ^ gXtX).#X#X%X#X#X%X&X0.$X(.(.#X#X#X#X#X(.#X@X@X$X$Xw.P.&XI.#.P ;X:XR.R.R.!./././.R.F.P.P.P.P.L.L.J.J.i.-.7.u.D.u.p.3 2 >.>.a.7.o.~ o.o.E O.:.-.:.:.:.| o.{ < p @.O.O.u u o.I E #.o.X.X CX                                                                                                                                                                                                                                                                                                                                                          ",
"                                                                                                                                                                                                                                                                                                                                                        SXX ..$.,.=.,.>.;.w.u.T.P.U.3 3 u.u.u.u.;.=.I.L.L.J.Y.J.G.#X/.+XL._ L  X+XE.Y.Y.$X#X=X#X#X%X!.G.#X%X'.).=X(.E.R.#X-X-Xw.T u.F.tXtX).#X#X).).).#X>X0.@X(.(.#X#X).#X#X).#X(.|.Y.Y.0.E.!.|.e.T :X:XE.R.R.!./././.@X' G.T.P.P.L.L.J.J.i.-.7.u.J.u.u.3 3 :.-.I.7.O.| #.@.E O.:.:.:.:.:.| o.{ < p @.O.+.u u #.I I o.@.X.X AX                                                                                                                                                                                                                                                                                                                                                          ",
"                                                                                                                                                                                                                                                                                                                                                        SXX ..$.-.=.,.>.;.w.u.T.P.U.3 3 u.u.u.u.;.=.I.L.L.J.Y.J.G.#X/.@XD./ L  X+XR.Y.Y.$X#X(.R.E.&X~.G.#X#X).).>X(.R.E.+X-X=Xw.R  X$XiXtX).#X#X).).).#X>XF.@X(.(.#X>X).#X)._.#X+X|.w.9.w.E.(.&X7.R :X6XR.R.R.R.!././.$XF.T.$XT.P.L.L.J.J.i.-.7.u.q.u.i.3 3 O.O.[.7.o.~ | $.! O.:.:.:.:.:.| o.{ < p @.O.+.q u #.I I o.@.X.X AX                                                                                                                                                                                                                                                                                                                                                          ",
"                                                                                                                                                                                                                                                                                                                                                        SX. ..$.:.>.:.:.;.7.u.U.Y.Y.3 3 u.u.u.I.=.` I.I.L.P.P.P.D.#X@X+XD.O.L  X|.E.P.Y.#X).&XR.T.%X~.W.>X#X#X#X%X(.T.R.R.=X%Xq.R @X#XtXtX/.).$X&X$X#X@X&Xw.@X>X(.)./.(./.#X+X/./.+X0.w.w.G.+X@Xt.R ;X:XR././.+X+X/./.+X0.P.;XP.P.G.L.J.u.u.=.7.u.J.J.u.3 3 +.O.I.9.=.+.+.$.! O.$.:.-.:.:.| o.{ < p %.O.O.~ | $.I I o.o.[ X AX                                                                                                                                                                                                                                                                                                                                                          ",
"                                                                                                                                                                                                                                                                                                                                                        SX. ..*.:.:.-.>.;.9.u.U.P.U.3 3 u.u.u.I.;._ K.I.J.J.J.P.G.$X@X/.D.O.L  X|.P.P.P.).).&XR.E.%X!.H.>X#X#X#X%X(.T.E.R.=X&X0.Y $X#XtXtX_._.>X@X@X#X@X&XF.+X$X(.(./.(./././.!./.+X0.0.w.G.@X@Xe.R :X:XR.R.R.R.+XR./.R.' Y.;XY.P.G.L.J.u.u.=.7.u.J.J.u.3 3 +.O.I.9.=.+.+.$.! O.$.:.+.:.:.| o.{ < p %.O.O.! | #.I I o.o.[ X AX                                                                                                                                                                                                                                                                                                                                                          ",
"                                                                                                                                                                                                                                                                                                                                                        SX. ..$.-.=.! O.;.;.u.[.Y.I.3 3 u.u.J.I.;._ u.I.I.L.J.P.D.@X(./.D.O.L  X|.P.P.P.).).&X!.E.&XE.F.#X=X#X#X%X/.E.E./.%X&X9.T $X%XtXtX).(.+Xw.F./.@X&XF.$X>X#X(././.$X@X+X/.(.$X0.0.w.G.+X+Xe.Y {.+XR././.R.R././.|.3.<.w.L.L.L.J.D.q.u.=.7.u.J.J.u.3 3 +.O.I.7.=.+.$.$.! O.$.:.+.-.:.| { { < p %.O.+.o.#.#.I I o.o.[ X AX                                                                                                                                                                                                                                                                                                                                                          ",
"                                                                                                                                                                                                                                                                                                                                                          . ..$.:.O.! O.;.=.-.;.J.I.3 3 u.u.J.a.>.;.u.i.I.I.J.L.D./.(.@XL.O.L  X~.P.P.P.#X).%X!.P.#X#X/.>X).#X#X%X/.E.E./.&X*X9.^ $X%XyXyX).).&XF.D.@X#X#X+X&X$X/.(.(./.+XG.E.!.+X$X0.w.0.G.(.+X1.T {././.!./.!.!././.@X@XP.w.L.L.J.D.J.u.u.=.9.u.D.u.u.3 3 +.O.I.7.O.+.+.$.! O.$.:.+.-.:.| { { < p %.+.+.O.#.@.I I o.o.[ X AX                                                                                                                                                                                                                                                                                                                                                          ",
"                                                                                                                                                                                                                                                                                                                                                          . ..%.-.O.! o.>.>.>.;.L.[.3 L u.u.J.u.>.;.u.i.i.I.L.L.D.+X(.+XL.O.L  X~.P.P.P.#X).%X!.P.#X#X$X%X).`.).=X/.E.R.!.&X*Xe.I $X%XtXtX#X).$XD.J.@X/./.#X#X/./.(.(./.+XF.P.~.!.@Xq.0.D.P./.+Xe.T U.R./././.!.!././.!.@XY.w.J.L.J.D.J.u.u.=.7.u.D.u.u.3 3 O.O.I.7.O.+.+.$.! O.$.:.+.-.:.| | { < p @.O.O.o.#.%.I E o.o.[ X AX                                                                                                                                                                                                                                                                                                                                                          ",
"                                                                                                                                                                                                                                                                                                                                                          . ..%.+.O.! o.;.>.>.;.Y.[.3 L u.J.J.J.;.=.7.-./ u.u.J.D.@X(.+XJ.+.L  XR.P.P.P.#X#X&X!.E.#X#X#X#X).).).#X!.T.R./.|.T E Q $X@X).).#X#X$XD.D.+X/./././././././.+X!.D.P.|.!.+X0.J.@X@X+X/.e.T {.!.R.+XR.G.G./././.~.L.<.u.u.J.J.J.u.u.=.7.K.D.u.u.3 2 O.O.I.7.=.-.$.$.! O.$.:.+.-.:.| | { < p @.o.O.O.@.@.q I @.o.[ X AX                                                                                                                                                                                                                                                                                                                                                          ",
"                                                                                                                                                                                                                                                                                                                                                          . ..%.O.O.! o.;.>.:.;.Y.[.3 L u.u.J.u.;.-.7.:./ u.u.J.D.@X(.+XJ.+.L  XR.P.P.P.#X#X&X!.E.#X(.#X#X).).).#X!.E.R./.|.R E Q  X(.).).(.).$XD.J.+X/./././././././.(.!.D.P.|.!.+X0.D.@X+X/.!.e.T {.!.!.!.R.G.G././.!.~.L.;.q.u.J.J.J.u.u.-.t.K.D.u.u.3 2 O.O.I.7.=.-.$.$.! O.$.+.+.-.:.| | { < p @.o.O.O.@.@.q E @.o.[ X AX                                                                                                                                                                                                                                                                                                                                                          ",
"                                                                                                                                                                                                                                                                                                                                                          . ..%.+.O.! o.;.:.:.;.Y.[.3 3 u.u.J.u.u.I.a.7.^ u.u.D.D.+X(.(.J.+.L  XR.P.P.L.@X).#XR.H.#X(.#X#X).(.#X#X!.E.E.|.*XR W }  X+X).(.(.(.@XD.P.@X/./././././././.(.!.D.P.!.~.|.0.0.!.!.!.~.8.T [.|.!.G.D.D.G././.!.R.L.w.u.u.u.q.u.J.K.=.t.u.q.u.u.3 3 +.O.I.7.O.-.+.$.! O.:.:.-.-.:.| | { < p @.O.O.O.O.$.I E @.o.[ X AX                                                                                                                                                                                                                                                                                                                                                          ",
"                                                                                                                                                                                                                                                                                                                                                          . ..%.+.O.! o.;.:.:.;.Y.[.3 3 u.J.u.u.u.u.y.7.^ u.u.J.D.(.(.(.J.+.L }.R.P.P.L.@X(.#XR.H.#X#X#X#X).#X#X#X!.E.E.|.*XR W } OX!./.(.(.(.$XD.P.#X/././././././.!.(.!.D.P.!.!.+XF.0.~.~.!.~.8.T [.|.!.P.G.D.G./.!.!.R.L.w.u.u.u.u.u.u.K.-.t.K.D.u.u.3 3 +.O.I.7.O.+.+.$.! O.:.+.:.-.:.| { { < p @.O.O.O.O.$.q E @...[ X AX                                                                                                                                                                                                                                                                                                                                                          ",
"                                                                                                                                                                                                                                                                                                                                                          . ..%.+.O.! o.;.:.:.;.Y.[.3 L u.u.u.D.J.u.u.:.^ u.u.J.D.(.(.(.D.+.L }.T.G.P.L.@X#X#XR.H.#X(.(.#X).@X@X#X~.E.E.!.*XR Q } OX|./.(.(.(.$XD.P.#X/././././././.!./.!.G.P.!.!.+X0.0.R.~.~.R.8.T [.|.+XG.D.D.G.!.!.!.~.L.w.q.u.u.u.u.u.u.>.t.J.D.u.u.3 3 +.O.I.7.O.+.+.#.! O.O.:.:.-.:.| | { < p @.O.O.O.O.%.q E @.o.[ X AX                                                                                                                                                                                                                                                                                                                                                          ",
"                                                                                                                                                                                                                                                                                                                                                          . ..%.+.+.! o.;.:.:.;.Y.[.3 3 u.u.J.J.J.u.u.7.^ u.u.J.D./././.D.+.L }.E.P.P.D.@X#X#XR.E.#X(.(.+X(.@X@X#X~.E.E.!.*XR Q }  X~././././.@XD.G.#X/./.!././././.!./.+XG.P.~.!.+X0.0.R.~.~.R.8.T }. X|.P.D.L.P.!.!.!.~.Y.q.u.u.u.J.J.u.K.u.i.J.D.u.u.3 2 +.O.I.7.O.+.+.$.| ! T +.:.-.:.| ~ { < p @.O.O.O.o.%.q E @.o.[ X AX                                                                                                                                                                                                                                                                                                                                                          ",
"                                                                                                                                                                                                                                                                                                                                                          . ..$.+.+.Q o.>.:.:.=.Y.[.3 3 u.u.u.J.J.u.u.>./ u.i.u.D.T.T.T.q.O.L }.T.F.L.L.R.R.#XR.G.E.~.T.~.R.+X@X#X!.E.H.!.$X^ ! W  X~././././.|.D.P.+X+X+X/./.!.!.!.!.!.!.G.P.T.{.|.w.w.T.T.~.R.:.T U.!.!.P.J.J.D.~.^.~.R.P.D.u.u.u.u.u.u.t.u.u.J.D.u.i.q q -._ L.;.O.O.O.@.@.! W *.:.:.:.~ ~ { < u @.O.O.O.#.@.W q @.o.[ X ZX                                                                                                                                                                                                                                                                                                                                                          ",
"                                                                                                                                                                                                                                                                                                                                                          . ..$.+.+.Q O.>.:.:.=.Y.[.3 3 u.J.J.J.J.i.u.>./ u.u.J.q.D.D.D.u.O.L }.T.F.J.J.P.P.>X!.G.G.G.D.G.G.+X+X@X!.E.H.!. X^ ! E  X|././.+X/.+XD.P.+X/.+X/.!.!.~.!.!.!.|.P.P.P.|. Xw.w.T.T.~.E.:.T  X@X!.P.P.J.D.~.~.R.R.P.D.J.J.u.u.u.u.u.p.u.u.D.u.p.q 3 O._ L.;.O.O.O.@.@.! W $.:.:.:.o.~ { < u @.O.O.O.@.@.W I #.o.[ X AX                                                                                                                                                                                                                                                                                                                                                          ",
"                                                                                                                                                                                                                                                                                                                                                          . ..$.+.+.Q O.>.:.:.=.I.[.3 3 u.J.u.J.J.u.u.>.^ a.J.L.J.J.L.u.u.( L }.T.F.u.J.G.G.&XR.D.L.P.P.P.G.@X+X#X~.E.H.~. X! W W  X~./././.!.|.F.G.+X/.!./.!.!.!.!.~.E.G.G.0.` L.{.w.w.T.T.R.E.1.T  X|.!.P.D.D.D.~.~.R.R.E.D.J.J.u.u.u.u.t./ 7.u.q.J.u.E L a.I.I.7.O.O.o.O.+.! W *.:.:.:.o.| { < p @.O.+.O.@.@.E I #.o.[ X <X                                                                                                                                                                                                                                                                                                                                                          ",
"                                                                                                                                                                                                                                                                                                                                                          . ..$.+.+.Q O.:.:.:.=.I.[.3 3 u.J.u.J.J.u.u.>.^ i.u.J.D.u.u.u.u.o.L }.T.D.J.L.J.L.$XT.D.D.P.L.P.P.R.!.#X~.P.H.~. X! W W  X!./././.!.!.D.G./.!.!.!.!.!.!.~.~.E.D.G.w.` J.[.w.w.T.T.R.E.1.! }.|.|.D.D.D.D.~.~.R.R.E.D.J.J.u.u.u.u.t.! >.u.D.J.u.3 3 [.[.I.>.O.O.o.O.O.! W 1.:.:.:.o.| { < p @.O.+.o.o.@.W q @.o.[ X CX                                                                                                                                                                                                                                                                                                                                                          ",
"                                                                                                                                                                                                                                                                                                                                                          . ..$.+.O.! o.>.:.:._ I.[.3 3 u.u.u.q.J.u.u.>./ u.u.L.u.i.u.u.t.O.3 [.T.D.J.L.L.D. XT.D.L.L.J.@X$XF.G.$X!.P.E.E.[.T ! W  X!.!.!.!.~.!.q.D.~././.!.!.R.!.!.T.Y.P.D.9./ a.[.9.w.Y.T.R.R.1.^ =.q. XD.D.q.D.|.|.R.R.E.D.J.u.u.u.u.u.p.^ 7.u.J.J.u.L 3 [.Y.I.>.O.+.O.O.@.Q ! $.:.:.:.o.| { < p @.O.+.~ Q @.W E #...X.X AX                                                                                                                                                                                                                                                                                                                                                          ",
"                                                                                                                                                                                                                                                                                                                                                          . ..$.+.O.E | :.:.:.=.I.[.3 3 u.J.u.J.u.u.i.>.^ i.u.L.u.u.u.u.y.o.3 [.T.F.u.u.J.F.|.T.D.D.D.L.@X@XD.G.$X~.E.P.T.[.! E W  X!.!.!.R.E.|.0.D.!.!.!.!.R.!.~.~.|.P.P.D.7./ i.[.9.w.Y.Y.T.E.1.! >.D. XD.D.q.J.{.|.R.~.P.J.J.u.u.u.u.J.y.~ e.u.D.J.u.3 3 I.Y.u.>.O.O.#.O.O.Q ! $.:.:.:.o.| { < W @.+.O.~ Q @.I I o.o.[ X AX                                                                                                                                                                                                                                                                                                                                                          ",
"                                                                                                                                                                                                                                                                                                                                                          . ..$.+.O.E | ,.-.:.=.I.[.3 3 u.J.u.u.u.u.u.>.^ u.u.K.J.u.u.J.y.O.L [.T.F.u.u.q.q.|.Y.D.q.D.D.@X@XG.P.@X|.T.E.E.[.! W Q  X|.!.!.!.~.|.D.D.R.~.~.R.R.R.~.|.P.L.L.L.7./ u.[.;.w.Y.T.T.Y.1.! :.u. XL.q.J.J.J.{.R.~.P.J.J.J.u.u.u.I.p.~ 7.u.D.u.u.4 3 I.U./ O.,.,.O.O.O.Q ! 1.:.:.:.| | { < p ..:.:.~ Q @.I I o.o.X.X AX                                                                                                                                                                                                                                                                                                                                                          ",
"                                                                                                                                                                                                                                                                                                                                                          . ..$.+.O.E | ,.:.:.=.I.[.3 3 u.J.u.q.u.u.u.;._ u.u.J.u.i.K.K.u.+.E [.T.F.u.u.u.0.Y.D.L.D.L.L.@X@XG.P.R.Y.T.T.E.U.! W Q  X~.R.R.|.T.Y.D.D.E.R.R.R.T.R.E.{.J.P.L.J.7./ u.I.;.<.Y.Y.Y.Y.1.T :.u. XD.0.D.J.q.Y.P.R.Y.D.u.u.u.u.u.K.t.~ e.u.J.u.u.4 3 I.Y.-.-.O.O.o.O.O.~ ! 1.:.:.:.| | { < p ..:.e.~ ~ @.U U o.o.[ X CX                                                                                                                                                                                                                                                                                                                                                          ",
"                                                                                                                                                                                                                                                                                                                                                          . ..$.+.O.E ~ :.:.:.=.I.[.3 3 u.J.u.q.u.u.u.9./ y.u.u.J.u.u.J.u.O.L [.T.D.u.u.u.u.J.q.D.L.D.D.@X$XP.J.D.P.T.T.T.I.T W W  X|.!.@X|.P.q.q.K.Y.E.R.E.T.T.T.T.J.L.L.J.>./ u.I.;.<.P.Y.Y.Y.*.! :.u. XL.D.D.J.J.J.L.T.Y.J.u.u.0.J.K.K.y.^ e.u.J.u.u.3 4 I.I.-.-.#.#.#.O.O.~ ! 1.:.:.:.| | { < W ..:.e.~ ~ @.U I o.o.X.X CX                                                                                                                                                                                                                                                                                                                                                          ",
"                                                                                                                                                                                                                                                                                                                                                          . ..$.O.#.E ~ :.:.:.=.I.[.3 3 u.u.u.u.u.q.q.t.u.I.I.u.J.K.J.Y.I.:.T [.T.D.u.u.K.u.K.q.J. XT.P.@X$XK.L.L.P.T.E.T.Y.T W W  X|.R.R.D.G.q.u.K.Y.T.T.P.T.Y.` ` q.L.u.L.7./ u.U.<.<.P.Y.Y.Y.*.! :.u. XD.q.q.q.J.J.q.J.q.0.0.0._ 0.u.u.y.^ 7.u.D.u.u.3 4 a.I.O.+.O.O.o.+.O.! ! *.:.:.:.| | { < W ..:.e.~ ~ @.I I o.o.X.X AX                                                                                                                                                                                                                                                                                                                                                          ",
"                                                                                                                                                                                                                                                                                                                                                          . ..*.O.#.E o.:.:.:.;.I.[.3 3 u.u.u.u.>.-.a.u.u.u.J.u.u.u.u.u.P.=.L [.Y.J.D.D.u.u.J.J.J. XE.D.@X$XD.D.D.P.T.Y.Y.L.T E W }.|.R.|.u.u.D.P.J.Y.T.T.P.L.Y._ _ i.i.u.u.>./ u.[.;.` Y.L.P.L.$.T >.J.@XP.D.J.u.u.u.u.u.J.J.u.i./ y.u.J.y.=.>.u.u.u.0.4 4 a.I.( O.O.#.| | #.O.O.-.+.+.:.| | X.< u @.o.o.o.o.#.q W ..o.X.X AX                                                                                                                                                                                                                                                                                                                                                          ",
"                                                                                                                                                                                                                                                                                                                                                          . n ..#.O.E o.-.:.:.=.I.[.3 3 u.u.u.u._ ^ y.u.u.J.J.u.u.u.u.J.Y.=.L [.Y.J.D.D.u.u.u.J.J. XP.D.|.|.D.D.D.P.R.R.R.Y.T W } }.|.R.!.u.u.J.J.D.Y.Y.Y.P.L.Y._ _ u.u.u.u.>./ u.I.;.w.L.L.Y.L.$.T >.J. XP.D.J.u.u.u.u.u.J.J.u.p./ y.u.J.u./ >.u.u.u.u.4 4 a.I.O.O.o.#.Q ! o.:.:.:.+.-.:.| | { < p @.! I @.#.#.q u o.@.X.X ZX                                                                                                                                                                                                                                                                                                                                                          ",
"                                                                                                                                                                                                                                                                                                                                                          . i p #.o.I Q ( -.:.-.Y.[.3 3 u.u.u.u.=./ i.u.u.J.J.u.u.u.u.L.T.-.L [.Y.J.D.D.u.u.u.J.J. XY.0.P.P.D.D.D.P.R.R.R.Y.T W }  X|.R.!.u.u.J.D.D.Y.Y.Y.L.L.Y._ _ u.u.u.u.9./ u.I.u.q.L.L.Y.L.$.E >.J. XP.D.J.u.u.u.u.u.J.J.u.u./ y.u.J.u./ >.u.u.u.u.4 4 [.I.O.O.O.#.Q ! o.:.-.-.+.-.:.| | { < p @.~ ~ @.o.{ q W o.o.X.X ZX                                                                                                                                                                                                                                                                                                                                                          ",
"                                                                                                                                                                                                                                                                                                                                                          . 9 0 #.o.Q ! T +.#.,.u.I.3 3 i.u.u.u._ / i.u.u.J.D.u.u.J.u.J.{.-.3 [.Y.D.q.J.J.u.u.u.J.U.Y.J.D.J.u.q.J.P.R.R.E.Y.T W } }.|.R.!.u.u.J.|.{.P.P.P.L.L.I./ _ u.u.u.u.7.^ u.I.L.L.L.J.L.L.@.L -.u.{.P.J.u.u.u.u.u.u.J.J.u.u./ u.u.u.u.>.t.y.u.u.u.4 4 p.u.-.O.O.| { Q O.+.:.:.+.-.:.| | [ < W o.O.+.O.o.I Q Q @.o.X.X AX                                                                                                                                                                                                                                                                                                                                                          ",
"                                                                                                                                                                                                                                                                                                                                                          . 9 0 #.#.#.| T ,.O.,.9.u.3 3 u.u.u.i.=._ i.K.u.J.J.u.u.J.u.J.T.=.3 [.Y.D.q.J.u.u.u.u.J.J.u.q.q.J.u.u.J.P.R.R.R.Y.! W } }.~.R.!.u.u.J.;X$XP.L.P.L.L.I._ _ i.u.u.u.t.^ u.u.u.L.L.L.L.I.@.3 -.w.L.J.J.J.u.J.u.u.u.J.J.i.p.=.y.u.u.L.u.u.y.u.u.u.3 4 p.u.-.O.o.! { | #.:.:.:.+.:.:.| | [ < W @.( O.o.#.E #.#.@.o.[ X AX                                                                                                                                                                                                                                                                                                                                                          ",
"                                                                                                                                                                                                                                                                                                                                                          O 9 a #.O.$.| E #.#.=.t.p.2 3 u.u.u.u.=._ i.u.J.D.J.K.i.J.u.J.T.-.4 [.Y.q.J.J.u.u.u.u.u.u.u.u.u.u.u.u.u.J.D.R.R.L.! E W }.~.~.!.u.u.J.J.P.D.J.J.L.L.u./ _ i.u.u.u.7./ y.i.L.L.L.L.L.Y.%.3 t.u.u.J.J._ ` u.u.u.u.J.J.i.i.=.y.u.u.u.u.>.=.u.u.p.2 2 p.u.O.O.o.! o.#.o.+.:.-.+.:.:.| | { 2 p @.O.O.o.@.E %.#.$.{ 9 X AX                                                                                                                                                                                                                                                                                                                                                          ",
"                                                                                                                                                                                                                                                                                                                                                          . t e #.O.$.~ T $.$.+.t.p.2 2 y.u.u.u.=./ i.u.u.J.J.0.u.J.J.J.T.-.3 [.P.q.q.J.u.J.u.u.u.u.u.u.u.u.u.u.u.J.D.E.R.L.^ E W }.|.!.!.q.u.0.0.D.D.J.J.L.L.u./ _ i.u.u.u.7./ y.a.L.D.L.L.L.I.%.3 t.u.u.J.J._ _ u.u.u.u.J.J.i.i.=.y.u.u.q.u.;._ q.u.p.3 2 p.u.O.O.o.! o.#.o.+.:.O.+.:.:.| | { 2 W @.O.O.o.#.w %.#.$.Q 6 X AX                                                                                                                                                                                                                                                                                                                                                          ",
"                                                                                                                                                                                                                                                                                                                                                          . 5 : $.$.$.| ! $.#.O.t.p.2 1 >.u.u.u.-./ i.u.u.J.u./ =.J.J.u.T.-.3 [.P.q.J.J.u.u.L.J.I.u.u.J.u.u.u.u.J.J.J.|.R.|. X+.L  X|.!.!.q.u.J.J.D.D.D.J.L.L.L./ / i.u.u.u.7./ y.u.L.D.L.L.L.Y.$.L y.u.u.u.u._ _ u.u.u.u.J.J.i.i.=.y.u.u.q.u.;./ 9.u.i.3 3 p.u.O.O.o.! o.#.o.+.:.( ( :.:.o.| { 2 W @.O.O.o.o.q o.#.r.u y O                                                                                                                                                                                                                                                                                                                                                             ",
"                                                                                                                                                                                                                                                                                                                                                            + $ $.$.:.| ! $.#.O.t.p.2 4 t.u.u.u.-./ u.u.u.u.J._ ,.J.J.J.T.-.3 n.P.q.J.J.J.u.I.u.u.u.u.J.J.J.u.u.u.J.J.T.E.~. X/ L  X~.!.~.J.u.J.J.D.P.q.J.L.u.u./ / i.u.u.u.7./ y.u.L.L.L.L.L.I.$.L p.u.u.u.u./ / u.i.u.u.J.J.i.i.=.y.u.u.q.u.;.-.9.u.i.3 3 i.J.O.O.o.! o.#.o.+.:.( ( :.:.o.| { 2 W @.O.O.o.o.u @.#.@.u % k                                                                                                                                                                                                                                                                                                                                                             ",
"                                                                                                                                                                                                                                                                                                                                                            t + $.$.:.o.E #.#.O.e.p.2 2 y.u.u.y.=./ u.u.u.u.u./ ( J.J.J.T.+.3 p.L.J.q.J.I.J.u.;._ J.J.J.J.J.J.J.u.K.u.D.q.T. X/ P [.!.!.!.J.u.0.J.P.$Xq.u.J.u.u./ / i.u.u.u.7./ y.u.u.q.L.D.L.L.#.L p.u.u.u.u./ / u.p.u.u.J.J.i.i.=.y.u.q.0.u.0.y.y.u.i.2 2 i.J.O.O.o.! | @.~ +.:.~ ( :.:.| o.{ 2 W @.o.O.o.o.u @.#.$.2 6                                                                                                                                                                                                                                                                                                                                                               ",
"                                                                                                                                                                                                                                                                                                                                                            k + $.$.:.o.E #.$.O.e.t.2 4 >.u.u.u.=./ u.u.u.u.u._ / J.J.J.T.+.3 p.L.L.q.J.L.u.I.9.<.<.0.u.J.J.J.J.u.K.u.L.D.U.U._ P [.!.!.~.q.u.J.K.P.$X0.u.J.u.u./ / i.u.u.u.7./ y.u.u.q.J.D.L.L.$.L p.u.u.u.u./ / u.p.u.u.J.J.i.i.=.y.u.u.q.u.t.y.y.u.p.2 4 i.J.O.O.o.! | @.~ +.8.^ ( :.:.| o.{ 2 W @.O.O.o...u @.#.@.2 t                                                                                                                                                                                                                                                                                                                                                               ",
"                                                                                                                                                                                                                                                                                                                                                            M $ $.+.1.o.I #.o.O.e.r.0 < @.K.K.u.;._ u.u.u.u.u._ O.q.q.J.[.+.4 I.P.D.u.i.u.u.u.u.7.^ :.p.u.J.u.u.q.J.u.J.D.R.T.( L [.~.~.~.D.J.D.D.P.$Xq.u.q.u.u./ / p.u.u.J.7./ y.i.u.J.J.D.L.I.#.L p.J.q.u.p.O./ u.u.u.J.u.u.u.p.=.t.u.q.D.u.u.u.q.y.e.q 2 p.a.O.O.o.W { o.~ +.:.~ ~ :.:.| ~ ..< W ..o.o.o.@.q @.@...5 =                                                                                                                                                                                                                                                                                                                                                               ",
"                                                                                                                                                                                                                                                                                                                                                            t $ 6.O.#.{ I #.o.+.$.#.< > Q u.J.u.=._ u.u.u.u.u._ O.q.q.J.[.+.4 I.Y.D.u.K.K.K.u.u.7.^ :.p.u.J.u.u.D.J.u.J.D.R.T.( 3 [.~.~.~.J.J.q.D.E.&Xu.u.q.u.u./ / p.u.J.D.7./ y.i.J.J.D.D.L.I.#.L p.L.q.u.p.O.O.u.u.u.u.u.u.u.i.=.y.u.q.q.u.u.u.q.9.-.2 2 p.u.O.O.o.W { O.Q +.8.~ ~ :.:.o.o.@.0 W o.o.o.o.@.u @.@...t &                                                                                                                                                                                                                                                                                                                                                               ",
"                                                                                                                                                                                                                                                                                                                                                            k $ $.@.:.| I o.O.+.+.#.0 e W I.K.K.;._ i.u.u.u.u._ O.u.q.q.[.+.4 a.Y.D.u.K.;.;.u.t.7.( :.p.u.J.u.u.D.J.u.u.D.R.T.( 3 [. X~.~.J.J.J.J.P.T.u.J.u.u.u./ / u.u.u.q.7./ y.u.J.u.L.J.L.I.#.L a.Y.q.u.u.O./ u.u.u.u.u.u.i.i.=.y.u.J.u.;.9.u.u.9.O.2 2 p.u.O.O.o.W o.$.O.+.:.~ O.:.:.o.o.} 0 Q @.~ ~ | o.q o.o.*.8 =                                                                                                                                                                                                                                                                                                                                                               ",
"                                                                                                                                                                                                                                                                                                                                                            k $ 6.$.o.Q I O.O.O.-.#.q p u u.J.K.;./ u.u.u.u.u._ O.u.u.D.[.+.4 a.Y.D.J.J.^ ^ u.u.7.( :.p.u.J.u.J.D.J.u.u.D.R.T.( 3 [. X~.~.J.J.K.J.J.J.u.J.u.u.u./ / u.u.q.q.7./ y.u.J.J.L.J.L.a.%.L I.Y.q.u.u.=./ q.u.u.u.u.u.u.p.=.y.u.u.q./ ;.u.u.t.+.2 2 p.u.O.O.o.W o.$.+.-.-.~ ~ :.e.o.Q 0 2 W @.o.o.o.o.q o.o.@., &                                                                                                                                                                                                                                                                                                                                                               ",
"                                                                                                                                                                                                                                                                                                                                                          & # $ 0 u 1.o.E O.O.+.-.+.u p 4 i.K.J.9.u.I.u.u.u.u./ O.u.u.D.U.O.4 n.U.J.J.u.0.u.u.t.t.( :.p.u.J.u.J.J.J.u.u.L.R.U.( 3 [. X~.T.J.J.J.u.J.D.u.J.u.u.u./ / u.u.J.D.7./ u.J.J.J.L.u.u.u.@.3 a.P.q.u.u.=._ u.u.u.u.u.u.u.u./ y.u.u.u.^ >.u.0.7.+.q 3 u.u.+.O.o.Q o.:.+.-.+.( ~ :.1.#.{ > 2 W @.o.O.( o.q #.#.} 9 . &                                                                                                                                                                                                                                                                                                                                                             ",
"                                                                                                                                                                                                                                                                                                                                                          O O + < p *.o.E #.O.( O.+.W p 1 u.K.u.u.u.u.u.u.u.K./ O.u.q.J.U.O.3 }.Y.q.J.J.u.u.u.u.7.^ -.p.u.u.u.J.J.J.u.u.D.R.U.( 3 [.}.~.|.J.J.J.J.D.J.u.J.u.u.u./ / u.a.q.D.7./ t.J.J.J.J.J.u.a...4 a.P.q.u.u.=._ u.u.i.9.u.u.y.u._ u.u.u.u.O.>.y.u.7.+.2 2 u.L.O.O.@.W o.:.+.+.+.~ ~ 1.:.@.{ , 9 p @.O.o.Q { q #.#.X.6 . .                                                                                                                                                                                                                                                                                                                                                             ",
"                                                                                                                                                                                                                                                                                                                                                        SX. j S $ , %.{ Q *.%.+.+.#.{ X.1 u.i.u.u.u.u.u.u.u.u._ O.u.q.D.U.+.4 }.I.J.J.D.u.u.u.u.7.^ -.i.u.u.u.u.D.J.u.u.D.R.T.( 3 [. XF.G.J.J.u.J.J.J.u.J.J.u.u./ =.a.a.u.J.7.O.u.J.J.D.q.u.u.7.W 4 n.L.q.u.u.=._ u.u.u._ =.t.u.y./ t.0.J.u.=.>.u.u.8.$.2 1 a.I.O.O.o.W o.:.+.:.-.~  .:.1.%.[ : , } @.O.O.$.@.e %.%.+ 7 V O <X                                                                                                                                                                                                                                                                                                                                                          ",
"                                                                                                                                                                                                                                                                                                                                                        SX. c S + % ..[ } @.o.+.+.#...X.> p.I.J.u.u.u.u.J.u.u._ =.u.u.D.T.+.4 n.[.q.w.J.u.u.u.u.7.^ -.i.u.u.u.u.D.u.u.u.D.R.T.( 3 [. Xw.F.J.u.u.u.u.D.u.u.J.J.u./ -.p.u.u.u.7.O.0.J.J.D.q.u.u.:.p 4 n.Y.q.u.u.=._ u.u.p./ _ u.y.y._ 9.0.u.u.=.>.u.u.t.r.a 2 i.u.O.O.o.W o.:.$.:.:.|  .$.$.@.[ , , n @.o.O.%...b X.X.X - C . AX                                                                                                                                                                                                                                                                                                                                                          ",
"                                                                                                                                                                                                                                                                                                                                                        SX. l z h.F $ 9 e w W %.#.#...X.> a.I.D.q.u.u.u.J.u.u.^ / u.u.D.T.-.3 1 -. X0.D.u.u.u.u.7.^ -.i.u.u.u.u.D.u.u.q.D.R.T.( L }. XF.D.u.u.u.u.u.D.u.u.J.u.u.=.O.^ =.J.J.7./ 0.K.J.D.J.J.a.-.p 4 n.Y.q.u.i.=._ u.u.p._ =.u.u.y.y.u.u.u.y.=.>.0.u.~ > a } p.u.O.O.@.W o.:.+.:.:.| | | | X.n % 5 b ..@.#.p b v X . &.H J O <X                                                                                                                                                                                                                                                                                                                                                          ",
"                                                                                                                                                                                                                                                                                                                                                        SX. z S V x &.6 + + < %.:.#.@...> a.a.q.u.9._ ;.0.u.u.t.t.u.u.D.T.7.! 4 :. X0.D.u.u.u.u.9.^ -.i.u.u.u.u.q.u.u.q.D.R.|.+.E  X X~.~.J.u.u.u.u.J.u.J.J.u.a.a.p.( =.u.u.>./ 0.J.J.D.J.L.u.L 0 3 n.Y.q.u.u.=._ u.u.i./ ;.u.u.u.y.y.u.u.y._ >.0.u.( > n [ t.u.O.O.@.W o.:.+.:.:.| | | { [ p % 6 e e 3 L > @ O g.z.S C l . <X                                                                                                                                                                                                                                                                                                                                                          ",
"                                                                                                                                                                                                                                                                                                                                                        SX. x Z Z Z F z ; . * n X...&...> J.J.u.u.t._ ;.y.y.y.y.i.u.u.J.{.;.~ < -.|.q.q.u.u.0.u.9.^ =.u.0.D.J.J.J.J.u.D.D.~.~.=.Y OX X|.R.J.D.u.u.u.u.u.u.u.J.u.i.p.^ ;.u.u.9.` u.i.u.a.q.L.a.E a 4 I.Y.q.p.u.` _ u.p.i./ >.u.u.u.u.u.u.u.p._ <.D.u.| < b W p.y.o.o.| ! o.+.O.+.:.( ~ ~ { [ a $ , 8 7 8 8 & O ; h.h.Z x j . AX                                                                                                                                                                                                                                                                                                                                                          ",
"                                                                                                                                                                                                                                                                                                                                                        SX. x Z Z z V f.h.O X $ $ $ &.&.> a.a.u.9.y.^ ;.y.y.u.u.u.u.u.J.T.>.~ < -. Xq.q.u.u.u.u.t.( :.t.i.J.J.J.q.u.u.J.D.T.Y._ Y OXOX|.|.D.D.u.u.u.u.u.u.u.J.u.a.p.^ >.u.u.K.J.u.u.i.u.D.L.a.W a L [.P.q.y.y./ _ u.u.i._ >.u.u.u.u.0.u.u.p./ ;.q.u...< b Q p.u.o.o.#.Q o.$.+.+.-.O.~ | o...b $ 6 6 * X X O ; h.d.f.z z l . C.                                                                                                                                                                                                                                                                                                                                                          ",
"                                                                                                                                                                                                                                                                                                                                                        SX. x S V l f Z H z 7 v $ $ * 5 : a.a.i.y.a.^ _ y.u.u.J.J.q.u.J.T.>.~ 9 $.}.q.y.u.u.u.u.t.O.O.-.u.J.u.u.q.u.u.q.D.P.L.=.! e.7.|.T.D.D.u.u.u.u.u.u.u.J.u.i.p.^ ;.u.u.u.u.u.u.7.7.D.J.n.W a L [.P.q.y.y.;.;.u.u.i._ >.u.u.u.u.u.u.9.p./ ;.q.u.{ < n Q p.u.O.o.o.Q o.$.+.+.+. .#.| { ..n X # # O k c c j F f j z x l . CX                                                                                                                                                                                                                                                                                                                                                          ",
"                                                                                                                                                                                                                                                                                                                                                          . x S Z l f z x G f.G * O O O + b.5.r.s.t.~ 7.y.u.J.D.D.q.q.q.T.:.Q , O.[.0.0.q.q.u.i.t.O.~ ~ u.u.u.u.q.q.u.u.J.q.q.-.^ 4 4  X XD.u.u.u.u.u.u.u.u.J.u.u.u.^ >.J.u.u.J.u.u.O.=.J.L.[.E p P [.P.u.y.u.u.0.u.u.i./ ;.u.u.q.J.u.9.u.t.^ ;.q.t.[ 1 p Q p.u.O.O.o.Q o.:.#.:.1.| } { { X.M O o . O F G S F z - = z x c . AX                                                                                                                                                                                                                                                                                                                                                          ",
"                                                                                                                                                                                                                                                                                                                                                          O x x Z Z Z l d h j 7 &.h.h.h.t @ X + { r.o.:.p.u.J.D.D.q.q.q.U.:.Q , O.U.0.0.q.q.J.J.t.o.~ ~ i.u.u.u.q.u.u.u.J.q.q.-.~ 2 L  X XD.u.u.u.u.J.u.u.u.J.u.u.u./ ;.J.u.y.L.u.u.=._ J.L.n.I W ! [.P.D.u.y.q.q.y.u.i./ ;.u.u.q.u.;./ y.y.^ ;.q.t.Q : p Q p.u.O.O.o.Q #.#.o.| o.U i + + X # = G A.A.h & d = - f.h.z x c O                                                                                                                                                                                                                                                                                                                                                             ",
"                                                                                                                                                                                                                                                                                                                                                            j j V z v.Z & j f l V S S S S 7 7 v t i 9 u Q e.a.u.u.u.u.u.{.:.! < / T.0.D.D.q.J.u.u.:.O.! i.u.u.u.q.u.u.J.D.q.Y.:.! 2 4  X XJ.D.u.u.J.u.u.u.u.J.u.u.u./ 7.J.u.u.u.u.u./ / J.L.n.I Q ^ {.P.0.u.u.q.q.y.y.p./ ;.u.u.u.0._ ^ p.u.<.w.u.9.Q @ p W n.i.O.#.#.{ ....0 , 5 @ % 6 j l j z V V V j d d d - c.v.z z =                                                                                                                                                                                                                                                                                                                                                               ",
"                                                                                                                                                                                                                                                                                                                                                            c o z V Z.H & j f j l z j z G H F j.7 X X @ @ r.s.p.a.i.p.a.[.:.W , ( ~.q.q.J.J.J.u.t.t.:.^ u.u.u.J.u.u.J.J.D.D.U.>.! < r }. XD.D.J.u.u.u.u.u.u.J.u.i.u./ 7.J.u.u.q.u.u./ _ J.J.n.3 Q ^ {.P.0.t.u.q.q.u.y.t./ -.u.u.u.u._ ^ p.J.u.q.9.t.{ : q u i.i.$.@.@.{ ..&.+ + X X . H G d.G S l d f d d f d - c.v.S = l                                                                                                                                                                                                                                                                                                                                                               ",
"                                                                                                                                                                                                                                                                                                                                                            x O l l l = f l l l j l j d j d d j H c.c.x.m.% $ @ $ + $ : n.o.W , +. Xu.a.p.u.0.u.u.y.:.^ y.u.J.J.J.J.K.J.J.G.U.:.! < > }. XD.D.J.u.i.u.u.u.u.J.u.p.u./ 9.L.J.u.q.u.u.O./ u.J.a.2 Q ^ {.P.0.t.u.u.u.u.y.t.^ :.p.u.u.0._ ^ t.t.y.u.p.p.[ , i a Q W + + + + + X 4.4.G G S j d d d j d f f f f f d o z j f d =                                                                                                                                                                                                                                                                                                                                                               ",
"                                                                                                                                                                                                                                                                                                                                                            l O V V d = j f j j j j j f f d d l d.v.v.c.c.X + $ X $ + + r...p * %.}.a.s.p.t.u.u.u.u.>.^ y.y.J.u.u.u.K.J.D.D.U.:.! < 1 }. XG.D.J.J.u.u.i.i.u.J.u.i.u./ 9.L.J.J.q.u.u.O./ u.u.p.2 W ^ {.P.q.y.u.u.u.u.u.p.( -.p.u.u.u.-./ t.p.p.p.r.s.n , 9 e n n + + + + + . g.G H d.d.- = d d d d d d f f d d - z j l j =                                                                                                                                                                                                                                                                                                                                                               ",
"                                                                                                                                                                                                                                                                                                                                                            j o l z S Z V f j h j j j f f f d j j l z l j c.Z.c.c.v.v.g.X + X O @ : : , : : t.y.p.t.:.! p.p.i.u.u.u.i.u.q.q.U.8.! < 1 }. XG.D.J.u.u.u.i.i.u.J.u.i.u.^ >.u.u.J.D.J.u.-./ u.u.p.1 E ^ U.Y.D.y.u.0.u.u.u.p.( +.t.t.u.y.=.~ e.%.+ @ : $ # X O O . . h.h.h.h.h.z.* = = f - = d = j d d d f d = f d = j j f &                                                                                                                                                                                                                                                                                                                                                                 ",
"                                                                                                                                                                                                                                                                                                                                                                l V z V Z d h h h j j f j l h = l d l j l c.c.c.c.v.v.h.+ X + o $ : , $ @ + p.y.u.p.:.! p.a.i.i.u.u.i.u.q.q.U.8.! < 1 }. XF.D.J.u.u.u.i.i.u.J.u.u.t.^ ;.u.u.J.D.J.i.-./ u.u.p.1 u ^ U.Y.q.u.u.u.u.u.u.p.( +.t.t.u.u.-.( r.6.+ $ $ + # o o o . . A.h.h.v.h.h.7 f d d f = f = d d d d d d j d d d j j - &                                                                                                                                                                                                                                                                                                                                                                 ",
"                                                                                                                                                                                                                                                                                                                                                                . . H m V j d l j j j h h h h & & d d l j l l l j y x h.h.Z.C.V.V.V.B.B.V.N.5 , , , , , , < , < , < 1 6.1.r.n.8.! < 2 }.}.i.i.i.i.p.p.u.p.p.p.p.p.e. .e.p.i.p.p.a.a.7.7.p.n.M.1 q o.[.[.u.y.p.M.6.$ + + + X X X X $ $ $ + t m.m.m.m.m.m.j.h.h.G Z l = d d d = d z - & - - = d d d f f d f d j z l j .                                                                                                                                                                                                                                                                                                                                                                   ",
"                                                                                                                                                                                                                                                                                                                                                                O . o l V l j l l j j f j j l F F F d d j j j z x l m G G g.z.z.z.k.k.j.B.B.&.&.&.4.5.4.5.5.5.&.&.5.5.u u Q { Q 3 < < $.$.~ ( O.O.@.( ( o.o.o.o.{ { E Q o.#.O.o.+.+.~ Q Q { [ @ , 2 ..~ ~ Q Q X.p N N D D N N N N N D D N &.m.4.&.&.g.g.S S S z V j = = d d d d = d.H c c = d d d d d = d d f V o o .                                                                                                                                                                                                                                                                                                                                                                   ",
"                                                                                                                                                                                                                                                                                                                                                                O o O 7 z f d l j j h h j z V v.v.h.= d j j j H H V Z F F F H H H S S S m.c.m.m.m.m.m.m.m.m.c.c.m.m.V.i e i b [ [ D N p p n p p i i a a a a i i t i i i i i p p p p n p e i 7 6 7 7 9 9 9 9 9 t k c.v.h.h.h.h.h.h.h.h.h.h.h.v.S m z x z f j f d l d = = = d d - = Z.Z.g.f.= d d d d = = d d d l O . o                                                                                                                                                                                                                                                                                                                                                                   ",
"                                                                                                                                                                                                                                                                                                                                                                O O # O o . ; d d d j j j l z F G H - - f j d S Z f z F S S S F S S H H f.H H H D D G H D S B S M &.k.V.V.C.C.C.C.C.C.C.C.V.V.V.V.V.V.V.V.V.V.V.V.V.B.B.V.V.V.V.V.V.V.V.V.V.c.c.x.c.x.x.x.m.m.m.c.h.x x x x x x c l z z z Z Z l Z z z z z V V V d = = = = d d = - v.g.4.g.= d = = d = h j o O o . O o                                                                                                                                                                                                                                                                                                                                                                   ",
"                                                                                                                                                                                                                                                                                                                                                                    * * 6 O . ; ; o h j j l l 7 j j = d f j d H H Z S S S H H F H H H H H F S m f j x S H H m F S &.z.z.z.h.z.c.x.c.x.z.z.c.v.c.c.c.c.c.c.c.c.c.c.c.c.c.c.c.c.x.c.c.k.j.h.h.G f.G G &.f.F G G &.f.S S V V V z z V j = d l z l V V l z z V C j j d d d d d d j = d z c j j d f d d - ; o o . # 7 O O                                                                                                                                                                                                                                                                                                                                                                     ",
"                                                                                                                                                                                                                                                                                                                                                                    X 5 t X X . . . d j = z z - - - = d j j j S S H S S H H H H H H F F S F D M M M c S H S H H H S S S S F F G G &.&.D G &.G d.f.f.&.f.&.g.4.g.&.4.4.g.f.&.G G &.G c c m Z Z V m m m V V V Z m m M M V V x x l z l = = j f z x z z x z z Z d f j f = = = d = d d = & - - j f = = o . O O X X M . o                                                                                                                                                                                                                                                                                                                                                                     ",
"                                                                                                                                                                                                                                                                                                                                                                    X % v 8 v v # O . o O x l l l j j j j j d j j H H S H H H H H H H H F A 7 g.C.SXz.* m H H H H H S H H F F G G &.&.&.&.m c z z z z x c Z B B - * & y H x x x x x z x m Z Z Z m m m m Z Z Z m Z m m Z Z m m 7 = AXm.v.- - l z z z Z z z V - = V z = d = d = j = d d h d l = . # O X z z b 8 M . .                                                                                                                                                                                                                                                                                                                                                                     ",
"                                                                                                                                                                                                                                                                                                                                                                    X 5 X.e i i e 9 5 * * # ; & & & j d d j f j j H H F H H F H H H H H Z S = D z.<X&.* S S F S F S S F F F F S V S S g.g.M x z z x c V V S j y 7X<X4.J = J Z V V V V V V V m m Z Z Z m m m m Z Z Z Z Z V x Z = j AXh.&.- & z z x x z z j d l z l j d d d d = - = ; ; & & * * 6 6 , , i i %...i . X                                                                                                                                                                                                                                                                                                                                                                     ",
"                                                                                                                                                                                                                                                                                                                                                                    X 6 ..q w W p p n b v . . O . o j d j j f j j F G F F H H H H H H H H F 7 M &.x.B - S S F S S S S S F F F Z z c m g.g.z x V V V x z V z * * FXFXv.S - l z z x x z V V V m m Z Z Z m m x x V V V Z V V x Z = = c.G &.- & z z z z z z = & V S d d d d d = d - d . . . . . # v i b p p w @.@.i . X                                                                                                                                                                                                                                                                                                                                                                     ",
"                                                                                                                                                                                                                                                                                                                                                                    . , { #.#.1.U } w n v 6 * # o . . . . d l j j z z V S F F F S S S S G H c j * * * = Z F S S F F F F F F F V l z x c c Z z x V z x Z z m 8 5 c.m.c.A - Z V V z x V V V V V V V V V x m x x V C C C C z V V d = & = = = j z z z x z l V l V C = = f d d = O . . . . X # 6 5 p i q W #.#.{ { i X O                                                                                                                                                                                                                                                                                                                                                                     ",
"                                                                                                                                                                                                                                                                                                                                                                    + * ~ #.#.,.! I p i e 9 e # + X X X X z z l x x V l F H H H S H H H G H z j - - - - Z G F F F F F F S F G m l m m z z m Z x Z x x c Z x = j v.v.h.F = x z z x x x m m m m m x x x m Z Z z V V z z Z V Z Z f = - - - f d z S z V l z x V z z h h h d f f . . . . . # % 9 e E q u u #.#.| } v . o                                                                                                                                                                                                                                                                                                                                                                     ",
"                                                                                                                                                                                                                                                                                                                                                                    X t { 1.#.$.#.#.p p ..2 < * 7 i b b M X X . . o . . o j F H H H H F S G F x z j z S H F F F F F G F F F F F F G G h.G z z Z V V Z x V V j j - - = d f x x V V V x x Z Z Z Z V V V V V V V x x V V V V C V z z j d f x z z z c c z z z c - ; O O O . X X M v v v k # % 9 W #.#.Q u %.#.{ } v O O                                                                                                                                                                                                                                                                                                                                                                     ",
"                                                                                                                                                                                                                                                                                                                                                                      M W *.#.$.#.#.q 0 ..2 2 * 8 n n n n + X X X O . . . j S S S S S S F H F S f l C H H H F F G G G F F F G F F F F h.f.x V Z V V Z V x Z l l & & - d l z V V V x x V Z Z Z Z V V V V V z V x x x x V V z V V z l j j V S S z z Z x x z z - & X X X X X X n v i i M X + < p #.%.Q u %.#.| p M O                                                                                                                                                                                                                                                                                                                                                                       ",
"                                                                                                                                                                                                                                                                                                                                                                        + p { $.o.#.q W @.#. ., 0 W p W } X.n i b i v k X X X X X X . . O . G H H F F H H F F G G F F G H S H V l l z d.f.h.G V Z V V V V Z Z S f j j z x z V V V Z V V V V Z V V V V V V V V z x x z z V z z x z V x x J B . O . . . O . X . X i i v b b b w w w } } @ @ ..@.#.#.W u @.@.{ } +                                                                                                                                                                                                                                                                                                                                                                         ",
"                                                                                                                                                                                                                                                                                                                                                                        $ } } $.o.o.I W %.#.o., e W W Q { W p p W p b i $ $ @ $ + X # % # % 7 = f = = = 7 f j j j j j f f x H Z z z z H F G H V Z V V V V V V V j l l z z V V V V V V V V V V V V V V V x z j = = 6 7 = = = = = = = = = = 7 # % * O # # # # + $ e e i b p p w W W o...@ $ ..#.#.#.W u @.#.{ b +                                                                                                                                                                                                                                                                                                                                                                         ",
"                                                                                                                                                                                                                                                                                                                                                                        + n } #.#.| I E Q @.@., W { Q ~ #.! E W E U W q X.{ } e , % M n n i $ + # + % + + # # # # # # # # f c l z j j j l c c c c z z z z c z z z z z z z c c c z z l l z l z l z z c l c = = X # $ $ + + + + + # + + + 5 , b b n 5 5 9 b b i w w w w w w w W q W @.*.> : @.#.o.#.W q *.@.} [ #                                                                                                                                                                                                                                                                                                                                                                         ",
"                                                                                                                                                                                                                                                                                                                                                                        + } } #.#.:.I q E @.%., } @.| ~ #.o.#.#.#.#. .u %.*. .q , , b n b b b b n n M b b n M M M M M M 6 X X X X . . . . . X X . . . O . . . . . . . . . . . . . . . . . . . . X . O . . . X v v b n b v v v v v v v i n u p b n < , , *.*.p w p w w w w w W q W @.*., : o.o. .o.W q *.@.p n #                                                                                                                                                                                                                                                                                                                                                                         ",
"                                                                                                                                                                                                                                                                                                                                                                        X b W #.o.#.{ Q q %.@.< [ $.o.#.o.#.#.O.+. .| W ..1.:.Q 9 , [ } { { { W W } p p p p p a p p p i 8 5 6 5 6 # # * * * % % , , % * 5 * * * * 5 5 * * 5 % % 5 5 5 5 * * * O # # * 5 5 9 , i e i b p p p p p p p p W } | Q { { , e } @...U W p p w w w } w p w *.*.1 : ..| #.| W q } o.p v .                                                                                                                                                                                                                                                                                                                                                                         ",
"                                                                                                                                                                                                                                                                                                                                                                        + 8 } @.o.o.#.o.u %.@., [ *.@.| o.o.o.o.O.,.~ u u #.e.| 0 @ ..@.O.#.@.Q W p W W W W W u p u p p b i i 8 b 6 5 v v i v v v v v v v v v v v v v v v v i v b b b b v v k 5 * 5 v v n p b p p p w W W p w w q q p W ..o.o.@...1 e %.%.{ W I p p p p w p p W w *.*., > ..o.| E q 0 W { p 9 .                                                                                                                                                                                                                                                                                                                                                                         ",
"                                                                                                                                                                                                                                                                                                                                                                          $ , 2 $.| o.#.I $.@., < < { | ! Q Q O.O.:.#...u o.1.| 9 @ @.*.+.O.O.o.$.@.{ W %.%.O.o.@.o.@.W W w p i i 9 < i p i p p p p p w w w w w w w w w w w p W W } } p i w i , % , 8 p } W } E W %...{ o.@.@.@.@.@.Q E o.O.O.o.{ : a ....o.I E p p p p p w p } { q e , , @.@.#.o...X.q w X X                                                                                                                                                                                                                                                                                                                                                                           ",
"                                                                                                                                                                                                                                                                                                                                                                          X $ p @.$.o.#.E $.@.5 < < { | ~ Q Q @.#.#.*...s o.1.Q 9 @ @.@.O.O.#.#.#.$.W q %.$.O.o.#.o.#.q W w p i b < , w w p w w w p q w w w q w w w w w w w U U U U U W w e e , % , e w } } U ! E @.W W o.$.@.@.@.@.W q $.( O.o.@.: 0 ......q I p p p p p w w { *.> < 9 < @.@.o.o.%...0 q $ +                                                                                                                                                                                                                                                                                                                                                                           ",
"                                                                                                                                                                                                                                                                                                                                                                          . # i @.#.O.-.o.p p $.u , X...{ Q Q O.#.O.O...p o.7.:.W 1 @.%.O.O.+.+.O.O.@.o.W q o.O.o.#.#.E W #.+.:.t.< 2 $.$.#.#.#.#.#.@.w w ..o.o.o.o.o.@.@.@.o.#.W W o.o.@.o.X.< % , X.@.@.! ! $.O.+.O.O.O.O.O.O.O.O.W E o.o.o. .@.: a X.| #.p a w p i i p p q [ ..: , X...#.O.~ o.| { < 9 O .                                                                                                                                                                                                                                                                                                                                                                           ",
"                                                                                                                                                                                                                                                                                                                                                                          # * t @.o.O.+.$.p W *.u , X...{ Q Q O.O.O.O.@.p | :.e.W > @.@.O.O.O.O.O.O.O.o.q q o.o.#.#.o.q W #.+.:.t.1 1 $.$.#.+.O.O.#.@.q q @.#.O.O.O.O.$.$.$.$.$.! I o.o.+.%...9 5 , ..%.$.! E :.$.O.O.O.O.O.O.O.O.O.E E @.O.o.o.@.: a ..{ { q a w p i i p p q [ ..1 , ..@.#.O.o.| @..., 9 O O                                                                                                                                                                                                                                                                                                                                                                           ",
"                                                                                                                                                                                                                                                                                                                                                                          O X . i } *.#.#.E E $.0 , X.{ { Q Q @.#.O.O.o.E ~ O.e.W > %.%.O.O.O.O.+.+.@.o.3 q o.o.o.o.o.E ! $.O.-.t.< 1 $.$.+.+.+.O.O.o.q q o.#.O.O.O.O.O.@.@.O.$.W I o.o.o.o...< , < ..@.@.E I :.$.O.+.O.o.O.o.O.O.@.W W %.( o.o.@.: a ..q q p p w p i b p W u { ..: 1 ..@.#.o.#.I X...X X . .                                                                                                                                                                                                                                                                                                                                                                           ",
"                                                                                                                                                                                                                                                                                                                                                                          O - S + + n W *.E E @.2 , X...{ Q Q Q { +.O.#.o.+.+.e.! > %.%.O.O.O.O.O.O.#.o.q q o.O.O.o.+.@.@.+.+.:.t.1 1 $.#.+.O.O.o.O.O.2 q o.#.O.O.O.+.O.O.O.O.$.! I o.( ( @.@.9 < < @.@.@.E q #.@.O.O.+.+.O.O.O.o.W I W @.O.o.o.@.> a ..p w w w p p p p p W p [ ..: : ..o.@.o...W , + k f . .                                                                                                                                                                                                                                                                                                                                                                           ",
"                                                                                                                                                                                                                                                                                                                                                                          O - G . X n b 5.q E %.0 , X...{ Q Q Q { +.o.$.O.+.O.e.Q r %.*.O.O.O.O.O.O.O.o.q q ~ o.O.O.$.O.o.O.O.-.t.1 1 $.#.O.O.O.O.O.o.q q @.+.O.+.+.O.O.O.O.O.#.! I O.O.O.o...< , 1 @.#.O.E I #.@.+.O.O.+.+.O.O.#.E I E *.O.@.@.%.> u @.W w w w p p p p p W p [ ..@ : ..@.@.....p 9 X z z O .                                                                                                                                                                                                                                                                                                                                                                           ",
"                                                                                                                                                                                                                                                                                                                                                                          O = S G f.X $ a a e %.a , , 0 { { Q { { ( O.+.O.O.O.e.O.! < < @.O.O.O.O.o.o.#.W u o.o.O.O.+.O.O.O.O.>.t.> 1 @.O.O.O.O.o.o.o.q q o.O.+.O.+.+.+.O.O.Q E o.#.O.( O.O...< p $.$.$.o.E E @.o.O.( +.O.#.$.o.~ | E 3 %.o.@...p > p %.p w w w p p p p w w @.[ < , , } p ..0 0 + 6 S S V O o                                                                                                                                                                                                                                                                                                                                                                           ",
"                                                                                                                                                                                                                                                                                                                                                                          O d S S G 5 6 5 8 e ..8 % $ w ..{ W Q Q @.@.O.O.O.O.t.+.Q 9 , @.O.O.O.O.o.o.#.E u ~ ~ o.o.+.+.+.O.O.>.t.> 1 $.#.O.O.o.o.o.o.q q o.$.+.+.+.+.+.O.O.Q q | #.O.O.O.O.X.< E $.$.O.Q ! Q @.O.O.+.O.O.+.$.~ | o.! E @.#.@.W 0 0 W @.p a w U p p p p p p @.p , 5 , b b b 5 7 5 f S S S O .                                                                                                                                                                                                                                                                                                                                                                           ",
"                                                                                                                                                                                                                                                                                                                                                                            x - z S h.f.# X # N 8 % * e ..Q W { { { o.O.O.o.| e.+.Q 9 6 o.O.O.O.O.O.o.#.q q W ! | ~ -.O.+.O.O.>.t.1 > ..@.o.o.o.o.#.o.W W I #.O.+.+.+.O.O.O.{ q { #.O.+.O.o.X.< W $.$.o.I o.o.@.O.( ( $.#.O.e.O.O.~ o.#.o.| %.0 : ..{ { p a W U w p p p p p ..i 6 % 6 t t + X * m j z d f                                                                                                                                                                                                                                                                                                                                                                               ",
"                                                                                                                                                                                                                                                                                                                                                                              . J S l Z S G S # X O % p *...[ Q W W { :.=.o.| $.O.~ 9 5 o.@.O.O.O.O.o.#.I E @.@.O.o.+.O.O.O.O.>.t.1 1 o.@.O.O.o.o.#.#.@.@.E $.O.+.+.O.O.O.O.{ q { @.O.O.O.@...9 W $.$.O.E o.o.@.O.O.O.@.! o.e.o.o.o.| | |  .@.e , X.{ { p p W U p p p w p p n 9 * O O # X z c l z j z . .                                                                                                                                                                                                                                                                                                                                                                               ",
"                                                                                                                                                                                                                                                                                                                                                                              ; S V z l z z J l x c O : > p [ { { { { ( / o.Q #.+.| , 5 o.@.o.o.O.O.o.#.I W $.#.O.o.+.O.+.+.+.>.t., 1 q W $.o.o.o.#.@.@.*.E $.O.+.+.O.O.@.#.{ q o.#.O.O.O.~ p , W @.O.O.E o.| $.o.+.^ Q E ! +.( o.( o.o.~  ...e : [ Q E p p W W p p p w p 0 : + # j l j z z z l j z z . X                                                                                                                                                                                                                                                                                                                                                                               ",
"                                                                                                                                                                                                                                                                                                                                                                              o V S j j f f j F &.F . . X N M n [ { { { o.o.! $.{ { < < o.o.o.#.| | #.#.E I O.+.O.o.#.O.O.#.O.>.e.: , , : @.O.O.O.O.O.+.#.E #.$.O.O.O.O.@.@.Q u o.#.o.o.#.{ a 9 W #.#.| T O.O.O.@.@.Q q W Q | o.+.o.o.| | ....2 1 } p } w p U W p b w i v k . O . S H F S d j d z z c . O                                                                                                                                                                                                                                                                                                                                                                               ",
"                                                                                                                                                                                                                                                                                                                                                                              . S V l f f f f d d f S &.F # X X X $ 0 ........{ { b 9 , { { o.Q E o.O.o.O.( O.O.O.( +.O.O.O.O.:.e.> , 5 , o.O.o.#.O.+.o.#.E @.#.+.O.O.O.O.O.Q u o.#.#.o.#.W < , E @.#.O.| O.O.O.O.@.! W #.#.#. .O.O.o.| | o.@.0 > b n i b b b } n 5 + + X . S F H j f d d d d j j z x . .                                                                                                                                                                                                                                                                                                                                                                               ",
"                                                                                                                                                                                                                                                                                                                                                                              . x H z l l f f j j d H H S X . X X + e *.....X.X.X.n 5 @ Q { $.| ! O.O.+.O.O.o.o.o.~ +.o.O.O.O.:.e., , 5 , o.o.o.o.o.O.o.#.E #.@.#.O.O.O.O.O.Q q o.o.o.o.#.W , 5 E @.@.$.+.O.+.+.O.o.! E #.#.o. .O. .O.o.o.@...0 : b b v v e n b M 7 X X . . z S S = d d d d d d j c c O .                                                                                                                                                                                                                                                                                                                                                                               ",
"                                                                                                                                                                                                                                                                                                                                                                        6 7 k 7 . . V Z Z f d d d d d d - F f.h.h.z.c X X X X X 5 D # % < 9 %.@.{ 3 Q O.O.+.o.o.O.o.+.O.O.O.O.-.>.a i 5 , #.O.O.o.+.=.#.$.E W E #.+.O.O.O.O.| E o.#.O.O.#.W 5 5 E @.O.O.O.O.+.+.O.#.Q I | o.| o.#.| o.$.@...p , @ v 6 X . X . . . = &.H G H = = - d = = = d j z V ; . 7 t k m *                                                                                                                                                                                                                                                                                                                                                                         ",
"                                                                                                                                                                                                                                                                                                                                                                        7 6 # 6 O . Z S Z j d j d j d d d F d.d.d.G l O O . . . 6 m % # 5 8 ....X.u { $.o.O.O.o.O.O.$.+.+.O.O.:.>.p b , , #.O.o.o.-.=.#.$.E W q #.+.O.O.o.o.| E o.o.O.O.$.W 5 5 E o.O.+.O.O.$.#.#.@.{ E #.o.| #.@.@.{ @.[ ..p 9 * M & O . . . O O d h.G H H j d = = f d = d f x V & . k k 5 7 7                                                                                                                                                                                                                                                                                                                                                                         ",
"                                                                                                                                                                                                                                                                                                                                                                7 7 k k 8 8 t k # . Z S V j d f d j = d d j j d j l S h.d.G G h.f O . . . . . X + b ..*.%.%.@.%.*.*.*.*.#.#.| e.e.p a @ : o.O.O.O.+.=.@.$.u u E #.+.O.O.O.o.| I o.O.O.O.%.W 9 6 E $.o.@.o.%...*.%.*.X.} X...........$ X X X X X O O j H F F G G G C d f d d d = d f = = d d d z z # X k k t t t k k m                                                                                                                                                                                                                                                                                                                                                                   ",
"                                                                                                                                                                                                                                                                                                                                                                t 7 k k 8 8 t k * % = = z j l f f f - j S f j l j j C C C V V x z x x z z z c m k % 5 9 < , 9 9 0 9 9 e 9 < @.{ { q i , , #.O.#.#.#.+.%.%.q p p $.$.O.O.@.#.{ q o.@.@.@.%.p 5 5 E $.@.@...u < e 9 e 9 5 9 5 , , 5 * 7 k k k k l j j f z l l l z z l d f d f Z l d d d d d j f f * # * k k t t t t t k M                                                                                                                                                                                                                                                                                                                                                                 ",
"                                                                                                                                                                                                                                                                                                                                                        SX7 8 5 8 7 8 8 8 t 7 8 k v X O j z l 7 f 7 - m c.j j d d f f d f f f f Z d.f.f.f.f.h.h.F O . X . X . . . . . X . # m m N b v * 6 %.%.%.*.%.%.....i b b %.%.@.@.....} i X.......*.n 6 * [ *.....[ $ X X X X X X X . . . . . x F h.4.A.h.G G z d d = f f d d d d d z h.Z f f d d = l j & O 5 k v 8 8 8 8 t t 5 8 7 5 DX                                                                                                                                                                                                                                                                                                                                                          ",
"                                                                                                                                                                                                                                                                                                                                                        k t 7 8 7 8 t 8 t k 7 8 8 k 8 = O V z f f f - z S - d d d f f f f f f d d f f j f f j j j f.G G &.&.h.h.h.h.h.G f.S . . X X X . X $ + + + + + $ $ X + + + + + + + X + X + + $ X $ + O O X + X X X D D &.&.&.&.h.f.f.f.f.d.G Z z z l c l d d f - d - f d d d d d = = S j = = f d d z = # = k 7 8 8 8 8 8 8 8 k v 7 k 8 *                                                                                                                                                                                                                                                                                                                                                         ",
"                                                                                                                                                                                                                                                                                                                                                      5 8 8 8 7 8 8 8 8 8 k 8 t 8 8 7 7 ; = d z j j d j S d = d h f f f f f j d d h h d f 7 d d l G G G G F F F F F F F G S * * * 7 - h d * * - - - * * * - - - - - 5 - - - - = = - - = * = = = = - = * * x S F F G G G G G f.&.G F x z z z f f f f d d d d = = = = = = = - j = d = d j j - * # 7 8 8 8 v 8 8 8 8 8 v g v 8 8 7 SX                                                                                                                                                                                                                                                                                                                                                      ",
"                                                                                                                                                                                                                                                                                                                                                    6 M 7 k 7 8 7 8 v 7 8 k 8 8 8 t 7 7 j . o J z d d d d d d d h f f j j f f d j j h j f j d j j l j j l l f f f f f f f l f.g.g.h.A.v.h.h.g.h.h.h.h.g.h.h.h.h.h.h.h.h.h.h.h.h.h.h.h.v.h.h.v.h.h.h.h.h.h.z z z C z V z z x x z z m l j z j - = d d - d = d - d f = = = d d j = h d d z l . # y k 8 k 7 8 8 8 8 8 8 6 8 7 8 8 k M %                                                                                                                                                                                                                                                                                                                                                     ",
"                                                                                                                                                                                                                                                                                                                                                    k 6 k 6 8 8 8 8 8 8 8 8 8 8 8 8 7 8 t 5 5 & O o l d h d j j f d d d d j j f j d j d f f h h j = l G c.c.d d f d f f d j z C z x z z x z z z z z z C V x V z Z x x z x Z Z V V Z Z Z Z Z Z Z m Z Z m V z z z z z z j j S h.H S = j l l z l j l = d d d d d d = d d d d d h h x O & O # 7 7 8 8 8 8 8 8 g g 8 8 8 8 8 8 8 8 8 t *                                                                                                                                                                                                                                                                                                                                                     ",
"                                                                                                                                                                                                                                                                                                                                                    6 t 7 7 k 8 8 8 8 8 8 8 8 8 8 8 t t 7 t 8 * - & # o ; & ; z d d d j f j f d j f j j f f f f f d x f.m.c.& & f f f f f j l l l F F S S l l l z z z l l l l z z j j j z x z z z z z z z z z z z z x x x z z z z z z j = x v.H F = z z z l z f d - d d d d d d d d = d & o o o - = & * * 7 7 8 8 8 8 8 8 8 8 8 8 8 8 8 8 8 t k t 6                                                                                                                                                                                                                                                                                                                                                     ",
"                                                                                                                                                                                                                                                                                                                                                    6 t k k 7 8 8 8 8 8 8 8 8 8 8 8 k t 8 k t 8 k k X O . O O h - f f j f f f f j f j j f f j f f - f f.m.c.; & f d j f f j j j j G G G S j j j j j l f l j l l j j z z l j l l l l l l l l l l z z z z z z z z l l z l - Z v.S G = l z x z z d - - d d d d d d = = - = o . . . . l k t k k 8 8 8 8 8 8 8 8 8 8 8 8 8 8 8 8 t k k 6                                                                                                                                                                                                                                                                                                                                                     ",
"                                                                                                                                                                                                                                                                                                                                                      m k k 7 8 8 8 8 8 8 8 8 8 8 8 t 8 8 8 8 8 8 v k k k O . . . . O o d l Z j j f f f j j j j d & - d - - & & j d j d j j j l j z l S S l j l l l l z j j f - SXAXh.m = z z z z z z l z z z z z z z z z z z z z z z z d - - - d - l V j j d - d - = = d d d d . . . . . X y 7 k v t t v 8 8 8 8 8 g g g 8 8 8 8 8 8 8 v v v 7                                                                                                                                                                                                                                                                                                                                                         ",
"                                                                                                                                                                                                                                                                                                                                                      y k k k t 8 8 8 8 8 8 8 8 8 8 8 8 8 8 8 8 8 7 k k k . X . . . O O d j S j f f j f d j j j d - - - - - & - j d f f j j j l j z j H H j j l l z l z f l = & SXSXh.S - l z z z z z z z z z z z z z z z z z z z z z j - - - = - - l V z l - - = - d d d d d d . . . . . . k 8 k 7 t v 7 8 k 8 8 8 g g g 8 8 8 8 8 8 8 k v v k                                                                                                                                                                                                                                                                                                                                                         ",
"                                                                                                                                                                                                                                                                                                                                                          7 k t 8 8 8 8 8 8 8 8 8 8 8 8 8 8 8 t t t t 8 k 8 8 k 8 y & . . . O . & d j d l l l l h h = - & - d j j j j l l j l j l j j f z F F H V l l l l l f - h.h.h.x = z z x z z z z z z z z z z z z z z z z z l l z z d = - - z V z d d d = - - ; O . . O . . ; j j t 8 t t 8 i 8 8 8 8 8 8 8 8 g g g 8 t 8 8 7 t v k k                                                                                                                                                                                                                                                                                                                                                             ",
"                                                                                                                                                                                                                                                                                                                                                          m k k k k 8 t t t t t 8 8 8 8 8 8 t t t t t 8 8 8 t k 8 7 % . . . . . ; = j j j j j h h h = - - - j j j j j j l j l j l j j d l S S S z l l z l l j = h.h.G V = j z z z z z z z z z z z z z z z z z V z c c c c j = = j z l j = d = = - - o O . . . . . # 7 7 7 t y 8 8 i 8 8 8 8 8 8 8 8 8 8 8 t 8 7 8 8 5 t M D                                                                                                                                                                                                                                                                                                                                                             ",
"                                                                                                                                                                                                                                                                                                                                                                y 7 v t 8 8 8 8 8 8 8 8 8 8 8 t t 8 8 8 8 8 8 8 8 7 7 7 7 y y j & X . O X . O . O = d d j d h j j j j j j j l h j f j j j j d l l l l z l l z j - & - f z z z z z z z z z z z z z z z z z V z z c l z l l l l l l l o . . . O O O . & 7 7 7 6 t 7 7 7 7 7 t k 8 8 8 8 8 8 8 t t t 8 8 8 8 7 k 7 k k l                                                                                                                                                                                                                                                                                                                                                                   ",
"                                                                                                                                                                                                                                                                                                                                                                      k.8 8 8 8 8 8 8 8 t 8 8 8 t 8 8 8 8 8 8 7 7 8 8 8 7 7 7 k 6 * * * * * * o . o ; ; & ; & & & & & & & - j j j f j j l j z V c l l z l l z l = = = j z z z z z z z z z z z z z z z z z d = = = - = - & - - & & & . . - & * * * * 6 g 8 8 8 8 7 8 8 t t t t 8 8 8 8 8 8 t t t t 8 8 8 8 k k 6                                                                                                                                                                                                                                                                                                                                                                         ",
"                                                                                                                                                                                                                                                                                                                                                                                7 7 8 k v v 8 8 8 8 8 8 8 7 7 8 t 8 8 7 7 k k k k k k k g g k * . . . . . . . . O O O O . ; d h h f j d j l z G S z c z C l l z x z l l l x z z z z z z z z z z z z z z z & O . O O O . . . . . . O O . h g l l k k k 8 v 8 8 8 8 8 8 8 8 8 8 t t 7 8 t t k k k k 8 7 7                                                                                                                                                                                                                                                                                                                                                                                 ",
"                                                                                                                                                                                                                                                                                                                                                                                c y k k k v t 8 v 7 v 7 8 8 8 8 8 8 8 8 v v 8 k t t 8 8 k t 8 8 7 7 7 7 8 8 7 t t t t y 7 . O o . . O O O O O O O O O O O O O O O O O O O O O O O O O O O O O . . . . . . X . k 7 k k 8 8 8 8 8 7 7 7 7 7 8 8 8 k k k 8 8 k 5 k 8 8 8 8 8 v 6 k 7 8 8 t t k k v 8 t 7                                                                                                                                                                                                                                                                                                                                                                                   ",
"                                                                                                                                                                                                                                                                                                                                                                                          * 6 5 7 7 5 5 8 8 8 8 8 v k 8 v v v t t t t t 8 8 8 8 8 8 8 8 k k 8 t t t t t t # # % # O O O O # O # # # # # # # o O O O O O # # # O O # # O O O O O o o o O O # # k t k k t t t t 8 8 8 8 8 t 8 8 8 8 t v 8 8 6 t 8 8 8 8 8 8 7 v 5 7 5 7 * 6 k g.                                                                                                                                                                                                                                                                                                                                                                                          ",
"                                                                                                                                                                                                                                                                                                                                                                                          7 6 6 8 7 8 k 8 8 8 8 k 8 v v t 8 7 8 t t t t 8 8 8 8 8 8 8 8 8 8 8 t t t t 8 k 7 k 7 7 k t 7 7 7 8 t k k t t k k k t t k k t t k k t t k k t t k k t j j y t t t 6 k 8 8 8 8 8 8 8 8 8 8 8 8 8 8 8 8 8 8 8 8 v 8 8 8 8 8 8 8 8 8 8 7 * 7 6 6 k 7                                                                                                                                                                                                                                                                                                                                                                                             ",
"                                                                                                                                                                                                                                                                                                                                                                                                        6 7 t k k k 7 v k 7 t t 8 8 8 8 8 8 8 8 8 8 8 8 8 8 8 8 8 8 8 8 t 8 8 7 8 8 t t 8 8 8 t 8 8 8 t t t t t t t t t t 8 t t t 8 8 t t 8 8 t k k t k k 8 7 8 8 7 8 8 8 8 8 8 8 t 8 8 8 8 8 8 8 8 8 v 8 v v 8 k k k k k 7 7                                                                                                                                                                                                                                                                                                                                                                                                           ",
"                                                                                                                                                                                                                                                                                                                                                                                                        & * 6 7 7 7 7 6 6 7 8 k 8 8 8 8 8 8 8 8 8 8 8 8 8 8 t t 8 7 8 8 8 7 8 8 k 8 7 7 8 8 7 8 8 8 8 8 8 8 8 7 8 8 8 7 7 8 8 7 7 7 8 8 7 8 8 7 8 8 8 8 8 8 8 8 8 9 7 8 8 8 8 8 t t 8 8 8 8 8 8 8 8 8 v v 7 v 6 7 7 7 7 7 6 7                                                                                                                                                                                                                                                                                                                                                                                                           ",
"                                                                                                                                                                                                                                                                                                                                                                                                                            7 k k t 8 8 7 8 8 t t k 8 v k 8 t t t 8 8 8 8 8 8 8 8 8 8 8 8 8 8 8 8 8 8 8 8 8 8 8 8 8 8 8 8 8 8 8 8 8 8 8 8 8 8 8 8 8 8 t t 8 8 8 8 8 8 8 7 8 k 8 k t 8 8 8 7 t t t t k k M 7                                                                                                                                                                                                                                                                                                                                                                                                                             ",
"                                                                                                                                                                                                                                                                                                                                                                                                                            c k k k k k k k k c c k c k y B t t 8 8 8 t 8 8 8 8 8 8 t t 8 8 7 7 7 7 7 8 8 8 8 8 t t t t t 8 8 8 8 8 8 8 8 8 8 8 8 8 8 8 8 8 8 8 8 8 8 k v k v N k k k k k k l k c c m c c S                                                                                                                                                                                                                                                                                                                                                                                                                             ",
"                                                                                                                                                                                                                                                                                                                                                                                                                                                            * * 5 6 6 * * * * * * * * * * * * * * * * 6 6 6 6 6 6 6 6 6 6 6 6 6 6 6 6 6 6 6 6 6 5 * * * * * * * * * * = 6                                                                                                                                                                                                                                                                                                                                                                                                                                                               ",
"                                                                                                                                                                                                                                                                                                                                                                                                                                                                                                                                                                                                                                                                                                                                                                                                                                                                                                                                                                                                                                        ",
"                                                                                                                                                                                                                                                                                                                                                                                                                                                                                                                                                                                                                                                                                                                                                                                                                                                                                                                                                                                                                                        ",
"                                                                                                                                                                                                                                                                                                                                                                                                                                                                                                                                                                                                                                                                                                                                                                                                                                                                                                                                                                                                                                        ",
"                                                                                                                                                                                                                                                                                                                                                                                                                                                                                                                                                                                                                                                                                                                                                                                                                                                                                                                                                                                                                                        ",
"                                                                                                                                                                                                                                                                                                                                                                                                                                                                                                                                                                                                                                                                                                                                                                                                                                                                                                                                                                                                                                        "
};
