/* XPM */
static char *_b578132ede5412a992f4a9a3629d760PoGIc6tcLby7m7E5[] = {
/* columns rows colors chars-per-pixel */
"100 100 194 2 ",
"   c white",
".  c #DDDDDD",
"X  c #A2A2A2",
"o  c gray39",
"O  c gray29",
"+  c gray26",
"@  c #414141",
"#  c #494949",
"$  c #5A5A5A",
"%  c gray48",
"&  c gray73",
"*  c #EEEEEE",
"=  c gray98",
"-  c gray95",
";  c gray21",
":  c black",
">  c #060606",
",  c #111111",
"<  c gray14",
"1  c #515151",
"2  c #888888",
"3  c gray85",
"4  c gray97",
"5  c gray66",
"6  c #313131",
"7  c gray1",
"8  c #010101",
"9  c #040404",
"0  c #0E0E0E",
"q  c gray23",
"w  c gray47",
"e  c #CECECE",
"r  c #F9F9F9",
"t  c gray87",
"y  c #323232",
"u  c gray4",
"i  c #464646",
"p  c gray57",
"a  c gray88",
"s  c #070707",
"d  c gray20",
"f  c #ACACAC",
"g  c #EAEAEA",
"h  c #6D6D6D",
"j  c #B9B9B9",
"k  c #F1F1F1",
"l  c gray40",
"z  c gray19",
"x  c gray58",
"c  c #ECECEC",
"v  c #686868",
"b  c #3E3E3E",
"n  c #8E8E8E",
"m  c gray93",
"M  c #101010",
"N  c gray37",
"B  c gray82",
"V  c #F6F6F6",
"C  c #2C2C2C",
"Z  c #9A9A9A",
"A  c #585858",
"S  c gray7",
"D  c gainsboro",
"F  c #505050",
"G  c #090909",
"H  c #484848",
"J  c gray79",
"K  c gray31",
"L  c #282828",
"P  c gray25",
"I  c #1B1B1B",
"U  c #2A2A2A",
"Y  c #AFAFAF",
"T  c #FBFBFB",
"R  c #7E7E7E",
"E  c #222222",
"W  c #979797",
"Q  c #626262",
"!  c #FEFEFE",
"~  c #D2D2D2",
"^  c gray46",
"/  c #2F2F2F",
"(  c gray56",
")  c gray91",
"_  c #656565",
"`  c #F3F3F3",
"'  c gray61",
"]  c #747474",
"[  c gray99",
"{  c #676767",
"}  c #E1E1E1",
"|  c #989898",
" . c #353535",
".. c gray2",
"X. c #D7D7D7",
"o. c gray77",
"O. c #0B0B0B",
"+. c gray42",
"@. c #777777",
"#. c #202020",
"$. c #898989",
"%. c gray83",
"&. c gray27",
"*. c gray10",
"=. c #A5A5A5",
"-. c #FDFDFD",
";. c LightGray",
":. c #939393",
">. c #1E1E1E",
",. c #020202",
"<. c #F4F4F4",
"1. c #B7B7B7",
"2. c gray16",
"3. c #B1B1B1",
"4. c #C0C0C0",
"5. c #CDCDCD",
"6. c #4E4E4E",
"7. c #818181",
"8. c #3C3C3C",
"9. c gray78",
"0. c #191919",
"q. c #535353",
"w. c #767676",
"e. c #161616",
"r. c gray22",
"t. c gray76",
"y. c #8D8D8D",
"u. c #EFEFEF",
"i. c #232323",
"p. c #5D5D5D",
"a. c #9B9B9B",
"s. c gray12",
"d. c #131313",
"f. c gray5",
"g. c gray9",
"h. c gray8",
"j. c #0C0C0C",
"k. c gray30",
"l. c gray32",
"z. c gray33",
"x. c #CACACA",
"c. c gray51",
"v. c gray55",
"b. c #2D2D2D",
"n. c gray65",
"m. c #A4A4A4",
"M. c #434343",
"N. c #DFDFDF",
"B. c gray6",
"V. c #555555",
"C. c gray3",
"Z. c #C5C5C5",
"A. c #F8F8F8",
"S. c #151515",
"D. c gray15",
"F. c #5F5F5F",
"G. c gray92",
"H. c #BBBBBB",
"J. c #373737",
"K. c #AEAEAE",
"L. c #929292",
"P. c gray36",
"I. c #5B5B5B",
"U. c gray94",
"Y. c gray53",
"T. c #CBCBCB",
"R. c gray11",
"E. c #868686",
"W. c #1D1D1D",
"Q. c #D5D5D5",
"!. c gray17",
"~. c gray13",
"^. c #838383",
"/. c gray38",
"(. c gray24",
"). c gray63",
"_. c #959595",
"`. c gray34",
"'. c #AAAAAA",
"]. c gray28",
"[. c gray68",
"{. c gray96",
"}. c #D0D0D0",
"|. c #3F3F3F",
" X c #4B4B4B",
".X c gray60",
"XX c #DADADA",
"oX c gray71",
"OX c #808080",
"+X c #646464",
"@X c gray18",
"#X c #444444",
"$X c #A7A7A7",
"%X c #C3C3C3",
/* pixels */
"                                                                                                                                                                                                        ",
"                                                                                                                                                                                                        ",
"                                                                                                                                                                                                        ",
"                                                                                                                                                                                                        ",
"                                                                                                                                                                                                        ",
"                                                                                                                                                                                                        ",
"                                                                                                                                                                                                        ",
"                                                                                                                                                                                                        ",
"                                                                                                                                                                                                        ",
"                                                                                                                                                                                                        ",
"                                                                                                                                                                                                        ",
"                                                                                                                                                                                                        ",
"                                                                                                                                                                                                        ",
"                                                      . X o O + + + + @ # $ % X & * =                                                                                                                   ",
"                                                  - X ; : : : : : : : : : : : > , < 1 2 3 4                                                                                                             ",
"                                                  5 6 7 : : : : : : : : : : : : : : 8 9 0 q w e r                                                                                                       ",
"                                                t y 8 : : : : : : : : : : : : : : : : : : : : u i p a                                                                                                   ",
"                                                5 : : : : : : : : : : : : : : : : : : : : : : : 8 s d f g                                                                                               ",
"                                                h : : : : : : : : : : : : : : : : : : : : : : : : : : u @ j k                                                                                           ",
"                                                l : : : : : : : : : : : : : : : : : : : : : : : : : : : : s z x c                                                                                       ",
"                                                v : : : : : : : : : : : : : : : : : : : : : : : : : : : : : : 9 b n m                                                                                   ",
"                                                w : : : : : : : : : : : : : : : : : : : : : : : : : : : : : : : : M N B V                                                                               ",
"                                                o : : : : : : : : : : : : : : : : : : : : : : : : : : : : : : : : : 8 C Z =                                                                             ",
"                                                A : : : : : : : : : : : : : : : : : : : : : : : : : : : : : : : : : : : S n D                                                                           ",
"                                                F : : : : : : : : : : : : : : : : : : : : : : : : : : : : : : : : : : : : G H J                                                                         ",
"                                                K : : : : : : : : : : : L P I > : : : : : : : : : : : : : : : : : : : : : : : U Y T                                                                     ",
"                                                1 : : : : : : : : : : : v     e R d G 8 : : : : : : : : : : : : : : : : : : : 8 E W                                                                     ",
"                                                F : : : : : : : : : : : Q         ! ~ ^ / 7 : : : : : : : : : : : : : : : : : : : u ( )                                                                 ",
"                                                F : : : : : : : : : : : _               ` ' z > : : : : : : : : : : : : : : : : : : M ] [                                                               ",
"                                                1 : : : : : : : : : : : {                 ! } |  .u : : : : : : : : : : : : : : : : : ..] X.!                                                           ",
"                                                F : : : : : : : : : : : Q                       - o.H G : : : : : : : : : : : : : : : : O.+.g                                                           ",
"                                                K : : : : : : : : : : : _                           } @.#.: : : : : : : : : : : : : : : : O.$.`                                                         ",
"                                                1 : : : : : : : : : : 8 {                             = %.&.> : : : : : : : : : : : : : : : *.=.-.                                                      ",
"                                                F : : : : : : : : : : : Q                               ! ;.% G : : : : : : : : : : : : : : : H g                                                       ",
"                                                K : : : : : : : : : : : _                                     :.>.: : : : : : : : : : : : : : ,.{ <.                                                    ",
"                                                1 : : : : : : : : : : : {                                       1.2.8 : : : : : : : : : : : : : S 3.                                                    ",
"                                                1 : : : : : : : : : : : Q                                         4.b 9 : : : : : : : : : : : : :  ..                                                   ",
"                                                K : : : : : : : : : : : _                                           5.6.8 : : : : : : : : : : : : 7 7.!                                                 ",
"                                                1 : : : : : : : : : : : l                                             t H 7 : : : : : : : : : : : : d r                                                 ",
"                                                F : : : : : : : : : : : Q                                               %.8.: : : : : : : : : : : : > Y                                                 ",
"                                                K : : : : : : : : : : : _                                                 9.0.: : : : : : : : : : : : q.                                                ",
"                                                1 : : : : : : : : : : : {                                                 - w.: : : : : : : : : : : : e.<.                                              ",
"                                                F : : : : : : : : : : : Q                                                   g r.8 : : : : : : : : : : 7 t.                                              ",
"                                                K : : : : : : : : : : : _                                                     y.s : : : : : : : : : : : w                                               ",
"                                                1 : : : : : : : : : : : {                                                     u.i.: : : : : : : : : : : H                                               ",
"                                                F : : : : : : : : : : : Q                                                     ! p.8 : : : : : : : : : : L                                               ",
"                                                F : : : : : : : : : : : _                                                       a.,.: : : : : : : : : : s.                                              ",
"                                                1 : : : : : : : : : : : v                                                       t ..: : : : : : : : : : d.                                              ",
"                                                F : : : : : : : : : : : Q                                                         f.: : : : : : : : : : f.                                              ",
"                                                K : : : : : : : : : : : _                                                         g.: : : : : : : : : : M                                               ",
"                                                F : : : : : : : : : : : {                                                         h.: : : : : : : : : : j.                                              ",
"                                                K : : : : : : : : : : : o                                                         d.: : : : : : : : : : O.                                              ",
"                                                k.: : : : : : : : : : : {                                                         0.: : : : : : : : : : M                                               ",
"                                                l.: : : : : : : : : : : Q                                                         h.: : : : : : : : : : j.                                              ",
"                                                $ : : : : : : : : : : : z.                                                        M : : : : : : : : : : u -.                                            ",
"                                                +.: : : : : : : : : : : +                                                       ) O.: : : : : : : : : : M x.                                            ",
"                                                c.,.: : : : : : : : : : ;                                                     <.v.,.: : : : : : : : : : M J                                             ",
"                                                $.7 : : : : : : : : : : b.                                                  [ n.I : : : : : : : : : : : *.J                                             ",
"                                                m.9 : : : : : : : : : : I                                                   ) M.8 : : : : : : : : : : : i N.                                            ",
"                                                & u : : : : : : : : : : B.k                                               t V.8 : : : : : : : : : : : 8 c.!                                             ",
"                                                o.S : : : : : : : : : : C.Z.                                              ^ > : : : : : : : : : : : : M 3                                               ",
"                                                A.S.: : : : : : : : : : 9 x                                           N.@.9 : : : : : : : : : : : : : H 4                                               ",
"                                                -.D.: : : : : : : : : : 8 F.                                      G.H.J.9 : : : : : : : : : : : : : h.K.                                                ",
"                                                  z.: : : : : : : : : : : ;                                 = u.L./ > : : : : : : : : : : : : : : ..P.G.                                                ",
"                                                  m.8 : : : : : : : : : : *.                            T t.I.e.,.: : : : : : : : : : : : : : : : 8.%.                                                  ",
"                                                  ) C.: : : : : : : : : : f.-                 U.e Y.p.6 h.,.: : : : : : : : : : : : : : : : : : #.J                                                     ",
"                                                    d.: : : : : : : : : : j.9.    ` T.y.h l.J.R...7 8 : : : : : : : : : : : : : : : : : : : : f.E.k                                                     ",
"                                                    e.: : : : : : : : : : 9 P.Q ; S.7 ,.: : : : : : : : : : : : : : : : : : : : : : : : : : u w.U.                                                      ",
"                                                    W.: : : : : : : : : : : 8 8 : : : : : : : : : : : : : : : : : : : : : : : : : : : : : ..l.Q.                                                        ",
"                                                    !.: : : : : : : : : : : : : : : : : : : : : : : : : : : : : : : : : : : : : : : : : 9 k.~                                                           ",
"                                                    ~.: : : : : : : : : : : : : : : : : : : : : : : : : : : : : : : : : : : : : : : : u 1 ~                                                             ",
"                                                    / : : : : : : : : : : : : : : : : : : : : : : : : : : : : : : : : : : : : : : : M ^.%.                                                              ",
"                                                    /.: : : : : : : : : : : : : : : : : : : : : : : : : : : : : : : : : : : : : s (.).V                                                                 ",
"                                                    5 G : : : : : : : : : : : : : : : : : : : : : : : : : : : : : : : : : : C.y _.G.T                                                                   ",
"                                                    u.`.s : : : : : : : : : : : : : : : : : : : : : : : : : : : : : : 7 S.A 4.c                                                                         ",
"                                                      '.].9 : : : : : : : : : : : : : : : : : : : : : : : : : : ,.j.C ^ [.[                                                                             ",
"                                                      {.}.] i.8 : : : : : : : : : : : : : : : : : : : : : > 0.|.] 5 * =                                                                                 ",
"                                                          A.4.M.9 : : : : : : : : : : : : : : 8 ..j.>. X.XXX                                                                                            ",
"                                                            r oXo 0 : : : : : : : 8 s S < i F.OXW 4.G.                                                                                                  ",
"                                                              [ ` 5 +X@Xi./ 6 #XA OX$X%XU.                                                                                                              ",
"                                                                                                                                                                                                        ",
"                                                                                                                                                                                                        ",
"                                                                                                                                                                                                        ",
"                                                                                                                                                                                                        ",
"                                                                                                                                                                                                        ",
"                                                                                                                                                                                                        ",
"                                                                                                                                                                                                        ",
"                                                                                                                                                                                                        ",
"                                                                                                                                                                                                        ",
"                                                                                                                                                                                                        ",
"                                                                                                                                                                                                        ",
"                                                                                                                                                                                                        ",
"                                                                                                                                                                                                        ",
"                                                                                                                                                                                                        ",
"                                                                                                                                                                                                        ",
"                                                                                                                                                                                                        ",
"                                                                                                                                                                                                        ",
"                                                                                                                                                                                                        ",
"                                                                                                                                                                                                        ",
"                                                                                                                                                                                                        "
};
