/* XPM */
static char *cac1d08d8bb64f99b9b59057facc397bFkmMXHfioEs0qvyr[] = {
/* columns rows colors chars-per-pixel */
"500 500 256 2 ",
"   c None",
".  c #040302",
"X  c #0A0502",
"o  c #060905",
"O  c #0B0905",
"+  c #050609",
"@  c #0C0B0A",
"#  c #07080A",
"$  c #120501",
"%  c #130B04",
"&  c #1B0C03",
"*  c #130D0A",
"=  c #1A0B07",
"-  c #0E110C",
";  c #14110D",
":  c #1B130C",
">  c #191207",
",  c #141312",
"<  c #1B1512",
"1  c #1C1A14",
"2  c #1D1C1B",
"3  c #161718",
"4  c #0E0F11",
"5  c #240C04",
"6  c #23140C",
"7  c #28170B",
"8  c #361B0B",
"9  c #241B14",
"0  c #2B1C14",
"q  c #251B18",
"w  c #331E15",
"e  c #320D02",
"r  c #24221C",
"t  c #2C231C",
"y  c #2A2317",
"u  c #342215",
"i  c #3B2414",
"p  c #34241B",
"a  c #3B261B",
"s  c #3C291D",
"d  c #37291A",
"f  c #3A2712",
"g  c #2A2725",
"h  c #342B23",
"j  c #3C2B22",
"k  c #362924",
"l  c #3C3324",
"z  c #3C342C",
"x  c #37332A",
"c  c #3A3835",
"v  c #2F2F2E",
"b  c #202020",
"n  c #432B1C",
"m  c #4A2D1C",
"M  c #442816",
"N  c #4B321D",
"B  c #47361C",
"V  c #55351C",
"C  c #4B2A13",
"Z  c #432D22",
"A  c #4A2E22",
"S  c #442D28",
"D  c #443324",
"F  c #4C3324",
"G  c #4C3B23",
"H  c #43342B",
"J  c #4B352A",
"K  c #433A2C",
"L  c #4C3B2C",
"P  c #443A25",
"I  c #533424",
"U  c #543A25",
"Y  c #5C3A25",
"T  c #533629",
"R  c #543B2B",
"E  c #5C3C2B",
"W  c #5A3625",
"Q  c #443B33",
"!  c #4B3D34",
"~  c #463C38",
"^  c #553E33",
"/  c #522E23",
"(  c #633D25",
")  c #623E2A",
"_  c #693D29",
"`  c #6A3E30",
"'  c #572E17",
"]  c #4C412B",
"[  c #594429",
"{  c #4C433B",
"}  c #494238",
"|  c #534334",
" . c #5C4333",
".. c #53453B",
"X. c #5B4B3C",
"o. c #57493A",
"O. c #5D513B",
"+. c #64422C",
"@. c #6B442C",
"#. c #6C492D",
"$. c #664627",
"%. c #72452C",
"&. c #73492D",
"*. c #79492B",
"=. c #6A532C",
"-. c #76572D",
";. c #644432",
":. c #6B4532",
">. c #6C4A33",
",. c #664B38",
"<. c #744B33",
"1. c #7B4D33",
"2. c #754936",
"3. c #695537",
"4. c #7D5235",
"5. c #74533B",
"6. c #7C543A",
"7. c #775937",
"8. c #7A6239",
"9. c #756134",
"0. c #59421D",
"q. c #494846",
"w. c #544B43",
"e. c #5B4D43",
"r. c #544B47",
"t. c #5C5145",
"y. c #5C544B",
"u. c #55524C",
"i. c #5A5854",
"p. c #4D4F4F",
"a. c #634E42",
"s. c #635344",
"d. c #6C5B44",
"f. c #63554A",
"g. c #6C5B4B",
"h. c #685748",
"j. c #765A46",
"k. c #675D54",
"l. c #745B4F",
"z. c #786449",
"x. c #6A635A",
"c. c #746354",
"v. c #7A6554",
"b. c #7C6B5B",
"n. c #786759",
"m. c #7A6F55",
"M. c #6D6A65",
"N. c #6A6865",
"B. c #716E69",
"V. c #756C64",
"C. c #74716C",
"Z. c #7B7469",
"A. c #7A7773",
"S. c #6F706C",
"D. c #5F605C",
"F. c #3F4040",
"G. c #825435",
"H. c #83553A",
"J. c #845B3B",
"K. c #8A5938",
"L. c #94593A",
"P. c #854C34",
"I. c #87663B",
"U. c #97663D",
"Y. c #92723D",
"T. c #A5603D",
"R. c #865A45",
"E. c #975B45",
"W. c #8A5A4F",
"Q. c #A65E45",
"!. c #886746",
"~. c #976746",
"^. c #987648",
"/. c #836B59",
"(. c #867559",
"). c #997755",
"_. c #916D4E",
"`. c #A86648",
"'. c #B46A4A",
"]. c #A47A4A",
"[. c #A76A53",
"{. c #A67955",
"}. c #B97556",
"|. c #B56F51",
" X c #847363",
".X c #8C7965",
"XX c #8C7B6B",
"oX c #887767",
"OX c #927C68",
"+X c #857D76",
"@X c #867166",
"#X c #AF7A65",
"$X c #C47A58",
"%X c #CB7650",
"&X c #C47D62",
"*X c #823D28",
"=X c #B3834D",
"-X c #AB8457",
";X c #B58755",
":X c #AB824C",
">X c #96836B",
",X c #88827B",
"<X c #988776",
"1X c #938972",
"2X c #A89679",
"3X c #AC8D72",
"4X c #AA976D",
"5X c #CE835B",
"6X c #C88766",
"7X c #DE9D73",
"8X c #D89876",
"9X c #D3926E",
"0X c #E29D73",
"qX c #E49C76",
"wX c #E69A6A",
"eX c #DEA177",
"rX c #E4A379",
"tX c #EEA571",
"yX c #E78F5D",
"uX c #8B8884",
"iX c #938D87",
"pX c #99928A",
"aX c #999792",
"sX c #A89786",
"dX c #A89D93",
"fX c #B29B89",
"gX c #B7A589",
"hX c #ADA59B",
"jX c #AAA397",
"kX c #B5A89A",
"lX c #B3A98E",
"zX c #B3ACA3",
"xX c #B6ADA5",
"cX c #B8B3AA",
"vX c #B4B3AE",
"bX c #C7B89A",
"nX c #C8AD94",
"mX c #E6A882",
"MX c #F2B68B",
"NX c #C6B7A5",
"BX c #C5BCB2",
"VX c #CE9F85",
"CX c #D1C29D",
"ZX c #D4C5A4",
"AX c #CBC4B7",
"SX c #EBCBB3",
"DX c #D8D4CC",
"FX c #DDDAD4",
"GX c #DAD9D5",
"HX c #CFCBC5",
"JX c #E2DDD6",
"KX c #E4D9CC",
"LX c #E7E2DB",
"PX c #E8E6E1",
"IX c #BFC0BB",
"UX c #817F7D",
/* pixels */
"                                                                                                                                                                                                                                                                                                                                                                                                                                                                                                                                                                                                                                                                                                                                                                                                                                                                                                                                                                                                                                        ",
"                                                                                                                                                                                                                                                                                                                                                                                                                                                                                                                                                                                                                                                                                                                                                                                                                                                                                                                                                                                                                                        ",
"                                                                                                                                                                                                                                                                                                                                                                                                                                                                                                                                                                                                                                                                                                                                                                                                                                                                                                                                                                                                                                        ",
"                                                                                                                                                                                                                                                                                                                                                                                                                                                                                                                                                                                                                                                                                                                                                                                                                                                                                                                                                                                                                                        ",
"                                                                                                                                                                                                                                                                                                                                                                                                                                                                                                                                                                                                                                                                                                                                                                                                                                                                                                                                                                                                                                        ",
"                                                                                                                                                                                                                                                                                                                                                                                                                                                                                                                                                                                                                                                                                                                                                                                                                                                                                                                                                                                                                                        ",
"                                                                                                                                                                                                                                                                                                                                                                                                                                                                                                                                                                                                                                                                                                                                                                                                                                                                                                                                                                                                                                        ",
"                                                                                                                                                                                                                                                                                                                                                                                                                                                                                                                                                                                                                                                                                                                                                                                                                                                                                                                                                                                                                                        ",
"                                                                                                                                                                                                                                                                                                                                                                                                                                                                                                                                                                                                                                                                                                                                                                                                                                                                                                                                                                                                                                        ",
"                                                                                                                                                                                                                                                                                                                                                                                                                                                                                                                                                                                                                                                                                                                                                                                                                                                                                                                                                                                                                                        ",
"                                                                                                                                                                                                                                                                                                                                                                                                                                                                                                                                                                                                                                                                                                                                                                                                                                                                                                                                                                                                                                        ",
"                                                                                                                                                                                                                                                                                                                                                                                                                                                                                                                                                                                                                                                                                                                                                                                                                                                                                                                                                                                                                                        ",
"                                                                                                                                                                                                                                                                                                                                                                                                                                                                                                                                                                                                                                                                                                                                                                                                                                                                                                                                                                                                                                        ",
"                                                                                                                                                                                                                                                                                                                                                                                                                                                                                                                                                                                                                                                                                                                                                                                                                                                                                                                                                                                                                                        ",
"                                                                                                                                                                                                                                                                                                                                                                                                                                                                                                                                                                                                                                                                                                                                                                                                                                                                                                                                                                                                                                        ",
"                                                                                                                                                                                                                                                                                                                                                                                                                                                                                                                                                                                                                                                                                                                                                                                                                                                                                                                                                                                                                                        ",
"                                                                                                                                                                                                                                                                                                                                                                                                                                                                                                                                                                                                                                                                                                                                                                                                                                                                                                                                                                                                                                        ",
"                                                                                                                                                                                                                                                                                                                                                                                                                                                                                                                                                                                                                                                                                                                                                                                                                                                                                                                                                                                                                                        ",
"                                                                                                                                                                                                                                                                                                                                                                                                                                                                                                                                                                                                                                                                                                                                                                                                                                                                                                                                                                                                                                        ",
"                                                                                                                                                                                                                                                                                                                                                                                                                                                                                                                                                                                                                                                                                                                                                                                                                                                                                                                                                                                                                                        ",
"                                                                                                                                                                                                                                                                                                                                                                                                                                                                                                                                                                                                                                                                                                                                                                                                                                                                                                                                                                                                                                        ",
"                                                                                                                                                                                                                                                                                                                                                                                                                                                                                                                                                                                                                                                                                                                                                                                                                                                                                                                                                                                                                                        ",
"                                                                                                                                                                                                                                                                                                                                                                                                                                                                                                                                                                                                                                                                                                                                                                                                                                                                                                                                                                                                                                        ",
"                                                                                                                                                                                                                                                                                                                                                                                                                                                                                                                                                                                                                                                                                                                                                                                                                                                                                                                                                                                                                                        ",
"                                                                                                                                                                                                                                                                                                                                                                                                                                                                                                                                                                                                                                                                                                                                                                                                                                                                                                                                                                                                                                        ",
"                                                                                                                                                                                                                                                                                                                                                                                                                                                                                                                                                                                                                                                                                                                                                                                                                                                                                                                                                                                                                                        ",
"                                                                                                                                                                                                                                                                                                                                                                          p.p.p.p.p.p.p.i.                                                                                                                                                                                                                                p.q.q.q.q.r.q.q.                                                                                                                                                                                                                                                                                                                                                                                              ",
"                                                                                                                                                                                                                                                                                                                                                                        c * @ * * * @ @ g M.                                                                                                                                                                                                                              2 # @ @ O O o @ q.                                                                                                                                                                                                                                                                                                                                                                                            ",
"                                                                                                                                                                                                                                                                                                                                                                        c * @ @ @ @ @ # 2 N.                                                                                                                                                                                                                              , # # O o @ ; ; {                                                                                                                                                                                                                                                                                                                                                                                             ",
"                                                                                                                                                                                                                                                                                                                                                                        c , , , , 4 , , g N.                                                                                                                                                                                                                              , # o O O ; O ; {                                                                                                                                                                                                                                                                                                                                                                                             ",
"                                                                                                                                                                                                                                                                                                                                                                      ,Xp.} q.q.v < # , g N.                                                                                                                                                                                                                              , , # O q x x c u.uX                                                                                                                                                                                                                                                                                                                                                                                          ",
"                                                                                                                                                                                                                                                                                                                                                                F.c c q.C.aXaXiXN.v @ * g N.                                                                                                                                                                                                                              , @ o 1 { A.,X,XB.r.x c ~                                                                                                                                                                                                                                                                                                                                                                                     ",
"                                                                                                                                                                                                                                                                                                                                                                , # O l sXCXCXcX,Xz ; * 2 N.                                                                                                                                                                                                                              , @ o p b.kXkXlX2Xz O # @ v                                                                                                                                                                                                                                                                                                                                                                                   ",
"                                                                                                                                                                                                                                                                                                                                                              q.4 @ * z 2XbXCXcX1Xx O 4 2 N.                                                                                                                                                                                                                              , @ # y V.kXkXcX<Xl % O ; v                                                                                                                                                                                                                                                                                                                                                                                   ",
"                                                                                                                                                                                                                                                                                                                                                              q.< O % K <XNXNXxX,Xx ; 3 g                                                                                                                                                                                                                                 , @ @ h Z.kXkXxX1Xl * O ; h                                                                                                                                                                                                                                                                                                                                                                                   ",
"                                                                                                                                                                                                                                                                                                                                                              p.h y y } oXsXdXpX+Xu.c }                                                                                                                                                                                                                                   q.c v } x.iXpX<XZ.] y y t Q                                                                                                                                                                                                                                                                                                                                                                                   ",
"                                                                                                                                                                                                                                                                                                                                                        q.q.i.S.m.m.m.c.w.} { r.x.                                                                                                                                                                                                                                                u.{ { } o.h.m.m.x.x.w.p.p.p.                                                                                                                                                                                                                                                                                                                                                                          ",
"                                                                                                                                                                                                                                                                                                                                                    g @ . < q.aXgXgXlXXXp X X < i.                                                                                                                                                                                                                                                q.- O . y m.lXkXkXsXt % * , 4                                                                                                                                                                                                                                                                                                                                                                         ",
"                                                                                                                                                                                                                                                                                                                                                    2 . . % } pX2XgXgX1Xt . . , i.                                                                                                                                                                                                                                                q.# # O y m.lXlXlXsX7 X % ; ;                                                                                                                                                                                                                                                                                                                                                                         ",
"                                                                                                                                                                                                                                                                                                                                                    1 X X & ..pX4X2XgX1Xt . o , i.                                                                                                                                                                                                                                                p.@ # O y m.lXlXlX2Xd > & : :                                                                                                                                                                                                                                                                                                                                                                         ",
"                                                                                                                                                                                                                                                                                                                                                    z t u f d.2X4X4XgX>Xt . + , i.                                                                                                                                                                                                                                                p.# O O 9 z.sX2X2X4X] l D H }                                                                                                                                                                                                                                                                                                                                                                         ",
"                                                                                                                                                                                                                                                                                                                                          q.g g 2 { +XsX2X>X3X2X4X2XgXXXp X . 4 i.                                                                                                                                                                                                                                                  @ @ X > o.(.(.(.>X>XsXsXsXkXv 2 2 g g                                                                                                                                                                                                                                                                                                                                                               ",
"                                                                                                                                                                                                                                                                                                                                          v , @ O h sXlXgXgX2X2X4X2XgXXXt . . 3 p.                                                                                                                                                                                                                                                  @ @ O 9 O.(.(.(.(.<XfX2X2XgXv * @ , b                                                                                                                                                                                                                                                                                                                                                               ",
"                                                                                                                                                                                                                                                                                                                                          g ; O > p sXlXgXgX4X4X2XgXgXXXt O . , i.                                                                                                                                                                                                                                                  @ . . : .. X(.(.(.2X2X2X2XgXk * O ; q                                                                                                                                                                                                                                                                                                                                                               ",
"                                                                                                                                                                                                                                                                                                                                          g * % % s sXgXgX2X2XnXfXgXlX,Xr . o 3                                                                                                                                                                                                                                                     @ O O r w.XXb.b..X<X2X2X2X2Xh O % O ;                                                                                                                                                                                                                                                                                                                                                               ",
"                                                                                                                                                                                                                                                                                                                                          w.h y u  .sXlXgXnX2X>X2X<XpXZ.{ v g                                                                                                                                                                                                                                                       c g v z { x.n.x.n.1XgX2X2X4X| l h h c                                                                                                                                                                                                                                                                                                                                                               ",
"                                                                                                                                                                                                                                                                                                                                  ~ c z { Z.1X1X.X>XbXbXCXbX<X] p u p r.                                                                                                                                                                                                                                                                    r.2 : : u (.gX2X4X4XfXlXdXjXjXk.h g v p.                                                                                                                                                                                                                                                                                                                                                    ",
"                                                                                                                                                                                                                                                                                                                                p., * < Q <X2X2X2X2XZXCXZXbX>Xf $ & % ~                                                                                                                                                                                                                                                                     i.. X * 7 .X2X2X4X4XbXNXNXAXBXr.1 O ; c                                                                                                                                                                                                                                                                                                                                                     ",
"                                                                                                                                                                                                                                                                                                                                q., , < Q 1X2X3X3X2XbXZXZXbX1Xy # # # q.                                                                                                                                                                                                                                                                    i.X . O 9 XXgX2X4X4XbXbXbXCXNXO.: * , v                                                                                                                                                                                                                                                                                                                                                     ",
"                                                                                                                                                                                                                                                                                                                                q., 4 , K 1X2X2X3X2XbXZXZXNX1Xt # # # q.                                                                                                                                                                                                                                                                      # o O 9 XXgX2X4X4XnXbXCXZXZXs.< * , v                                                                                                                                                                                                                                                                                                                                                     ",
"                                                                                                                                                                                                                                                                                                                                q., , < K 1X2X2X4X2XCXZXZXNX1Xp @ # @ q.                                                                                                                                                                                                                                                                      # X O 9 >XgXgX4X4XbXCXCXZXZXt.1 * 3 v                                                                                                                                                                                                                                                                                                                                                     ",
"                                                                                                                                                                                                                                                                                                                                q., ; < K 1X2X2X3X2XZXZXZXNX1Xp @ @ 4 q.                                                                                                                  u.p.u.u.u.p.p.p.p.p.q.p.p.p.p.p.p.p.p.p.r.                                                                                                          # X O 0 1XgXgX4X4XbXCXZXZXZXs.9 * , v                                                                                                                                                                                                                                                                                                                                                     ",
"                                                                                                                                                                                                                                                                                                                                q.; , : K 1X2X2X2X2XZXZXZXZX<Xh @ @ , q.                                                                                                              q., , , , 3 , , , , , , 4 4 4 4 4 4 4 4 4 o @ @ v                                                                                                       # X O 0 1XgX2X4X4XbXCXZXZXZXh.9 ; 1 c                                                                                                                                                                                                                                                                                                                                                     ",
"                                                                                                                                                                                                                                                                                                                                } ; ; : z 1X2X2X2X2XZXZXZXZX<Xh , , , q.                                                                                                              c # # @ @ # # # # # @ # # # # # # o o o o . . . g                                                                                                       O O O y 1XgX2X4X4XbXCXZXZXBXs.9 % < x                                                                                                                                                                                                                                                                                                                                                     ",
"                                                                                                                                                                                                                                                                                                                                } ; < < K 1X2X2X2XsXZXZXZXCX<Xh , , , q.                                                                                                              q.@ + + + # # @ @ O @ @ * O o O O O o o o O O o x                                                                                                       @ o % y <XgX2X4X4XbXZXZXZXZXh.y : ; x                                                                                                                                                                                                                                                                                                                                                     ",
"                                                                                                                                                                                                                                                                                                                                w.r g h o.<XgX2XsXgXZXZXZXCX<Xh , , , q.                                                                                                              c @ o # 4 1 2 q q q q r r t t h h x h h g g g v }                                                                                                       @ o % y <XgX2X4X4XbXCXZXZXZXz.l p p c                                                                                                                                                                                                                                                                                                                                                     ",
"                                                                                                                                                                                                                                                                                                                        q.q.} u.y.x.x.x.oXlXbXbXbXZXZXZXZXZX<Xh , , , q.                                                                                                        i.  c 2 # # . 2 x { { } { y.y.y.f.k.V.+XoXoXZ.+XZ.A.+Xx.q.q.p.r.                                                                                              @ o % y 1XgX2X2X2XbXCXZXZXbX>Xm.c.x.x.y.i.i.i.                                                                                                                                                                                                                                                                                                                                            ",
"                                                                                                                                                                                                                                                                                                                      r . o @ g x.oXZ.oX<XbXZXZXZXZXZXZXZXCX<Xh , , , q.                                                                                            4 4 4 , @ # @ # @ o X o . b { f.x.k.x.Z.oX X X>XsXlXjXjXdXjXhXzXhXC.g O o o # @ @ @ 3                                                                                     @ O % y 1XgXgX2X2XCXCXCXZXZX2X>X>X1XZ.z > @ 4 v                                                                                                                                                                                                                                                                                                                                           ",
"                                                                                                                                                                                                                                                                                                                      r . . o v c. XoXXX<XbXZXCXZXZXZXZXZXNX1Xh , , , q.                                                                                          F.# @ o o X X X . X O O X o g { y.k.f.x.b. X Xb.oXsXdXdXdXdXlXjXhXhXZ.r . . o # # # o @                                                                                     @ O % y <XlXgXgXgXbXCXCXCXCX2X>X>X>X>Xl O O @ g                                                                                                                                                                                                                                                                                                                                           ",
"                                                                                                                                                                                                                                                                                                                      r . . . v g.Z.Z. X1XbXCXCXZXZXZXZXZXNX1Xh , , , q.                                                                                          ~ * ; * % % = = O O X X X O q { y.f.y.x.b.oX Xb.oX2XfXsXsXsXdXjXhXjXZ.t O O o # o @ # # p.                                                                                  @ o O y <XlXgXgXgXCXCXCXCXCX2X>X>X(. Xl O O @ g                                                                                                                                                                                                                                                                                                                                           ",
"                                                                                                                                                                                                                                                                                                                      r . . . v d.(. X X1XbXZXCXCXZXZXZXZXNX1Xp 4 4 , q.                                                                                          Q 6 6 6 6 6 5 5 5 6 5 6 6 6 0 x z z K ..g.n.c.g.c. XXXXX>XXX1X,X1X,Xn.h 1 1 q , . # o o q.                                                                                  @ O % y <XkXlXgXnXCXZXZXZXCX2X>X>X>X.Xl % . o g                                                                                                                                                                                                                                                                                                                                           ",
"                                                                                                                                                                                                                                                                                                                      g o . o g d.m.m.(.1XbXCXCXCXZXZXZXZXNX1Xp 4 4 , q.                                                                          i.i.        i.^ j p j s a a a w M n a a a a w 1 < : 1 p { t.X.X.o.s.s.s.f.s.f.g.g.x.y.~ ~ Q c v , # o o g q.p.i.i.i.i.                                                                      @ O % t sXZXNXbXbXCXZXCXCXbX2X>X>X.X Xl % X o g                                                                                                                                                                                                                                                                                                                                           ",
"                                                                                                                                                                                                                                                                                                                      r . . o g 9.m.m.(.1XbXCXCXCXZXZXZXCXbX1Xt 4 4 4 q.                                                                        , @ @ @ @ @ , , 5 a J T T I I I / I I / I T J n , @ X O < z ..} ..! ....| ......o.o.o.o.y.k.i.y.c < # X o ; , ; , , , , , , , q.                                                              @ @ ; h jXAXZXZXZXZXZXZXZXbX2X>X>X>XoXl O . # g                                                                                                                                                                                                                                                                                                                                           ",
"                                                                                                                                                                                                                                                                                                                      g . . O g 9.m.m.m.>XbXCXCXCXZXCXZXbXbX1Xt 4 4 4 q.                                                                        , # # # # # # # 5 n F F I I I / / / / I I I A w , @ X O < z ......! ..........w.o.o.t.t.y.y.u.i.~ 2 @ X o # # ; , @ , @ @ # , q.                                                              @ - ; x jXSXZXZXZXZXZXZXZXbX2X(.(..XoXl O O # g                                                                                                                                                                                                                                                                                                                                           ",
"                                                                                                                                                                                                                                                                                                                      g X . O g g.m.m.m.>XnXCXCXbXbXCXNXZXbX1Xu > % > {                                                                       w.: = $ % % $ % * e M I I V V V V V V V V V V V 8 5 5 $ $ q c q.q.} ~ ....} ..o.e.e.e.s.s.f.f.k.i.} 1 O o % % & 5 < : < * * * * Q                                                             x.9 9 7 l lXZXZXZXCXZXZXCXCXCX4X>X(..X Xl O . o g                                                                                                                                                                                                                                                                                                                                           ",
"                                                                                                                                                                                                                                                                                                                      g X . o g g.m.m.(.>XnXbXbXbXbXZXNXNXbX2Xo.K K } i.                                                                      { 9 : : : : : > < 8 m Y Y Y ( ( ( ( ( _ @.$.@.@.V w 8 7 9 t h x x x z { ......e.f.k.k.c.c.b.V.Z.V.u.r O O % 6 u a j s j u u t t }                                                             C.w...o.s.lXZXZXZXZXZXCXCXCXCX4X(.(..X Xl O . o g                                                                                                                                                                                                                                                                                                                                           ",
"                                                                                                                                                                                                                                                                                                                      g o . O g g.m.m.(.>X2XgXgXgXnXbXbXCXbXlX>XoX,X,XV.i.p.i.                                                i.p.p.p.p.q.q.~ k k k h k p p p j m ) :.:.@.&.<.<.*.*.1.H.R.!.!.4.T F Z H k q 1 < ; q Q ......w.k.b.Z. XoX<XsXdXdXC.x ; O $ u ! X.;.;. .[ E | | ..y.                                                    i.i.k.Z.pX<X<X<XbXZXZXZXZXCXbXCXCXCX4X(.(..X Xl O . # g                                                                                                                                                                                                                                                                                                                                           ",
"                                                                                                                                                                                                                                                                                                                      g o o O v g.(.m.(.(.2X2X2X4XnXbXbXCXbXbXfXdXjXdXZ.h * , 2                                           v , 4 , @ # @ O O : t z j Z Z Z Z Z F I ) :.>.<.<.<.1.*.*.1.K.~.~.~.J.;.E R L j : X . . 1 Q w.....e.x.b.oX XXXlXkXxXcX,Xx ; * % p o.s.<.<.<.<.2.,.a...6 @ # # + 4 # 4 , 3                                 1 1 ; h V.kXlXlXgXkXZXZXZXZXCXbXCXCXCX4X(.(.(. Xl O . # g                                                                                                                                                                                                                                                                                                                                           ",
"                                                                                                                                                                                                                                                                                                                      g o o O h z.(.m.m.(.2X2X2X4XVXbXbXCXbXbXgXlXlXsXZ.t % , 1                                           v @ o o X X X X X : t j j Z Z m m M m / _ :.2.<.1.*.*.*.*.1.K.~.~.~.H.@.Y U R Z 6 X X . 9 Q w.w...e.V./.oX XXXlXNXxXcXuXz : > = p  .a.&.<.&.1.2.2.a.^ 9 X # + + # + . 4 4                                 , % * l Z.dXlXfXgXlXZXZXZXZXCXCXCXbXCX>X(.(.(. Xl O . # g                                                                                                                                                                                                                                                                                                                                           ",
"                                                                                                                                                                                                                                                                                                                      g o o @ x c.(.(.(.).2X2X4X4XVXCXbXCXbXbXgXsXfXsXm.t % ; 1 q.                                        v @ O X O O O O $ : w Z Z n m m m m C W _ :.2.1.*.*.*.*.*.G.K.~.~.~.K.@.( W U n 6 $ $ X 1 z q.r...r.V.(.oX X.XlXNXxXNX<XQ > & & p o.h.>.<.&.1.<.2.2.E 5 X X . . o O O @ ,                                 ; O > l oXlXgXgXgXlXZXZXZXZXCXCXCXbXbX>X(.(.(. XP O . o g                                                                                                                                                                                                                                                                                                                                           ",
"                                                                                                                                                                                                                                                                                                                      g o o @ v z.(.(.(.).2X4X2X2X2XbXbXCXCXbXgXgXlXfX>X| d x x r.                                        x : * > & > > > = 0 p j n n m V V V V ( _ @.%.*.*.*.G.P.P.G.L.U.~.~.K.*.%.@.+.F 8 = > < g x c ~ Q { n./.(.(..XlXNXNXNXsXk.! K K ! ..! I I Y ;.2.2.2.` 8 7 6 : & X $ $ o ,                               i.g t d ] >XlXfXgXgXnXZXZXZXZXbXbXnXnXnX>X(.(.(. XP O . # g                                                                                                                                                                                                                                                                                                                                           ",
"                                                                                                                                                                                                                                                                                                                      g o X @ v z.(.(.(.).2X2X4X4X2XCXCXbXbXbXbXlXbXlXsX1XXXoXA.x.r.c c q.F.F.q.} q.} q.F.F.F.F.c c c c z k h t 0 0 u p u w s Z Z Z m I ) @.@.@.` &.&.%.*.1.G.L.U.L.U.~.~.~.~.U.L.K.R.R.>.I n j k h t 1 9 q x k.(.oX(..XgXNXNXNXxXdXdXsXpXZ.! 0 6 6 i I ) %.` ` ( W T L Z & $ X * . c q.q.q.q.q.q.q.q.        q.u.k.x.x.c.(.lXlXbXbXgXbXZXZXZXZX2X2XgX2XgX>X(.(.(. XK O . o g                                                                                                                                                                                                                                                                                                                                           ",
"                                                                                                                                                                                                                                                                                                                      g o X @ v z.(.(.(.).2X2X2X4X2XCXCXCXbXCXCXCXCXCXbXlXlXlXjXZ.x @ O # o # # # @ # o # # + + . o X O < k H H n Z D Z Z Z Z Z n n M I +.>.&.&.:.&.@.%.%.*.I.~.~.~.U.U.U.U.U.U.~.~.~.!.6.+.R ^ ! z : O O O r k.(..X X.XlXNXNXNXNXNXNXNXNX<X! & X $ 6 Z ) ) _ %.H.R.R.j.h.7 % O X X # . 4 # # # # o @ @ O # @ @ h V.pXpX2XsXlXZXZXCXZXbXZXZXZXZX2X2X2X4X2X>X(.(.(. XP % O o g                                                                                                                                                                                                                                                                                                                                           ",
"                                                                                                                                                                                                                                                                                                                      g o X @ v z..X(.(.>X2X2X2X2X2XCXCXCXCXCXCXCXCXCXbXlXlXdXsXV.d O O O O o o o # o o o o . . . X O X > p Z Z m m Z m Z m n M n m M V ) :.:.@.:.:.@.@.@.*.I.~.~.~.U.U.U.U.U.U.~.~.~.~.6.+.U R ! H < O O O r k.(..X XXXkXNXNXNXNXNXNXcXcX<XK = # O 6 D  .+._ %.P.K.R.R.j.7 $ % $ X O . # . + o o o o X O @ @ # h Z.pX<X2X2XbXZXZXZXZXCXZXZXZXZX2X2X2X2X2X>X(.(.(. XP % O o b                                                                                                                                                                                                                                                                                                                                           ",
"                                                                                                                                                                                                                                                                                                                      g o X @ v z.(.(.(.>X2X2X2X2XgXCXCXCXCXCXCXCXCXCXbXgXfXsXpXn.y O O O X X O X o X o o X . X . X O X > p Z Z m m m m m n M M M m m V ) :.:.:.@.:.@.@.@.&.K.~.~.~.U.U.U.U.U.U.~.~.~.U.G.$.V U J H > O O O r k.(..X.X>XkXNXBXAXNXNXNXxXxX,XQ % # O 6 D  .+.$.%.G.L.R.R.,.6 O O $ X X X o . o # o O X X . @ - # h Z.<X<X2X2XnXZXCXCXZXbXZXZXZXZX2X2X2X2X2X>X(.(.(. Xl O o o b                                                                                                                                                                                                                                                                                                                                           ",
"                                                                                                                                                                                                                                                                                                                      g o o * x z.(.(.(.(.>X1X>X3X2XbXbXbXbXbXbXZXZXCXbXlXlXlXsXoX| d d d t y 9 < 1 < < 1 : : < 9 r y t y u p p i i M m n M m V I W V W +.:.:.>.@.@.@.@.$.&.K.~.~.~.U.U.U.U.U.U.~.~.~.U.K.*.$.+. .L 6 O O % r x.(..X.XXXpXsXdXdXsXlXlXjXjX+Xc * X O 6 D  .+.$.%.P.K.H.R.,.w 7 7 7 7 % X o o # 2 q q q y ; O @ # l oXsXsX2XgXbXCXCXCXZXbXbXbXCXCX2X4X2X4X4X(.(.m.(. Xz O o # b                                                                                                                                                                                                                                                                                                                                           ",
"                                                                                                                                                                                                                                                                                                                      g # o * x z.(.m.m.(.(.(.(.(.>XgXgXgXgXbXCXZXZXZXZXbXNXNXbXlX1XoXXXoXZ.k.{ } } } } } Q Q { y.y.y.y.! 0 > & & 7 p n M M I E +.@._ _ @.:.@.:.@.@.@.@.$.&.K.!.~.~.U.U.U.U.~.~.~.~.~.U.U.K.K.R.j.,.0 % % * r i.oX.X.X Xn.c.g.g.c. XXXXX,Xx.g O O O 6 Z  .+._ $.%.*.1.2.2.+. . . . .6 X O o ; c w.w...w.t O # - l ,XkXkXlXbXCXZXZXZXbXgXgXgXgXgX>X>X).(.>X(.m.m.m. Xl O X o b                                                                                                                                                                                                                                                                                                                                           ",
"                                                                                                                                                                                                                                                                                                                      g o o * x z.(.m.m.m.(.(.(.m.(.2XsXgXgXbXZXZXZXZXZXZXZXZXZXkXsXsXsXsX<Xb.s.t.t.t.e.e.o.X.t.V.Z.Z.Z.y.q % O $ > u j M M I +.@.@.@.@.@.@.@.:.@.@.@.@.$.&.K.!.~.~.U.U.U.U.~.~.~.~.~.U.U.U.~.~._.d.u % % * r i.oXXXXXZ.s.| | | d.b..XXXXXx.x ; O X 6 Z  .+.( $._ %.%.@.2.6.R.R.j.v.0 $ % O ; r.x.x.x.n.x O o 4 K 1XNXCXCXCXCXZXZXZXbXgX2X2X2X2X(.(.(.z.(.z.m.m.m. Xl O X o b                                                                                                                                                                                                                                                                                                                                           ",
"                                                                                                                                                                                                                                                                                                                      g o o ; x z.(.(.(.(.(.(.(.(.>X2XgXgXgXbXZXZXZXZXZXZXZXZXZXbXgXfXsXsX2X Xg.h.h.s.s.s.X.O.s.n.Z.Z.+Xk.r * O O < p Z n M V ) @.@.@.@.@.@.@.>.@.@.@.@.@.&.K.!.~.~.~.~.~.~.~.~.~.~.~.U.U.U.U.~._.d.u % % * r i.oXoX.X Xs.o.o.o.s.b..X.XoXk.g O X O 6 Z  .+._ @.@.@.@.@.%.K.L.L.!./.8 & % % ; r.x.n.n.V.x O o @ P <XNXCXCXCXCXZXCXCXbXgX2XgX2X2X(.(.(.z.(.z.m.m.m. Xz % o # g                                                                                                                                                                                                                                                                                                                                           ",
"                                                                                                                                                                                                                                                                                                                      g # # ; x z.(.(.(.(.(.(.(.m..X2XfXgXgXbXZXZXZXZXZXZXZXZXZXbXgXsXfXfX2X(.d.g.g.s.s.s.,.O.s.b.oX+X+Xi.q @ . X : t Z Z n I +.@.%.%.%.%.@.@.@.@.@.@.@.@.&.K.~.~.~.~.~.~.~.~.~.~.~.U.U.U.U.~.~._.d.u & % % r i.oXoXoX Xe.| | | d./..XXXXXx.h O X X 6 Z  .;.+.@.@.+.@.%.*.L.L.T.!./.8 & X O < r.x.V.n.V.j % o @ P <XNXbXbXbXCXCXCXZXNXgX2X2X2X4X(.(.m.z.(.(.m.(.m. XK % o # g                                                                                                                                                                                                                                                                                                                                           ",
"                                                                                                                                                                                                                                                                                                                          c q.p.x.k.x.k.c.m.(.(.(.>X4X2X2X2XgXbXbXCXCXCXZXZXCXZXbXlXgXgXgX2X>X(.(.(.v.s.e.e.,.g.oX<X1X<Xn.q * # X : p Z m m V _ %.%.@.@.@.@.#.#.@.@.@.@.@.<.6.J.J.J.I.~.U.U.U.U.U.U.~.~.U.U.U.U.^.5.u ; @ 4 r u.n./.b.c.s.a.X.,.j.(.oX.XXXx.v O # X > Z ;.@._ *.%.$.%.@.%.1.R.H.R.R.8 e e 7 0 ! e.e.f.y.Q t y y o.XXsXpX<X2XlXCXCXbXbX2X2X2X2X2X(.(.m.(.(.c.h.x.k.x.q.c q.                                                                                                                                                                                                                                                                                                                                              ",
"                                                                                                                                                                                                                                                                                                                                { x h l o.m.(.(.(.(.>X>X>X>X2XgXgXgXlXbXbXCXCXCXbXbXlXnXbXlXgXfXgXsX>Xg.s.X.X.c.<XlXlXkX+Xh * + O : p Z m m V _ @.@.@.@.@.@.#.#.@.@.@.@.@.@.&.<.&.1.G.I.U.U.U.U.U.U.~.~.~.~.U.~.~.7.u % O @ 1 { h.g.g.g.c.n.n.b.(.OXOXXXXXx.g O # X 6 F ;.:._ _ $._ @.@.@.<.1.<.&.2.W I F F s j t 0 t H { t.y.y.s.s.t.w.o.d.1XnXnXnXgX>X>X>X>X>X(.(.m.(.m...l h t c                                                                                                                                                                                                                                                                                                                                                     ",
"                                                                                                                                                                                                                                                                                                                                } * O > l m.(.(.(.(.(.>X(.(.>X2XgXgXgXgXbXCXZXZXCXCXCXNXCXbXbXNXNXNX2Xc.e.X.X.c.2XkXbXNX,Xh * + O : p Z m m V _ @.@.@.@.@.@.#.#.#.#.@.@.@.@.@.@.@.%.1.K.~.~.U.U.~.~.~.~.~.`.`.~.~.6.i % O @ : ~ X.s.s.f.b.oX.X.X(..X.X.XoXk.h O . X > Z E ;.@.@.@.$.@.@.$.@.%._ _ ` _ ;. . .| 0 = % $ 0 w.n.b.b.c.} t t u P (.lXgX2X2X>X(.(.(.(.(.(.(.(.m.l > % > g                                                                                                                                                                                                                                                                                                                                                     ",
"                                                                                                                                                                                                                                                                                                                                q.O O % l m.(.(.>X(.(.(.(.(.>X2XgXgXgXgXbXCXCXCXCXZXZXZXZXZXZXZXNXNX2Xg.X.X.X.c.<XkXbXNX,Xk * # O : p Z m m V _ @.@.@.@.@.@.#.#.#.#.@.@.@.@.@.@.@.@.4.K.~.~.U.~.~.~.~.~.~.`.`.~.~.j.i % O O : ~ s.s.s.f. XXXXX.X.X.X.X.XXXk.h O O X 6 H  .;.:.@.@.@.@.@._ _ @.%.%._ @.) E ;.,.0 % % O 9 w.V.V.Z.c.! t t y K >XgX2X2X2X).(.(.(.(.(.(.(.(..Xl % O ; g                                                                                                                                                                                                                                                                                                                                                     ",
"                                                                                                                                                                                                                                                                                                                                q.o * * d m.(.(.(.(.(.).(.>X4X2X2XgXgXgXbXCXCXCXbXZXZXZXZXZXZXCXbXNXsXg.X.e.X.c.2XkXbXNX,Xh * @ O : p Z m m V ( @.@.@.@.#.#.@.@.@.@.@.@.@.#.#.@.@.@.1.K.~.~.~.~.~.~.~.~.~.`.`.~.~.6.8 $ % O : Q X.t.t.s. XXXXX.XOXOX.X.X.Xk.h % X O 9 H | E R E _ @.@.@.@._ %.*.@.@.@._ +.;. .0 O % X 1 w.V.Z. Xg.K t t y P >XgX2X2X2X(.(.(.(.(.(.(.(.(..Xj % % ; g                                                                                                                                                                                                                                                                                                                                                     ",
"                                                                                                                                                                                                                                                                                                                                q.# O * l b.(.(.(.(.(.(.(.).>X4X2X2X2X2XgXgXgXnXnXbXbXbXbXbXbXbXbXbX2Xg.X.X.X.g.<XgXlXkXXXh * X O : p Z m m V ( @.@.@.@.#.@.@.@.@.@.@.@.@.@.#.#.@.@.&.G.K.K.K.I.U.~.~.~.~.~.~.~.~.j.i 6 6 > 6 k H Q K ! b.XXXX.X.X.X.X.X.Xb.e.H x x x j j a i n E +.@.@.@.@.@.%.@.@.@.@.:.;. .w % % O : { n.n.v.k.x 9 9 9 j m.2X2X4X3X(.(.(.(.(.(.(.(.(.oXl % * , g                                                                                                                                                                                                                                                                                                                                                     ",
"                                                                                                                                                                                                                                                                                                                                q.- O * l b.(.(.(.).(.(.(.(.>X>X).>X>X>X>X>X>X>X2XgXnXnXgXgXnXgXgXgX<Xd.o.o.o.h.(.<X<XpXb.t % X $ : p s M C V ) @.@.@.@.@.#.@.@.#.#.@.@.@.#.@.#.#.@.&.*.*.*.*.4.I.~.~.~.~.~.~.~.~.R.m i p u u w 9 9 9 t c.oXXX.X.XOX.X.XOX<X<X<X,XiXV.H 6 & & 7 J  .+.) @.@.@.@.@.@.@.@.@.;. .u % O o > } k.g.j.o.t % ; * y 3.>X>X(.(.(.(.(.(.(.(.(.(.(. Xx * * , g                                                                                                                                                                                                                                                                                                                                                     ",
"                                                                                                                                                                                                                                                                                                                                q.- # ; x b.(.(.(.(.(.(.(.(.(.(.(.(.(.(.(.(.(.).>X2XgXgXgXgXgXgXgXgX>Xd.o.o.o.s.n..X.X1Xc.y * @ $ : p n M M V ) :.@.@.@.@.#.@.@.#.@.@.@.@.@.@.@.@.@.@.&.%.@.%.*.K.~.~.~.~.~.~.~.~.!.Y N F D j 6 O O O > k.oXXXXXOXOX.X(..XsXkXNXcXBXiXK = X $ 5 J  .;.) +.@.@.@.@.$.@.%.@.:.,.w % O O < z e.,.,.} t % O O 7 O.m.(.m.(./.(.(.(.(.(.(.(. XZ.x ; * @ v                                                                                                                                                                                                                                                                                                                                                     ",
"                                                                                                                                                                                                                                                                                                                                q.# - ; x Z.Z.(.(.(./.).(.(.(.(.(.(.(.(.(.(.).).>X2XgXgXgXgXgXgXgXgX>Xd.| X.o.,.n..XXX1Xx.t O @ $ = p n n C V ) ;.:.;.@.@.@.@.@.#.#.@.@.@.@.@.#.@.@.@.@.@.@.%.1.I.~.~.~.~.~.~.~.~.J.( V N F D 6 O O O > h..XXX.X.X.XOXOX.X2XkXkXxXNXiXQ % O O = H  .;.) @.@.@.@.$.@.@.%.@.@.,.w % O O ; K o.a.,.} q O * O : O.(.m.(.(.(.(.m.m.m.(.(.(. XoXx < @ , g                                                                                                                                                                                                                                                                                                                                                     ",
"                                                                                                                                                                                                                                                                                                                                p.3 - , x n.b./.(.(.(.(.(.(.(.(.(.(.(.(.(.(.).).>X2XgXgXgXgXgXgXgXgX>Xd.| X.o.s.b..X>X>Xx.t O O $ & p s n M V Y +.;.;.+.:.@.@.@.#.#.@.@.@.@.#.@.#.@.@.&.%.%.%.1.I.~.~.~.~.~.~.~.~.J.( V V F Z 6 O O O > h..X.X.XOXOX.X(.oX<XlXkXkXNXiXQ % X O > H  .;.+.@.@.@.@.$.@.@.%.@.@.,.w & O O > z ..e.e.} q O @ O < O.m.(.(.(.(.(.m.m.m.m.m.b.Z.Z.z < < 3 v                                                                                                                                                                                                                                                                                                                                                     ",
"                                                                                                                                                                                                                                                                                                                                    q.q.w.f.k.g.d.z.(.(.(.(.(.(.(.(.(.(.(.(.(.).>X2X2X2X2X2X2X2X2X2X>Xd.o.o.o.a.b.XXXX>Xx.t O o O & p s n M m I E Y Y ) @.@.@.@.@.@.@.@.#.#.#.#.>.#.@.&.&.@.%.<.K.K.U.U.L.U.I.R.K.4.( V V I D 6 # o O : g..X.X.X.X>X<X>X<X2XsXsXfXkX,XQ @ . O > H  .;.) @.@.@.@.@.@.@.%.@.@.>.i 6 > : < x Q ! ! h < o @ O 9 O.m.m.(.(.(.(.b.m.m.h.s.y.x.x.u.} q.q.                                                                                                                                                                                                                                                                                                                                                      ",
"                                                                                                                                                                                                                                                                                                                                          z h p d G (.(.(.(.(.(.(.(.(.(.(.(.(.(.).>X>X>X>X>X>X>X>X>X(.s.o.o.o.a.n.oXXXXXx.y O X X & u j a M m A A I / W +.@.@.@.#.#.#.@.#.#.#.#.#.@.@.%.&.%.%.<.1.G.G.G.G.G.G.4.4.&.( ( V I D 6 # o O > h..X.X.X>XsXfXfXgXfX2X<X<XsXZ.x O . O : H  .;.@.@.@.@.@.@.@.@.@.@.:.>.m i u t y y r 9 9 < @ o # O q O.Z.(.(.(.(.(.(.m.(.l t y r x                                                                                                                                                                                                                                                                                                                                                               ",
"                                                                                                                                                                                                                                                                                                                                          g * * % u m.(.(.(.(.(.(.(.(.(.(.(.(.(.(.).(.(.(.(.(.(.(.(.v.,.| o.o.a.n.oXoXXXk.r O . X & u j a M M n M m M I ) :.@.@.@.@.#.#.#.#.#.#.@.@.@.&.&.%.%.*.*.*.*.*.*.*.<.<.<.%.( W V I D 6 # o O : h..X.XOX<XgXkXkXnXgX<XOXXX1Xn.h O O O : D ;.;._ @.@.+.+.@.@.@.@.@.:.>.I m Z j k 6 % X O o X + + . 1 o.m.m.(.(.(.(.m.m.(.9 X X O ;                                                                                                                                                                                                                                                                                                                                                               ",
"                                                                                                                                                                                                                                                                                                                                          g ; ; % t b. X(.(.(.(.(.(.(.(.(.(.(.(.(.(.(.(.(.(.(.(.(.(.v.,.o.o...s.n.oX.XXXk.r X . X & u j a n n M M M n / E :.:.@.@.@.#.#.#.#.#.#.&.&.&.&.<.*.*.*.*.*.*.*.*.*.<.<.<.%.( W W I H 6 # o O : g..X.XOX<XgXNXbXbXgX<XOXXXXXc.h - o X > F ;.@._ @.@.+.+.@.@.@.@.@.@.>.I m A H j : X . o . X o o . : o.Z.m.(.(.(.(.m.m.(.1 . . o ;                                                                                                                                                                                                                                                                                                                                                               ",
"                                                                                                                                                                                                                                                                                                                                          g , ; > t c.(.(.(.(.(.(.(.(.(.(.(.(.(.(.(.(.(.(.(.(.(.(.(.v.,.X.o...a.n. X XoXk.r X . X & u j a Z n n n n M A Y +.+.@.@.@.@.%.&.&.@.@.@.#.<.<.*.*.*.<.2.<.*.*.*.*.2.2.2.%.( W V I S 6 # X O : g..X.XOX<XlXkXkXkXfX<XOXXX>Xc.x - o X 6 F ;.@._ @.@.+.+.@.` @._ @.@.@.I M m Z z < O . # . o . + o < } m.m.m.m.m.m.m.m.(.r @ o @ 1                                                                                                                                                                                                                                                                                                                                                               ",
"                                                                                                                                                                                                                                                                                                                                            x x x c x.c.d.d.z.7.8.z.z.z./.(.(.(.(.(.(.(.(.m.z.z.z.z.d.,.X.o...e.g.b.b.Z.y.q . . X & u j s Z n n n n M m E ) ( ( @.@.@.@.%.@.@.@.@.@.<.%.%.%.*.*.2.<.*.*.*.*.<.2.2.@.' V V I S < # o O : g.XX.XOX<XsXfXsXsX2X>XOXXX>Xc.x - . X 6 F ;.@._ @.@.+.+.;.` @._ @.+.+.V m m Z S < X . o . o . . . * z d.3.3.3.3.d.d.d.z.v v v v                                                                                                                                                                                                                                                                                                                                                                 ",
"                                                                                                                                                                                                                                                                                                                                                    } v x x g x g x l K z.(.(.(._.(.(.(.(.d.] L | | o.o.o.o.X...y.f.f.k.Q < O . X = t j Z n M M M M C m m N F F W _ :.:.@.&.&.%.%.%.%.%.%.%.%.&.*.*.<.*.*.*.%.&.:.+.W I F F a 5 o X O : k.XXXXXXoXv.c.c.c.b.oXXXOX>Xc.h O . O > F +.@._ _ %.%.@.$.$.$.$.+.:.+.I m Z H k < X . # o o . . . @ , g g g g g g g g v                                                                                                                                                                                                                                                                                                                                                                         ",
"                                                                                                                                                                                                                                                                                                                                                    c @ O O O O - - % y d.(.(.(.(.(.(.(.(.,.d 0 i s J | | o.......w.r.r.z ; O X O > u j Z n M n M M M M M M n m V ( @.@.@.@.@.@.@.%.@.@.@.@.%.%.%.*.%.%.%.%.%.@.@.) I I F F s 5 # o O : k.XX.XXXv.,.| | | h.Z.oXOX>Xc.x @ . O > F E @._ _ @.@._ $.@.@.+.+.@.+.I m Z Z k : O X X o . . . . . . . . . X X X o o o                                                                                                                                                                                                                                                                                                                                                                         ",
"                                                                                                                                                                                                                                                                                                                                                    x @ o O O o O O O y s.(.(.(.(.(.(.(.(.,.s 7 0 u D | o.X.o.......w.w.x ; o X O : p z Z j s n n n n n n n n n V ( :.>.:.&.@.@.@.&.%.%.@.:.@.<.&.&.<.<.%.@.@.@.+.) I A A F s 5 # o O : k.XX.X.Xv.X.| L L s. XXX.X>Xx.h - o O : D [ ;.@.@.@.;.;.@.@.@.@.+.@.+.I m Z D d : O . X o o o . . . . . . . . . . o . o                                                                                                                                                                                                                                                                                                                                                                         ",
"                                                                                                                                                                                                                                                                                                                                                    x ; o o O - @ o O y t.b. X(. X(.(. Xb.t.x y u p D ! | ......w.q.r.r.z 1 @ o O < h l l j j j Z Z Z Z Z Z D S V E >.>.>.:.:.:.:.:.:.:.:.:.>.>.>.:.>.>.:.@.;.+.+. .T F Z S j 6 # o O : g.XXoXoXn.,.| | | s. X.XXX>Xx.h @ # o ; H | ;.;.;.;.;.,.+.+.+.+.+.;.E J n Z Z p : O . . . . . . . . . X . X o @ @ @ @ @                                                                                                                                                                                                                                                                                                                                                                         ",
"                                                                                                                                                                                                                                                                                                                                                            } } q.q.} w.r.y.f.s.s.s.f.k.t.{ l h l j H ! ......{ ~ z c c g , # # * < t h h h p p p p p p p k k k M F I R R T T T T T T T R R R R R R R T T I F F F Z s s j k p : # o O : g..XoXoXb.d.,.X.X.c.oXXXXX1Xx.h @ # + * h H J F F J L ! G J I J F F D d u u t q ; X . o o . . . . # g v v x c c c c c                                                                                                                                                                                                                                                                                                                                                                           ",
"                                                                                                                                                                                                                                                                                                                                                                        r.t r y 9 9 y t t h Q { } ! } ......{ ~ t 1 1 1 , @ # # # * ; : : : : : : : > : : : < < 6 7 7 0 7 0 7 7 7 7 7 0 7 0 7 0 7 7 7 7 7 6 6 6 > > > > : : < O # o O : g.oXoX.XoX/.b.b.b.(.XXXXXX1Xx.g @ # + @ ; 9 7 6 6 9 q 9 0 7 7 7 6 6 6 > * * ; * # . . . . . . . . g                                                                                                                                                                                                                                                                                                                                                                                             ",
"                                                                                                                                                                                                                                                                                                                                                                        r.@ . o O O O X O 1 z r...{ { { } { ~ z < X X X o o o # o o X . . . X X O X X X O O O o O O O O % O O O O O O O O O X O X X X X X X X . . . . . . . + . o . X : g.oXoX.X.XOX.XXXOXOX.X.XXX1Xx.h @ # # # X % % $ % % % % % O O O X X X . . . o o . . + . . . . . . g                                                                                                                                                                                                                                                                                                                                                                                             ",
"                                                                                                                                                                                                                                                                                                                                                                        p.4 @ @ # o @ @ O 1 z r.{ { { } } { { z 1 X . . X @ X @ # o o o o X X X X X X X O o o o @ @ @ @ - @ @ o # # # # # X o # # # o o . . . . o . . + . . + + . . X > h.oXoX.X.XOXXX.XOXOX.X>XXXXXc.h @ # o # O * % % % * * @ - @ @ o o o # o # + + + + + + + o . . . . v                                                                                                                                                                                                                                                                                                                                                                                             ",
"                                                                                                                                                                                                                                                                                                                                                                          4 4 @ @ @ @ o o q c r.w.q.{ { } q.} c 1 X . o X X @ X o o X O o O o O . O . . O O o O O - - - - ; ; @ O @ @ o # # o o # @ o . . . . . . o . . o . . . . . X % s..XoX.X.X.XOXOXOXOXOXOXOXXXk.p O O o O % % % * % * % ; O - @ o O o . @ o o o o o o . . . . . . . g                                                                                                                                                                                                                                                                                                                                                                                             ",
"                                                                                                                                                                                                                                                                                                                                                                              F.c 3 @ # @ 1 g c c c x z x x x x q ; ; < ; < < < , 1 : : : : : 1 : < : 1 r r r t t r r t t g g g t t r r r r q r g v x x v v h h h h r q r q 2 , : : : 7 g..X.X.XOX.XOXOXOXOXOXOXOXOXn.H 9 9 9 r y t y y y h x x x x h h g g r q 1 1 < < < < < < , o . . . v                                                                                                                                                                                                                                                                                                                                                                                             ",
"                                                                                                                                                                                                                                                                                                                                                                                  v @ @ o O ; 1 1 1 < ; < , < q x c c x c c c Q z Q Q Q Q c Q { { { w.y.x.Z.Z.Z.V.f.t.t.t.t.k.k.k.k.k.f.f.y.y.k.Z.+X,X+X+X+XoX+X+XoXn.k.k.k.t.~ x x z D n..X.XOXOXOXOXOXOXOXOXOXOXOXb.X.! Q Q { t.k.f.f.k.Z.,X,X,XoXXXXXoX+XV.e.! ! ! ! ! ! ! ! v , . . o v                                                                                                                                                                                                                                                                                                                                                                                             ",
"                                                                                                                                                                                                                                                                                                                                                                                  q.@ # o . . . . X . . X . . , ~ w.w.w.r.r.w.e.o.t.t.t.t.t.f.x.V.V.V.,XdXzXzXkXdXoXn.b.n.b.XXXXXXXXXXXXXX XoX>XsXkXkXkXkXkXkXkXkXlX<X1X1XXXZ.s.{ { ..| b..XOXOXOXOXOXOXOXOXOXOXOXOX Xg.t.t.t.k.V.XXXXXX>XdXkXkXnXkXkXxXkXxXjXb.s.f.s.f.s.s.s.s.q.q o X o v                                                                                                                                                                                                                                                                                                                                                                                             ",
"                                                                                                                                                                                                                                                                                                                                                                                  q.# # o o . . . . . . . . . 1 c w.r.w.t.e.X.t.e.t.t.t.t.s.g.b. XZ.Z.1XkXNXNXxXlX.Xc.b.n.b..X>X>XOXOXOXOX.X.X>XsXkXbXbXNXbXbXbXbXkXsX<X1X1XoXs.{ { ..| /.OXOXOXOXOXOXXXOXOXOXOX>X>XoXg.s.s.t.g.Z.>XXXXX>XlXnXbXbXbXbXnXkXNXkXb.d.h.d.h.h.h.h.h.r.q X X o v                                                                                                                                                                                                                                                                                                                                                                                             ",
"                                                                                                                                                                                                                                                                                                                                                                                  q.# o o . . . . . . . . . X ; Q r.t.w.t.t.X.a.e.s.s.s.s.s.g.b.oXoXoX<XkXNXNXNXlXXXc.v.v./..X>XOXOXOXOXOX.X.XOXfXkXbXbXbXNXNXNXNXkXsX<XXX1XoXs...} |  ./.OXOXOXOXOXOXXXOXOXOXOX>X>XoXg.s.s.O.g.b.XX.X.X1XgXnXbXnXbXnXnXnXNXlXb.h.h.h.h.h.h.g.g.r.q X X o v                                                                                                                                                                                                                                                                                                                                                                                             ",
"                                                                                                                                                                                                                                                                                                                                                                                  q.# o . . # , - @ @ ; ; * < q } r.t.e.X.X.X.,.a.a.e.s.s.s.h.n.b.b./.XXsXlXlXfX<X Xc.c.c.c./.oX XoX X/. X/./. X<XsXsXsXsXfXlXlXkXfX<X1XXXXXoXs.o...o.o./.OXOXOXOX>X<X<X<X<X>XOX>X1XoXg.s.s.O.g.(..X.X.XOX2XfXgXsXlX2X2XsX<X<Xn.f.f.f.f.k.g.k.k.r.t O O * v                                                                                                                                                                                                                                                                                                                                                                                             ",
"                                                                                                                                                                                                                                                                                                                                                                                  q.o . + # 2 v v v v v h v x z { t.t.e.X.X.X.,.a.a.a.s.h.s.h.c.g.c.c.c./. X(./.n.c.g.c.c.g.c.c.c.v.c.c.c.c.g.g.g.n.c.c.b.XX<XpX<X<X1X1XXXXXoXh.o.| o.o./..XOXOX<X2XsXfXfX2X3X>X1X1X.Xg.s.s.O.h.(. X.X.X(.>XOX>X>X.Xh.s.h.s.h.f.f.f.f.f.k.k.k.k.r.g O O * v                                                                                                                                                                                                                                                                                                                                                                                             ",
"                                                                                                                                                                                                                                                                                                                                                                                  c o . . % h { { { { ..w.w.w.w.e.e.e.e.e.e.t.t.e.t.t.s.s.s.s.f.k.k.f.f.f.h.s.s.a.g.l.l.g.g.g.g.g.h.s.d.h.h.s.t.o.o.....f.@X<X<X1X1XXXXXXXXXXXh.X. . . .v.OXOXOX<XsXkXkXkXfX3X>X>X>XoXg.t.e.e.s.b.(..X(.(.(.(.(.m.c.L P P P L X.s.s.h.h.h.g.l.g.r.g * @ @ x                                                                                                                                                                                                                                                                                                                                                                                             ",
"                                                                                                                                                                                                                                                                                                                                                                                  F.o . . * x r.w.w.w.w.r.r.r.e.e.e.e.e.e.e.e.t.t.t.t.s.f.s.f.f.f.f.f.f.s.s.s.,.e.f.g.g.h.h.h.h.h.f.s.s.s.s.s.t.o...} } a.@X<X<X1X1X.XXXXXXXoXs.X.o.o.X./.OXOX>X<XfXkXkXkXgX2X<X>X>X.Xc.e.e.w.s.b. X.X.X(.(.(./.b.c.P l l l P e.f.f.f.h.g.g.g.c.u.g @ @ * v                                                                                                                                                                                                                                                                                                                                                                                             ",
"                                                                                                                                                                                                                                                                                                                                                                                  F.. . . ; x r.e.e.e.t.y.y.y.y.e.e.t.e.e.t.y.y.t.y.y.y.y.y.f.f.f.f.f.f.y.t.t.t.e.y.k.g.k.g.h.f.f.f.f.f.f.f.f.f.o...} } s.@X<X<X1X1XXXXX>XXXoXg.e.o.o.o.b.OXOXOX<XfXxXNXbXkXsX<X>X>X.Xk.e.e.e.y.V.Z.oXoX X X X XZ.c.Q x x l Q e.f.f.k.k.k.g.k.c.p.g * * , v                                                                                                                                                                                                                                                                                                                                                                                             ",
"                                                                                                                                                                                                                                                                                                                                                                                  c . . . @ g ~ } } } } } } } } } } } { { { { { } } } { { { { ....w...{ { { { } } { w.w.w...{ { w.........w.....Q K H H ..k.V.V.n.n.c.n.n.n.x.o.~ Q ! L b.XXXXXX<X<XsXsXsXsX<X<X>X1XoXf.} { { w.k.x.c.c.x.x.k.k.k.y.z h h h k ~ w.w.w.w.r.e.e.t.} g * * , v                                                                                                                                                                                                                                                                                                                                                                                             ",
"                                                                                                                                                                                                                                                                                                                                                                                  c . . . o , q y y y y y r r r r r r r r r r r t t t t t t g g t g g g g t t r r r t t r y r q q q q q t g g g 9 9 9 q q k z z z z x x x x x t q 9 9 t c.XX>XXXXXb.n.c.c.b.XX<X<X<X X..h g g g h x x x c c x v z v 1 1 < < < q g g g g g h h h g 1 * * * x                                                                                                                                                                                                                                                                                                                                                                                             ",
"                                                                                                                                                                                                                                                                                                                                                                                  c . . . . + + O O O O O O O O o o O # # # # @ * * * * * * * ; ; ; * * ; * @ @ o o o O X X X X X X X O O O O O O O @ O X @ * @ O % % O O - @ @ o o % : k.oX1X1X Xh.......f. X<X<X<Xb.H : * @ * @ * * * ; 4 4 4 * , . @ + + . # # # @ @ O * * * , * * * ; v                                                                                                                                                                                                                                                                                                                                                                                             ",
"                                                                                                                                                                                                                                                                                                                                                                                  c . . . . . . . . . . . . . . . o . o o + o + X X X X o o o O @ @ @ O @ @ # X . . . . . . . . . . . . . . . . . . + + . . . . . . . . o # o # # . O % k.oX1XXXZ.s.{ { | f.oX<X<X<Xb.j % O o X o . . . # o o o . X . o . . . . o o o . . . X X # @ @ * , c                                                                                                                                                                                                                                                                                                                                                                                             ",
"                                                                                                                                                                                                                                                                                                                                                                                  c . . . . . . . . . . o o o o o o + + + + # # O O X X o # o O % % % * O O # o . . . . . . . . . . . . . . . o . . o + . + + . o X X X O o . # # . O % k.+XXXXXZ.s.| ] ] h.XX<X<X<XV.k O X o + X o X X o O o o X X . . . . . . o o o o o o o + # # @ , 3 v                                                                                                                                                                                                                                                                                                                                                                                             ",
"                                                                                                                                                                                                                                                                                                                                                                                  c . . . . . + . . . . + # # + o + o # . . O + + # # # # o * : 0 9 6 : = X o + . . . . . . # @ @ O O - * * - % ; ; - @ 4 @ @ * * > 6 6 0 q q = # . O : t.Z. X Xb.c.s.e.s.c.OX2X2XpXZ.x O . . # @ ; * % * : ; ; * * % * * * * o o o o o o o o + * v c ~ q.                                                                                                                                                                                                                                                                                                                                                                                              ",
"                                                                                                                                                                                                                                                                                                                                                                                  c o . . . . . . . . . + + + + # # o o X X O O o + # # # * 0 H ^ T J j 6 O o . . o . . . # 3 r r r t t t t y y y y r r r r y y u j L  .e. .! w @ o O % ..g.c.g.n. XoXoXoXOX2XsXsXsX@Xz * # . @ 1 r y y y t t t y y t t t t r , o o o o + o + # g                                                                                                                                                                                                                                                                                                                                                                                                       ",
"                                                                                                                                                                                                                                                                                                                                                                                  c . . . o X . . . . . + X # # o # # . . o . X o # # # O : S a.W.W.W.;.w O . . . . . . . @ g x x x x x l l l l l l l l l l l D D I ,.j.j.l.j.M @ o O > | s.s.h.c.oX1X<X<X<X2X2XsXsX+Xz * o # @ r x z l l D D D l l l K K z x q O o X X + + # # c                                                                                                                                                                                                                                                                                                                                                                                                       ",
"                                                                                                                                                                                                                                                                                                                                                                                  c . . . X X . . . . X X X O X # @ @ o o # o o o # # @ * 5 A j.W.W.W.2.8 $ X . o . # . . @ g x z z H H H H H H n n l l l l l n F I 5.R.j.W.l.m 4 o O : ..s.h.d.g.oX>X1X>X<X2X2XsXdX,Xz * O # @ q x K l l D D D D l l K l K z 1 O O X X X # # @ q.                                                                                                                                                                                                                                                                                                                                                                                                      ",
"                                                                                                                                                                                                                                                                                                                                                                                  c . . X X $ $ X X X $ $ $ $ $ O o @ o o o . o o o # O = 5 / W.[.[.[.H.i & $ X X . X X . % h z z z z z l H H l D D D l l l D D m I j.W.j.W.l.M ; o O : ..f.h.h.g. XOX<X>X>X2X2XsXsXXXz O . o @ r x z l l H H H P D D K K Q c 9 * O o o # # # @ q.                                                                                                                                                                                                                                                                                                                                                                                                      ",
"                                                                                                                                                                                                                                                                                                                                                                                  c o X X $ 5 7 e e e e e e 7 6 : X o o # ; ; , 1 , O $ = 5 m R.[.E.E.P.C e 5 5 5 $ $ & $ 6 p j x x x x x x x x j j j h x x h j Z F ,.j.j.h.a.a 4 # O : ..g.h.h.g. XOX>X>X>X2X2XsXlX,Xz O X o # 2 g h h h h x x l j l H z z x 1 @ @ o o # # # @ q.                                                                                                                                                                                                                                                                                                                                                                                                      ",
"                                                                                                                                                                                                                                                                                                                                                                                c 1 . X & p a.v.R.R.H.R.R.R.j.a.Z & % % : g k z l k 6 = & 5 M R.[.E.Q.E.P.` ` ` ^ T T J S j 0 6 > : : : ; ; ; ; 6 : : : , , ; : > 6 w w p w p = # # @ : ..g.g.h.c. XXX>XOX>XsXgXlXkX<XQ * o o + # ; ; ; ; : : < 6 6 9 9 q 9 1 O @ @ o # # # # @ q.                                                                                                                                                                                                                                                                                                                                                                                                      ",
"                                                                                                                                                                                                                                                                                                                                                                        c , 3 , 4 @ X O & H /.2X#X#X#X#X#X#X[.).T 5 $ = 6 z ~ w.^ ! w = = 5 M j.~.E.E.E.E.W.W.W.W.j.j.j.l.^ 0 $ O O X . . . o o X X X . . . . X O $ $ $ $ $ = O # # ; : ..g.h.s.d./.oXXX.X>XfXnXbXNXpX! * # + + o O . . X X X O $ % O % % % * O @ o # # # # # @ q.                                                                                                                                                                                                                                                                                                                                                                                                      ",
"                                                                                                                                                                                                                                                                                                                                                                        v # * O @ # # * & N ~.;X%X%X%X%X%X'.'._.T $ O o 1 l ] ] | L y : * 6 m H.E.Q.Q.Q.E.E.E.E.L.L.L.L.R.,.w $ X + . . * + X X . . X X X X X O o o . o . * O % O * @ * r.f.h.d.j./..X.X(.>XsXkXcXBXpX} > . . o . # o . # . . o 4 + X % % X * # # # O O O # 4 4 q.                                                                                                                                                                                                                                                                                                                                                                                                      ",
"                                                                                                                                                                                                                                                                                                                                                                        v o * O o + + @ = N ~.;X%X%X%X%X%X%X|._.T % O O 9 l L ] ] P y * * 6 m R.E.Q.Q.L.L.L.L.L.L.L.L.L.R.:.8 $ $ O O O * O * % o . . X X O O X O * O * O * % > = % O : w.f.f.s.g.b. X(. X1XsXxXxXBXpXQ * O O o . # o # o o o o + @ * : & % * @ @ @ @ O @ @ 4 4 q.                                                                                                                                                                                                                                                                                                                                                                                                      ",
"                                                                                                                                                                                                                                                                                                                                                                        c : ; % O o o @ = A ~.;X%X%X%X'.'.'.[.W.S $ O O 9 l L ] ] l q * * 6 m R.Q.Q.Q.Q.Q.Q.Q.Q.Q.L.L.E.E.2.M e 5 6 9 9 y t g < , . o o @ r g r q r ; % > 6 = 7 7 7 5 t } y.r.w.y.k.n.n.n.Z.,XaXdXdX,Xw.p y r ; @ X . @ o g h g v x 6 6 5 0 : * @ # o o o # @ 4 q.                                                                                                                                                                                                                                                                                                                                                                                                      ",
"                                                                                                                                                                                                                                                                                                                                                                      q.Q K z l 1 - # O = / [.6X%X%X'.L.P.L.P.` a X O O 9 l L ] ] l 1 O * 5 m R.Q.Q.Q.Q.'.}.}.$X|.Q.L.E.E.E.P.R.R.l. X<XdXhXhX+Xc , o @ g B.aXaXpX,X..l J R R ,.;.;.E ! p y q 2 1 q g t t h x z z z y.+XpXdXpX+Xx , X * g uXzXxXxXzXf.,.;.,.^ t @ # o o o @ @ 4 F.                                                                                                                                                                                                                                                                                                                                                                                                      ",
"                                                                                                                                                                                                                                                                                                                                                              v 3 3 , r K ] P P h , # X = / [.6X$X%X'.P.*X*X` ) 0 O O % 9 l L ] ] x < o % 5 m R.Q.Q.Q.'.$X&X6X6X&X`.Q.Q.Q.Q.`.}.{.#XfXNXKXKXKXjXq., X * Q aXHXHXAXxXv. .;.>.2.j.W.W.W.j.0 O . . . + + + X O O % O O ~ pXHXDXAXxX} ; # # v vXPXPXPXPX/./.W.W.l.p * @ # o o o @ @ q.                                                                                                                                                                                                                                                                                                                                                                                                      ",
"                                                                                                                                                                                                                                                                                                                                                              g 4 # O y K ] ] ] x 1 # X 5 / [.6X$X%X'.L.*XP.` ) 7 % % % 9 j K L Q x , X O = m H.Q.Q.Q.'.$X5X5X5X}.`.Q.Q.T.T.Q.'.|.}.8XZXSXKXKXdXr.1 % % ! sXAXAXZXnX/.:.&.2.1.R.E.E.W.R.8 $ X . . . . . X $ $ $ O % Q pXAXSXAXhX{ ; ; % h BXLXLXPXLX_.W.E.W.l.p * @ # o o o O O c                                                                                                                                                                                                                                                                                                                                                                                                       ",
"                                                                                                                                                                                                                                                                                                                                                              v 4 # % y B ] ] ] h < + # 5 / [.6X%X%X'.L.*X*X` W 7 & % % 9 j Q K Q x , o + = M H.Q.Q.Q.'.$X5X5X5X$X'.Q.Q.T.Q.'.|.'.}.9XMXSXSXKXkX..6 $ & J sXBXSXSXnX!.%._ _ P.E.Q.E.K.R.8 $ $ X X X X O $ $ $ & O & } sXZXSXSXkX| > & & d xXLXPXLXKX[.E.E.E.j.i = o o o O O O O }                                                                                                                                                                                                                                                                                                                                                                                                       ",
"                                                                                                                                                                                                                                                                                                                                                              x 1 < 9 u B [ [ ] h , # @ 5 / [.6X%X%X'.L.P.P.` ) 8 & O O 9 j Q K K h ; . X = M 6.E.Q.T.'.$X5XyXyX$X'.`.`.Q.'.'.'.'.}.6XmXMXZXSX3Xj.m M M :.3XnXnXnXVXE.P.P.*XP.P.E.L.P.R.' 8 8 8 w 0 w u w w w i i i [ >XnXVXnX3X;.w 8 M F fXSXSXSXSX`.E.`.`.R.M % O o O % * ; : x                                                                                                                                                                                                                                                                                                                                                                                                       ",
"                                                                                                                                                                                                                                                                                                                                    i.p.i.    i.i.p.i.i.i.p.} c x x z P G ] ] ] l ; # @ 5 I `.6X%X%X%X`.L.E.W.` 8 $ $ % > x K K K t O . X = M 6.E.Q.T.'.5XwXwXyX9X5X5X5X5X%X'.'.'.'.}.&X6X6X3X;XW.W.R.R.[.#X3X9X6X;X{.`.`.`.'.T.E.P.L.H.E.E.~.!._._.).).).).).[.).#X_.R.~._.~.W.R.R.R.R._.3X8XVXVX6X9X9X9X8X3XT 6 $ O O q t h h x } p.                                                                                                                                                                                                                                                                                                                                                                                                  ",
"                                                                                                                                                                                                                                                                                                                                v 3 , 4 , , , , , ; , ; ; 1 g c Q Q K K ] ] ] ] x ; # @ = / ~.6X%X%X|.'.Q.Q.[.6.w % % O : j z z K t % . X $ M 2.E.E.Q.'.5XwXwXwXwXwXwXqXqX9X%X'.'.'.'.|.|.|.|.'.[.[.[.[.}.}.}.}.}.}.6X6X6X&X$XQ.L.P.P.L.|.&X6X6X6X9X8X8XeXeX8X8XVXVX#XE.P.1.1.P.[.[.[.[.[.#X}.}.}.}.9XqXmXMXnX,.= O X $ y x x x g 1 @ # @ v                                                                                                                                                                                                                                                                                                                                                                                             ",
"                                                                                                                                                                                                                                                                                                                                v @ # # # # # @ - O o O X O 1 c ] ] ] ] ] ] R L h < O % & m !.3X$X$X}.'.Q.`.Q.H.w & % % < x z z P t % . . $ a a.W.E.`.|.9XwXwXwXwXwXwXtXtX9X%X'.|.|.'.'.'.'.'.'.'.|.}.}.}.}.}.}.}.}.$X6X&X6X&X`.E.L.P.L.|.&X$X5X5X9X0X0XrXrXqXrXmXmX6XE.1.*.1.P.`.[.|.}.|.}.|.'.`.|.0XrXMXMXnX;.= X X O y x x x g ; . . o g                                                                                                                                                                                                                                                                                                                                                                                             ",
"                                                                                                                                                                                                                                                                                                                                v # # o . o . o X O X O * O : x K K K K ] ] ] L j : O $ & n !.3X6X6X|.`.Q.Q.Q.P.i & O O < x z l K t % . . O p ,.W.~.~.|.9X0XwXwXwXwXwXqXqX9X$X'.'.|.|.'.'.'.'.'.'.'.'.%X%X%X%X$X$X}.6X6X6X6X#XQ.L.L.L.L.%X&X%X%X5XyXwXwXwXwXwXwX8X7X3XE.1.2.2.P.`.|.'.'.'.'.'.`.`.'.9XtXrXmXnX .= X X X r x x x g * . . . g                                                                                                                                                                                                                                                                                                                                                                                             ",
"                                                                                                                                                                                                                                                                                                                                x 1 1 < ; 1 ; : ; : : : 9 : q z l l l K ] ] ] L s 7 % * 6 Z j.OX#X{.[.`.`.'.`.R.i % o O < x l P H t @ . . X 9 J ,.5.6._.6X7XyXyXwXwXwXwXqXwX5X$X%X$X$X$X$X%X%X$X%X%X%X%X%X5X5X5X6X6X}.}.{.#X[.~.L.L.L.L.%X5X%X5XyXwXwXwXwXwXwXtXrXmX3X6.[ E Y :.E.}.}.$X}.}.}.|.}.}.wXtXtXmXnX .& . . . r x x l g ; . . . 2                                                                                                                                                                                                                                                                                                                                                                                             ",
"                                                                                                                                                                                                                                                                                                                              q.{ { } } } w.{ ....} h h j t y t y y t l z ] ] ] D s p p k j L  .` :.R.[.}.$X|.E.M % # O 1 x D B H t @ . . . O 6 u n m 2.#X9X5XyX5XyXwXwXqXwXyX9XyXwXwXyXyXyXwXwXwXyXyXwXwXwXwX7X7X6XK._ W ( 2.W.'.'.'.`.%X%X%X5XyXtXtXtXtXtXtXtXmXMX3X>.i u i I R.}.5X5X6X9X8X8X8X8XtXtXtXrXnXE % . . . r h l l g ; . . o 4 c                                                                                                                                                                                                                                                                                                                                                                                           ",
"                                                                                                                                                                                                                                                                                                    2 , 1 , , , , , , , , , 2 g t.x.x.x.x.Z.Z.Z.Z.k.{ } ..} x 7 6 > < y x ] ] ] G G ] } ! z w 6 5 8 :.{.6X&X&X~.M % o @ < j B B l t @ . . . . X $ & 5 V [.;X$X$X5XyXwXqXtXtXtXtXtXtXtXtXtXtXtXtXtXtXtXtXtXtXtXmXmX9X_ e e e i j.$X}.%X%X%XyX5XyXwXtXMXMXMXMXMXMXMXMX9X>.7 & = w W.6X9X9XwXrXMXMXmXrXtXtXtXrXmX .% . . . 1 p s n h 1 . . . . # 4 ; ; ; ; ; , , 1                                                                                                                                                                                                                                                                                                                                                                         ",
"                                                                                                                                                                                                                                                                                                    ; o @ . o o . o o . o o o g ..b.x.n.n.Z.oX+XoXn.o.....} D 6 6 > : r x ] ] ] ] ] ] ..{ Q w = 6 5 ) {.6X6X6X[.n % o @ 1 l B B l g @ . . . . . X $ $ m _.;X$X$X5XwXqXqXqXwXtXtXtXtXtXtXtXtXtXtXtXtXtXtXtXtXrXmXmX6X( e 5 & e l.$X%X%X%X5X%X%X%XwXtXMXMXMXMXMXMXMXMX9X+.6 = = w W.6X9XwXwXmXMXMXMXMXtXtXtXrXVXE % . . o r k Z Z g < . . . . . . . . . . . . X o                                                                                                                                                                                                                                                                                                                                                                         ",
"                                                                                                                                                                                                                                                                                                    , X $ X O O X O X X O . o r w.x.x.k.n.m.b. X(.n.o.o.O.e.D 7 > : : y x } } } ] ] | | } z r ; > 6  .OX3X3X3X).A = O % : h P l z y % . . . . . . . O j /.3X3X#X6X8X0XtXtXtXtXtXwXtXtXtXtXtXtXtXtXtXtXrXrXrXeXmXmX3X] > % % 9 k.#X#X}.&X5X5X5X5X9XrXMXMXMXMXMXMXMXMX2X| > O % 0 /.fX9X8X8XmXMXMXtXtXtXMXmXmXnX^ $ X . X q x j l g < o o . . . . . . . . . . . @                                                                                                                                                                                                                                                                                                                                                                         ",
"                                                                                                                                                                                                                                                                                                  q.t 1 < > : * & > = = * * ; r ~ u.y.t.f.g.g.z.m.c.s.s.g.c.o.j y y y t x x z K K L L ] Q x q * : 6 L /.).).).W.a 5 = ; 9 l D B x y : % % * @ . . . % s j.).[.[.}.9XqXqXwXwXtXtXtXtXtXtXtXtXtXtXtXqX0X7XeX9X9X9XVX>XP > O % : r.W._.[.'.$X$X5X5XwXrXMXMXMXMXMXMXMXMX3X .* . % 7 a.#X3X3X6XmXMXrXtXtX0XrX8XVXVX^ = X . o r l j l h < . . . # 3 g g r 2 o . . o @                                                                                                                                                                                                                                                                                                                                                                         ",
"                                                                                                                                                                                                                                                                                                k.~ k h h p p t t w 0 0 0 q q t g g h h K e.t.h.g.c. XoX>X>Xb.X...{ } z t y r y t y p p t r < * ; : u R E E E T s u t y p l D B l l d t y t 2 @ . . X 6 D R ) _ G.}.9XyXyXyXtXtXtXwXtXtXwXtXtX0XyX5X5X6X;X~.6.j.j.s.p % $ = * h m I V _ `.$X$X$X5X9XwX7X8X7X7XwX8X8X#XR > O % 6 D ,.,.5.H.6XrXtXMXrX5X;X#X#XOXZ $ . . o r x x l h : . . . ; c i.x.i.u.2 o o . @                                                                                                                                                                                                                                                                                                                                                                         ",
"                                                                                                                                                                                                                                                                                g g g g g q 2 < k Q H H Z H H S Z j j j j k k t ; O ; > t o.e.s.X.c.<X<XsXpX1Xc.x.f.y.} 1 O - O * > * * ; ; ; ; @ * > 6 7 7 7 7 D K H x z P D B l l l l j x g * . . . O > 6 e e ' ~.6X5X5XyX0XmXrX0XtXtXwXtXtX9X5X$X}.}.~.( 8 7 9 9 * @ $ * + * % 6 5 e K.|.$X%X%X$X5X6X6X6X6X6X6X3X_.J > % O % = 6 7 8 C -XmXMXmXeX'.~.~.E.R.w $ . . o r x l l h : X . . , q.A.+X+XZ.g o o . # 2 g g g g b g g g g g g 2 g c                                                                                                                                                                                                                                                                                                                                           ",
"                                                                                                                                                                                                                                                                              q.@ @ @ * @ * @ * 0 L H J J J D F J Z D Z j Z j w O . O % y o.t.X.t.c.pXsXsXsX<Xx.c.k.k.{ 1 . O o O O O % @ @ @ @ 4 ; @ * % % % 6 j ! L H P P D D l l l l l z t * X o . . O $ $ & M _.6X6X5X9X7XmXmXrXtXwXwXtXrX9X6X}.|.}.~.m 5 & % ; @ * % % + # o % $ 5 <.[.}.}.}.$X$X$X&X&X&X&X#X#X_.A & % % O $ $ $ 5 8 -XmXmXmXrXE.K.E.R.j.7 $ X . o r z l l h : X X . < r.,X+X,X+Xr . o @ 4 4 4 , 4 , @ ; ; ; * O ; * , g                                                                                                                                                                                                                                                                                                                                           ",
"                                                                                                                                                                                                                                                                              c @ * * * % % * : w J S T J F F F F m Z Z n Z n 8 O . O O 9 ..f.t.f.c.pXsXdXsX1Xc.g.k.k.{ 1 O @ O O o O - ; @ @ @ @ @ @ @ @ @ O < p K L P P D D D P B B D D D p : X . . o o O % = M /.3X6X6X9XmXmXrXrXtXtXtXtXmX8X;X{.{.#X_.V & % ; @ @ % % O X # o . . & >.).{.|.}.}.}.#X#X#X#X#X#X#X/.I & % O O O * % & i 3XmXmXmXVX~.R.W.W.j.w $ X . O y z l l h : . . . 1 r.,X,X,XZ.g X X o @ 4 @ 4 , ; * ; % % % % > * * v                                                                                                                                                                                                                                                                                                                                           ",
"                                                                                                                                                                                                                                                                              ~ < : 6 6 6 6 7 0 M F F T I I F F F A F F A F A i 6 > > : t K { ..{ t.1X<XpX<X>Xm.c.c.c.w.t : 1 1 , 4 o # @ @ ; , ; ; 4 # @ @ o ; d K P P D B P D B B P G G G D u : : : 1 , ; < < s h.).{.{.}.9XmXeXrX7X5X5X;X3X-X{.).)._.R.Y u 7 y 9 : % : : ; ; , ; % 0  .R.W.R.E.~._._._._._._._.W.j.L 7 : : : ; 9 7 0 m /.3X3X3X#Xj.>.,.,.^ w % % * > t K P P x < X . X < { Z.oX+Xn.K y 9 q r 3 @ @ @ * 9 y 0 7 0 7 0 9 9 v                                                                                                                                                                                                                                                                                                                                           ",
"                                                                                                                                                                                                                                                              q.q.q.q.p.q.q.r.H H H D J L J J L I T R I I I I I F I I I I I I F D D D H j p t t t K n.V.n.b.b.b.oXoXoXc.{ z c c v 2 - o # , 2 g t q 1 @ # # # ; d l D P B D L P P ] [ O.,.,. .G n l z x h h h h p H R Y W *.{.8X8X9X}.K._ $.+.[ $.#.#.#.>.3.,.O.O.o.l u d l h h h h j j a M M M M M M M n m m Z A A A J l l l l K ] | o. . .R [ T T a w 8 p 0 9 t y t y l ] ] | Q q O . . ; z k.k.k.h.s.e.t.y.k.2 , - ; : l ! R  .R I J ! ! Q q.i.                                                                                                                                                                                                                                                                                                                                      ",
"                                                                                                                                                                                                                                                            , 4 4 4 @ * < : 0 ! |  . .;.;.:.:.+.E W I I I I I I I I I E E E E E E E  . .D 6 * * * r k.k.s.h.c.1X<X2X<XXXf.r.r.r.c 2 @ o @ < g c K z g 4 # # # ; t l B B B D P P B ] O.3.3.7.3.[ [ ] | } ] K K K x 9 > 7 e ' [.9X9X9X[.V 8 5 5 0 C V [ V [ 8.!.(.(.z.[ G ] ] ] L } K ! ! 6 $ = $ & & & > & & & & 5 5 0 H } | ] | O.d.d.d.d.a & > & $ $ $ $ O % y l z l P ] o. . .{ g . . O % x t.t.t.s.n./. XoX<Xg , % > > | d.d.j.5.;.>.,.o.! w , , , , , , , 3 v                                                                                                                                                                                                                                                                                                                       ",
"                                                                                                                                                                                                                                                          q.# @ o o X X $ = 7 L  . .;.:.>.>.#.@.E Y I W I I I W I W Y +.+.+.+.+.+.;.;.;.D 6 % % O 9 y.y.X.s.c.<X2X2XsX>Xf.e.w.w.c 2 @ # O , r c K z g ; # # # ; y l B B B D P P B ] 3.3.3.7.7.$.[ [ [ | ] P P P x 9 * > 5 M [.9X9X9X).N 5 % % < f G G B [ 8.!._._.!.[ 0.[ ] ] ] ] ] | ] 6 O % X X O O O O O % % $ = 9 l | | [ [ =.7.7.7.d.u O # O X O . X X O t z K P P [  .[ $.} t X . O O x t.t.s.s./..XOX>X3Xg ; % > &  .j.j.!.R.<.@.;. .R 0 + + . . . . o X g                                                                                                                                                                                                                                                                                                                       ",
"                                                                                                                                                                                                                                                          ~ . . . . X X $ $ 7 R  .;.:.:.#.<.&.&.Y Y W W V V V W W W Y ) +.+.$.@._ @.@.+.N 7 % O O 9 y.k.f.f.n.sX2XsX2XXXs.o.o.w.z < o o X * q x j j y @ o o . * t l B B B D J P B ] 3.8.7.7.-.=.0.[ [ [ ] G P P x 1 @ ; & n ).8X9X9X).D % o O 1 s J G B [ 8._.^.^.I.$.0.[ ] [ U G ] ] | < X o o # # o o O O % % O % 9 l ] ] ] [ =.7.7.-.>.0 . . . . . . . . O t z ] P B [ $.[ $.} y O . O ; z y.e.X.,./.OX>X>X3Xh : % > 6 ,.!._._.!.6.@.+.;.I 7 X X X . . X X X 1                                                                                                                                                                                                                                                                                                                       ",
"                                                                                                                                                                                                                                                          ~ = $ O $ = & & 5 8 F Y ) _ +.@.@.@.@.( ( ( ( Y Y Y Y V W ( @.%.%.%.%.*.*.*.>.W 8 7 > > y { t.e.e.c.iX2X2X<X.Xg.s.s.e.~ < X X o o ; 2 9 9 : X . o . % t l B n B G G J G [ 3.8.9.7.-.=.0.0.[ [ B B G ] l 1 - 4 ; j /.3X3X3X/.D : - O 1 n L ] ] [ 7.!.^.^.I.=.0.0.[ [ U 0.[ ] | 9 O 4 @ # # @ O % % % % : : y D ] [ [ [ -.-.-.7.>.u % # # o . . . . o t z P B B [ =.$.$.] u > % > 1 h } } | | /.>X>X>X3Xh > % > 6 [ j.R.R.J.<.@.+.+.I 8 = = % $ $ $ $ $ q                                                                                                                                                                                                                                                                                                                       ",
"                                                                                                                                                                                                                                                  q.q.r.~ h q 0 7 w j Z Z A m I W W W W Y ( ( ( +.@.:.@.@.@.@.@.@.%.*.G.H.H.H.K.K.K.K.J.<.U N D d p p p p k { Z.oXoXoX X.XOXXXoXk.t O o o X X X O O O . . . . % t l D n G [  .[ $.=.7.8.9.7.-.-.-.-.-.=.[ B ] ] l 1 @ @ @ 9 L ,.>.:.| l t r y h U  .3.=.3.8.!.^.^.I.-.=.=.=.3.[ [ [ [ o.d y r r g g t t h h h j d d D | =.=.=.=.8.I.I.I.7.B t t r r . . . . o t l P B B $.3.-.-.3.] D l z x t r y t l c.>X>X>X<Xh ; % % & m E +.+.( ( V Y Y F m n n a a i u u p j Q x.                                                                                                                                                                                                                                                                                                                  ",
"                                                                                                                                                                                                                                                x , O * 6 k j j a F ,.a.,.,.W / I / / V I W W Y @.<.1.1.<.4.4.1.1.1.H.L.~.~.U.~.U.U.U.~.R.<.>.,. .j > % % : h k.c.g.c./.2XlXkXdXV.k O o o X o . . . o . . . . % y l D B U ,.7.7.7.7.7.7.-.-.I.I.^._.!.8.$.[ ] [ l 9 - 4 4 @ : 6 & 5 0 j K K P | 3.z.!.!.!.!._.^.!.Y.I.I.!.!.z.3.=.3.,.3.P x l x x l z l z K K Q z K | 3.7.7.7.8.!.I.I.I.8.[ P K c x O . . . o t l P G [ 3.8.8.8.3.[ ] ] | z 1 O O > 7 g.>XOX>X>Xv ; * % & a F m V m ' ' V N N R :.:.>.;.;.E E  .! j > % * g                                                                                                                                                                                                                                                                                                             ",
"                                                                                                                                                                                                                                                g @ X O > j H Z M I ,.j.j.,.W m I V / I I I I R $.*.1.1.<.4.4.1.1.G.K.~.~.U.U.U.U.U.U.~.R.1.<.>.,.Z $ $ O * g i.x.k.g.b.sXkXkXdXZ.k @ + . + # o . . + . . . . * t x l n U =.8.8.8.7.7.-.-.-.I.^.^.).).!.=.[ [ [ l 7 ; 4 4 4 + X O O 7 D L G B ] 9.Y.^.I.I.I.I.Y.Y.Y.I.!.!.!.!.7.3.3.3.,.L D D D D D D D P K K Q ] ] [ 5.I.I.8.8.!.!.!.!.8.0.B G } K * X . . O t l P G [ 3.z.8.8.8.$.[ ] | K r O O * 9 g.>XXX>X>Xv ; * % = p D F V m m m m m m  .1.1.6.2.@._ +.;.^ a $ $ X 2                                                                                                                                                                                                                                                                                                             ",
"                                                                                                                                                                                                                                                v @ O = 6 j H D C Y j.j.j.5.) V V m A I I I T R _ %.1.<.&.4.4.1.1.G.K.U.~.U.U.U.U.U.U.~.L.1.<.>.;.Z $ $ O O g i.x.k.g.n.sXkXkXdXV.k @ # . + + o + + + . . . . * t x l n U $.7.7.7.7.-.-.-.-.I.^.^.).).!.=.[ [ [ P 7 * @ 4 4 + # O O 7 s G N B [ -.I.Y.Y.I.I.I.I.Y.Y.I.!.I.!.!.7.3.7.3.,.G D D D J G G J P K ] } ] ] [ 7.J.I.8.8.z.z.!.!.8.0.B B P P % O . . X t l P G [ 3.z.8.8.7.$.[ ] ] K r O O * : f.XX X.XOXv @ @ O % t Z D m m V m m A F  .P.G.H.1.%._ ) ;.E a $ O . 2                                                                                                                                                                                                                                                                                                             ",
"                                                                                                                                                                                                                                                h > $ & 8 M I m C ) 5.j.l.j. .A F n N m I V V V _ @.<.*.*.1.G.G.P.P.K.U.~.~.~.~.U.U.U.~.L.1.%.<.:.m 5 $ $ % g p.i.i.k.n.<XfXfXfXb.j & % % O X X + + . . . X O % y d l l G  .3.3.9.=.-.-.-.G.I.Y.Y.Y.:XI.=.[ [ [ B 7 & & & % o # + # : n V C C V -.8.!._.!.!.!.!.!.!.!.!.z.(.m.g.3.3.s.X.] P l K K K K P K L L L } ~ { s.z.7.7.8.8.!.z.z.3.[ B B ! { * . O . . y s B G [ 3.z.z.8.9.[ [ [ ] P r - @ O 9 s./. X XoXg - O % $ p Z S S A A I m m F  .j.j.6.1.%._ %.%._ ' e 5 $ 0                                                                                                                                                                                                                                                                                                             ",
"                                                                                                                                                                                                                                              q.Q z j n F E ) ) Y Y E E E R F n A m F I +.+.@.@.:.<.1.1.1.H.L.U.U.U.U.`.`.~.U.U.U.U.U.~.L.4.<.2.2.) i i p t q g r q r K XXsXfXsXOXg.e.f.u.c 1 . + + @ 1 y y y y d l D D D B B ] 0.[ 8.!.I.Y.Y.^.].^.:XY.=.[ [ [ ] ] G G J l 2 # . O y  .7.7.7.7.-.7.9.9.=.$.[ [ =.$.$.=.3.3.O.B u d d y y 9 y y 9 r 9 9 9 9 y 0 g r p P [ [ V 0.$.=.=.=.=.3.3.7.h.k.9 X . . % P 3.3.3.3. .[ [ [ [ [ [ [ O.] 1 O @ * 6 X.v.v.v.b.r O O O O u Z S S A A F m m N R ) Y ( _ 1.H.G.1.1.@.C F J z ! y.p.                                                                                                                                                                                                                                                                                                      ",
"                                                                                                                                                                                                                                      c , < * t H ! ^ R R E ) ;.;.W C M m n n A n n m I ;.>.>.<.<.2.<.*.*.K.~.~.`.`.`.`.~.U.U.U.U.U.U.~.L.1.*.<.2.;.m F H z 9 O X X O t  XsXfXfX<Xb.n.V.x.r.t X . . ; t x l d l l K P D P B B B B [ !.^.^.Y.Y.].Y.Y.:XY.=.[ [  .3.d.z.d.g.w.g # # O u 3.!.!.!.z.=.=.=.=.[ 0.B V B B B V V G U f * % * % O ; ; ; ; ; ; ; ; ; ; ; O O : d G G B B [ [ [ [ [ 3.8.8.z.z.9 O . X * ..z.z.z.7.[ G ] ] [ 3.3.3.3.| 9 O - * 6 X.c.j.g.c.r o X O X w Z Z A A A A m m m N V / ' ( 1.R.K.J.H.@.I E  .! 0 * @ @ v                                                                                                                                                                                                                                                                                                   ",
"                                                                                                                                                                                                                                      x * * O 0 H L R I Y +.+.;.>.Y M M m n n A m m m V >.>.@.>.<.1.1.*.1.K.~.~.U.~.~.`.U.U.U.`.U.U.~.~.L.1.&.<.2.>.I F Z z q * . . . 0 Z.sXfXfX<Xb.c.x.x.r.q . . . @ r x l d j l K P D J D B B B [ !._.^.Y.Y.Y.:X:X:X!.=.[ [ [ [ 3.z.z.c.t.r O O O f 3.!._.(.z.7.=.=.=. .] B B B G G G V U U 8 ; ; * * @ ; - @ - @ @ @ @ o o O % % > u l B B B ] [ [ [ [ 7.z.!.8.m.7 X + + % t.m.m.!.9.[ B G G [ 3.9.3.3.] 1 - @ * 9 X.g.g.g.c.2 o . X X 0 j Z m A A A m F N m C V C W 1.R.H.H.6.%.) E  .! 0 % . o g                                                                                                                                                                                                                                                                                                   ",
"                                                                                                                                                                                                                                      v % % $ 0 F R I I ) ;.;.:.,.E V m A m M M M M M m :.:.@.#.@.%.%.%.1.K.~.~.`.`.`.U.U.U.U.U.`.~.~.~.L.4.<.<.>.;.I F Z j q = o X X t @XsXsXsX<Xv.g.c.x.r.q . . . - r x h d l l H D D D D n n C [ 8._.^.^.Y.:X:X:X-X_.3.0.0.[ =.3.z.d.z.o.9 O O O f 3.!._.!.8.-.=.=.3.o.] l l P L D F U [ E 8 * * * * * * ; ; : : : : ; ; * * & $ & d z l l l ] [ [ [ [ 7.!.!.8.!.7 X % + O o.m.m.!.8.[ B ] G [ 3.9.3.d.| 9 ; @ * 9 X.g.g.g.c.2 # . . X 0 j Z m m m m m I F F m V ' ( 6.R.R.R.H.&.) +. .^ 7 $ @ @ g                                                                                                                                                                                                                                                                                                   ",
"                                                                                                                                                                                                                                      g % % & s F I I W Y ) ) ) ;.E F m n A A A m m V V +.@.@.@.@.*.*.*.1.K.U.~.U.`.U.U.`.`.U.U.U.U.~.~.J.1.<.<.<.+.V I F H t $ . . . t Z.sXsXsX.Xv.g.g.k.r.q X . . @ 1 t y y p l H D D D D n n C [ I.^.Y.Y.Y.^.:X-X-X!.3.[ 0.0.[ =.7.d.d.| 7 O O % f =.!.!.!.I.3.=.3.O.o.] K K K ! | R U Y V M 6 6 6 6 6 6 6 7 5 5 5 5 5 5 & 5 & & 7 p h x x z | o.[ [ $.7.I.!.8.8.8 $ $ $ 6 | g.z.z.3.[ [ [ [ [ =.3.3.3.| r ; @ * 6 ..g.h.h.g.2 o . . X w j Z n m m m m A F I m V V Y 2.H.H.H.6.@.Y E  .R 0 & @ @ g                                                                                                                                                                                                                                                                                                   ",
"                                                                                                                                                                                                                                    w.h l D s m I I E Y W W W W T I A m m F R E  .E +.+.>.@.#.@.1.H.K.K.K.L.U.~.U.U.U.U.`.`.`.U.K.K.G.G.1.<.%.<.2.>.) ;. . .Z & # . X 6 e.c.g.g.j.g.v.b.V.y.q . . . o @ ; % * : d D D D G | [ [ 0.=.I.Y.Y.Y.I.9.=.3.3.3.8.8.8.8.[ B f 7 8 d l ] ] ] =.8.I.8.9.=.[ V B P j y : : : t | ,.,.;.>._.#X#X#X#X#X#X-X-X-X-X-X-X3X#X#X#X).).j.D : % ; 1 d l B B N $.-.7.-.9.=.,.,.s.o.D 0 u f B [ 3.8.z.3.=.[ [ | P 1 @ @ * : ..g.h.f.h.b o . . X t s n m m m m A A F F A m m V Y _ ( ( _ _ E +. .R 0 & @ # , c p.q.q.q.p.p.p.p.p.p.p.p.p.p.p.p.p.p.p.p.p.p.p.p.p.p.p.p.r.q.q.q.q.q.q.q.q.q.q.r.r.p.p.p.p.p.p.p.i.i.i.i.                                                                                                                                                                                        ",
"                                                                                                                                                                                                                            , 3 1 * 9 H H J R R Y I I W I / / m F m A F F F E ;.,.;.:.@.@.@.@.@.4.K.~.~.U.~.~.U.U.U.U.U.`.`.U.U.G.P.*.*.<.*.<.<.<.2.:.>.;.,.D & . . . : Q e.t.,.,.l.(. XV.y.q . . . . . . . X % t l D D ] 3.3.3.=.-.I.Y.^.Y.-.0.0.[ U [ 8.!.Y.I.3.f & $ % 6 D g.d.3.7.8.8.8.9.-.[ B s D d : X X O 6 ^ ,.5.>.5.#X8X8X8X8XmXmXmXmXmXmXmXeXeX8X8X8X8X2XOXF % . . . r l l B C $.=.=.=.=.8.!.z.(.n.f & & % 8  .z.!.I.8.[ 0.B ] P r - @ * : ..g.h.f.k.b o . . X t j s m n n m A A A S F F I I V V W W W Y I E  .| i 5 # , , , , , , @ @ @ @ , , , , , , , , , , , @ @ , , , @ @ @ @ @ @ @ @ @ @ @ @ @ # @ @ @ @ @ @ * , , , , , , , , 2 q.                                                                                                                                                                                    ",
"                                                                                                                                                                                                                            , X $ $ 6 j L R T W W I I I I I I F F F F I I I E ;.>.>.:.@.@.@.@.@.1.K.!.L.~.~.U.~.U.U.U.U.~.`.~.U.H.P.*.1.<.<.<.2.<.<.>.>.>.,.A 5 X . X < } t.s.s.s.c./. XV.y.g . . . . . . . . % t l D P ] 3.7.7.7.8.I.^.^.^.8.0.V U U [ 7.!.Y.I.O.8 O X O > | d.7.7.8.8.8.8.7.-.[ B D D h : . X $ 0 ^ ,.2.2.&.#X8X7XrXrXeXrXrXrXrXrXrXeXrX7X8X9X9X8X).m & X . X r x l f B [ =.=.=.=.!.!.!.(.m.f % $ % 0 ,.z.I.I.8.[ 0.[ ] K r - @ * : ..g.h.f.g.b # . . X t j j s n n Z Z S S S D F F A F I I U I E U R R  .s & 4 @ @ @ @ @ @ @ # # @ @ @ @ @ ; * @ @ @ @ # # # # # # # @ # # X # . o X . . o X . . . X X X X O o @ @ # @ * @ * ; c                                                                                                                                                                                     ",
"                                                                                                                                                                                                                            ; @ $ $ 6 Z L T T T T T I W I J F F F F F m m V E :.>.>.:.@.@.@.@.@.1.K.!.L.U.U.L.~.U.~.U.U.~.~.~.U.H.1.1.1.<.<.&.<.<.<.<.<.>.;.M 5 O . . : } y.y.t.s.n././.V.y.t . . . . . . . . % y l D P [ 3.8.8.7.8.!.^.^.^.9.0.0.V V [ -.I.I.I.t.y X . O > | j.7.7.8.8.8.I.8.7. .J P K h < X X $ 7 E 2.2.<.1.3X9X8X7XeXrXrXmXmXeXmXmXrXrX8X9X9X9X9X[.m $ X X * r x z l ] [ 3.=.3.3.!.!.!._.m.d % O % 7 O.z.I.I.8.[ 0.0.] K r - 4 * : ..g.h.f.f.g + . . X t j l j j j j j Z Z Z D D D D F J I R R R I R R | u & ; @ @ @ * * @ @ O O O O @ @ @ @ @ * @ @ @ @ @ @ o X o X X X X X . . . X X X X X X X X + O O O % O O % O O * * % ; c                                                                                                                                                                                     ",
"                                                                                                                                                                                                                            q ; = = 0 Z R T T T T T T T I J J J V I I I I W +.>.>.>.>.&.&.%.@.@.1.K.!.L.~.L.L.L.U.~.U.U.~.~.~.U.G.1.1.1.<.<.<.<.*.<.<.<.2.:.V e % $ $ < c q.w...e.c./. Xb.f.h X . + + . . . . * t l P P ] [ =.=.3.3.8.!.!.8.-.$.0.0.V 0.-.I.I.I.w.9 X . X : | z.z.I.I.8.8.8.8.-.| D l l p 0 6 5 e 8 @.6.*.1.P.[.9X9X8X8X8X8XVXVXVXVX8X8X8X8X9X6X6X3X[._ e e 5 = h h z l P o.3.3.=.=.!.!.!.!.v.d % O O 6  .z.I.I.8.[ 0.[ ] P q @ @ * : ..g.h.h.k.g O X X O y p k j j j j j j j j d d k j j j Z Z Z D D J J H u w q 1 1 1 q q 1 1 1 1 1 1 1 1 1 1 < < < < < < < < ; : ; ; ; ; ; * : * % * % % % % = = = = * * * : * : : : : : : : : k                                                                                                                                                                                     ",
"                                                                                                                                                                                                                            g t w w p S T J T T T T T T T J J J V W E +.+.+.@.>.>.<.<.<.<.<.%.%.1.L.~.L.I.K.G.G.G.G.G.G.H.K.H.G.1.1.<.1.2.<.<.1.<.<.<.<.2.2.E C s p p t r q q y K g./. XV.g.H 9 2 2 , . . . . * d P P B G ] [ [ [ [ $.=.=.=.=.-.9.7.-.-.8.!.I.I.t.y . . . : o.z.!.I.7.=.$.$.$.[ d 7 9 7 p J  .;.2.1.~.[.[.[.~.~.!.R.!.R.<.>.>.>.,.>.>.:.>.6.R.!.E.R.~.R.R.R.j.a.s 9 9 9 y P [ ] [ [ 8.8.8.z.z.u % X O :  .z.I.I.9.[ 0.[ ] P 1 @ @ * : ..g.h.h.k.g ; ; < ; < : : : : : : : > > = : : : : > 6 6 6 0 9 7 0 0 p ! oX+XA.Z.Z.Z.+XA.A.Z.Z.Z.A.Z.Z.Z.Z.C.Z.Z.Z.Z.Z.C.C.V.V.V.V.V.V.V.V.k.r.~ ~ ~ ~ ~ ~ ! ! ~ { { { ....{ ..............Q z u.                                                                                                                                                                                  ",
"                                                                                                                                                                                                                  g < < * t Q Q J S S J J F F T T T T I I F F J V Y ;.>.<.<.#.<.@.&.&.<.<.<.<.<.1.L.~.I.K.G.*.%.%.%.%.%.*.*.*.*.1.*.<.<.<.<.<.1.1.1.1.1.2.5.:.W R L ! k * . . O h f. X X Xc...H c c g @ . . . ; h K P B B B G B G G U [ 0.0.=.I.!.^.Y.I.I.I.I.I.t.y . . . :  .z.!.I.-.$.0.U B B y % O % w ;.W._.~.~.}.}.}.;X{.K.+.Y [ U i 7 7 6 7 6 6 5 e i E ;.@._ H.{.3X3X3XOXs & O O % d G B B V -.7.7.7.j.u % . o > [ z.8.I.3.[ 0.[ ] D q @ @ * 6 ..g.h.f.h.g q q g 1 * X . . . . . X X . . . . . . X X O O % $ % % % < w.cXcXcXcXcXcXcXcXcXcXcXcXcXcXcXcXcXcXxXxXxXxXkXkXkXkXkXkXhXhXhXhXhXpX@Xk.k.k.k.k.k.k.k.k.c.x.x.c.c.c.n.n.n.n.n.n.n.n.k.Q t q 2 2 2 1 1 1 1 1 1 2 2 x                                                                                                                                                       ",
"                                                                                                                                                                                                                  g @ O O : x l J J J J J F F F T T I I I I F F V Y :.<.<.<.<.<.<.<.<.<.<.<.<.<.4.I.~.!.!.H.*.%.%.%.%.%.&.<.&.<.*.<.<.<.<.<.<.1.1.1.1.1.1.1.&.) I R J k * . . O t k.oX X Xc.X.! { Q g * . . X ; h K K P P P G G G G G [ 0.[ -.!.^.^.Y.Y.Y.Y.I.I.s.y o . . >  .z.!.!.7.$.G G G P r % O $ 8 ` R.E.E.`.}.}.}.6X;XG.[ U [ J 0 % > ; ; * % $ $ 8 R ;.:.( G.{.;X;X;X).m & X O : j J F B V -.8.7.8.z.d O o o > [ 8.8.I.3.[ V U ] D 9 @ @ * 9 o.c.g.g.k.h t g g r O . . . . . . . . . . . . . . . . . . . . O * % ; } xXNXNXNXNXNXNXNXNXBXBXBXBXNXNXNXNXNXNXNXNXNXNXNXNXNXxXkXkXkXkXkXkXlXXXc.c.c.c.c.c.c.c.n.n.n.n.n.v.v.b.b.b./././.V.n.V.~ : ; * @ @ @ @ @ @ # @ @ @ v                                                                                                                                                       ",
"                                                                                                                                                                                                                  g @ O O : H K D D F J F F F J J I I I I I I I V Y @.<.<.<.<.<.<.<.*.*.*.*.<.<.G.!.~.~.!.H.*.@.%.%.@.@.&.&.#.<.*.<.<.<.<.<.<.1.1.1.1.1.1.1.:.( Y R L j = . . . t k.oX X@Xn.a.! } } h % . . O < x } ] K P P L L G [ ] [ [ [ =.!._._.^.Y.Y.Y.Y.I.3.y O . . > [ z.I.I.7.[ G ] ] P r - % & 8 :.E.E.Q.'.}.$X$X;X;XK.[ U R J 7 % ; ; - @ * % $ 0 R  .+.( G.{.;X6X6X#XM & $ $ < j D F G U 3.9.9.8.z.d O o o > [ 8.8.8.3.[ V U ] D 1 @ @ * : o.g.g.h.g.h t g g r O . . . . . . . . . . . . . . . . . . o X X X O , ~ vXNXNXNXNXNXNXNXNXNXNXNXNXNXNXNXNXNXNXNXbXNXNXNXNXNXNXNXkXkXkXkXkXfXXXc.c.c.c.c.c.c.c.n.v.v.v.v.v.v.v.v.v.v././.b. XZ.{ & % X @ @ o # # # o # @ @ v                                                                                                                                                       ",
"                                                                                                                                                                                                                  q * * O 6 ! H D D F F D F F J J I I I I I I I V Y >.2.<.<.<.<.1.<.*.*.*.*.<.<.4.L.~.L.K.G.&.@.&.%.@.@.#.#.>.<.%.*.<.<.<.<.1.1.1.1.1.1.1.2.@.( W W J j = . . X g k. X XXX@Xa.^ ] } x ; X X X , x Q K K K P L L B ] [ [ [ [ ;.7.I.8.8.I.I.Y.Y.I.3.u O . . > [ !.I.!.8.[ ] ] ] K g ; : 7 i 2.[.[.}.$X$X6X6X6X;XK.[ V U J 7 % @ @ @ # * O $ w ^  .,.>.K.{.;X6X;X~.V 5 = * q H D J J B =.-.-.9.d.u O o o > ] 8.8.8.3.[ V G G D 9 @ @ @ : ..h.s.s.t.p y y t r O . . o + # , , , 4 @ 4 4 4 4 4 4 , , ; , ; @ ; 1 c zXkXkXkXkXnXbXbXbXNXNXNXbXbXbXnXnXnXnXnXnXnXkXkXkXkXkXkXkXkXkXkXkXfXXXg.g.c.g.z.c.c.v.v.v.v.v.v.v.v.v.v.v.v./.b.b.n.c.} 9 < ; 2 , , , , , , 1 2 2 c                                                                                                                                                       ",
"                                                                                                                                                                                                                p.3 + 4 . , g g 0 h 9 y q p p j D J F F W Y W ) ( _ *.1.<.<.<.<.2.>.&.*.J.K.G.G.H.1.1.1.2.<.>.#.#.#.#.#.<.<.%.@.) ) ) ) ) ` 2.:.:.2.+.>.#.+.[ Y U R L j * . . O t f.oX.XoX/.s.| | | l > O @ @ @ b g g r t P K G B ] [ [ [ ] |  .O.,.$.=.8.!.!.I.3.u O X . : P O.=.3. .H k h d h p d u u B  .z.z././._.(._./.z.3.Q K K J s B M C C C f f s D L ] ] | ,.j.j.l.z.j.D u t y p D D B B B ] [ | o.o.y O O X > | z.7.7.-.V B G P z 1 o o 4 , g v v v g 2 3 3 3 , @ o X X * q.n.n.c.c.g.c.c.c.c.c.c.c.c.k.f.e.e.e.t.n.pXpXpX2X2X2X2X2XsXsXsXsXsXsXsX2X2X<XsXsX2X2X<X<X<X2X<X<X<X<X<X<X<X1XoXn.g.j.z.v.v.v.v.v.v.v.v.v.v.g.s.s.h.s.d.v.b.b.z.s.| L L | | | | | | | | | o.t.x.                                                                                                                                                    ",
"                                                                                                                                                                                                        v 3 , , 3 + + 4 # X @ X O % O O O % % 6 Z F F F E ) ) ` @.%.1.4.1.<.<.<.<.<.<.4.~.~.~.~.1.&.%.<.@.@.@.@.>.>.>.>.<.<.@.@.V V V Y Y ( _ ( ( _ ( +.+.+.Y Y Y R L j * . . X t k..X.X.X/.s.| o.o.l : O O @ # # # @ % : s D D B G ] [ [ ] ] ] [ [ [ $.8.!.Y.I.3.u O . . * d ] B G s 6 = % > 1 l D P D G U [ [ U U Y Y U Y U m K P P ]  .,.3.3.7.7.d.d.3. .G D P D G U U Y U F L l l l j P D F l f B B D L K : X . O % ] 7.7.I.3.[ V G P x 1 O @ @ o , ; , , , @ # @ @ @ # + o O r +XzXxXkXkXkXkXkXkXkXkXxXkXxXkXpX,X,X<XXXXX1XoXXX.X.X.X.X.X.XXXXXXXXXXXXXXX.XoXXXXXXX.X.XoXoXoXoXoX X X X X X Xb.c.g.z.v.v.v.b.b.b.b.b.b.b.v.s. .|  . .s.z.v.v.v.c.c.v.n.b.b.b.b.b.b.b.b.b.b.g...t : , 2 2 3 , 2 v                                                                                                                                   ",
"                                                                                                                                                                                                        g @ X # o # # . . X X O o o X X X O $ 9 j D F F Y ) _ _ @.&.<.1.2.<.<.<.<.%.<.4.~.~.~.~.6.%.@.@.@.@.@.#.<.<.>.>.>.<.@.@.I I V W W Y ( ( _ ( _ Y Y Y Y Y Y E R j * . . O t k.XXXX.X/.d. .o.o.H : O O # # + o X X : j D D B G ] ] ] ] ] ] ] ] V $.8.!.Y.I.3.f O + . * t P B J s 6 = O O : l K ] L G U ] U U U U V V U U N P P D G ,.d.z.z.7.7.7.z.d.O.G B B B G U U U [ U J D P P l D P J P D P D D P K 1 o O O % G 7.7.7.3.[ V D K x r @ ; ; % ; * * * * @ @ @ @ @ @ @ @ X : +XcXcXNXbXNXkXkXkXkXkXxXkXkXkX<XXXXX1X1XXXXXXXXX.XXX.X.XoX.XoXXXXXoXoX.XoXoXoXoXoXoXoXoXoXoXoX X X X X X X X Xb.n.v.v.v.v.v.b.b.b.b.b.b.b.b.h.X. . .X.h.v.v.v.v.v.v.n.n.n.n.b.b.n.n.n.v.n.n.n.} 9 O X o # # @ @ g                                                                                                                                   ",
"                                                                                                                                                                                                        g * . X X @ o . O O X O o . . . X X O 9 j D F F I +.+.) ;.:.<.2.1.<.<.<.<.%.*.1.~.~.~.~.6.<.@.&.@.@.@.>.#.>.:.:.>.<.@.+.I m I I W Y ) ) ) Y _ Y Y Y Y E Y E R Z * . . X t k.XXXX.X/.h. .o.o.z 9 O @ # # # X X X : l D D B G ] ] ] | | | ] ] 0.$.8.^.Y.Y.3.u O X + , h K L L j 6 > % % : l K ] G G U ] [ V V V V V V B B G G B B ,.3.7.7.7.7.3.3.3.$.B B B B B V V U U G B B B l l D P L K P P P D D K q O o . % L d.z.7.3.[ D P ! z r O O % % : % * * * * * * * O O O O % 6 +XcXxXNXNXkXkXkXkXkXkXkXkXkXfX<XXXXXoXoX>XOXXXXX.XXX.X.X.XXXXXXXXXXXoXoXoXoXoXoXoXoX.X.XoXoXoX.XoXoXoXoXoXoX.X Xb.b././././././.b.b.b.b.b.b.g.s.,.X.,.g.v.v.b.v.v.v.c.v.n.b.n.n.n.b.n.n.n.n.h.L 9 > % O # # # o 2                                                                                                                                   ",
"                                                                                                                                                                                                        h 9 : 9 : : : : : : : % < ; < < < < 9 9 j j Z m F E ;.) ) ;.2.5.2.&.&.<.<.%.<.1.~.~.~.~.6.&.@.&.&.@.%.@.:.<.:.:.:.>.@.) F m I I I E E ) ) Y Y E E ) E Y ( ) R S * X . X t k.XXXX.X/.h. .o.o.z 1 @ # # # o . . X : d P P B G L P K K Q ] ] ] [ $.8.^.Y.Y.d.u % X + , g z K H p 9 6 > > y l K L L G ] [ [ [ [ [ [ [ U V V B V V B $.3.3.3.7.7.7.7.7.=.0.V 0.[ [ [ [ [ [ [ B G B G P P P P l l P P P D z y - o O * P d.z.7.3.L l D H x y : 9 9 q t t t t g t t t y q q q 9 6 p XXkXkXkXkXnXkXkXkXkXkXkXkXkXfX1XXXXX.X.XXX XoXoXoX X(.(. XoX X X X X X@XV.@Xb.b.b.b.b./././././././././.@X@X Xb.v.v.v.v.v.v.v.v.v.v.v.v.n.n.s.X.o. .o.h.c.z.l.z.c.v.v.c.v.v.v.v.v.v.v.v.v.v.c.| 9 & % * @ o @ @ g                                                                                                                                   ",
"                                                                                                                                                                                                      x.{ ..! ! { ! } } K Q { { ~ Q ! } } } { l y 0 0 0 w a Z a m I E :.;.( @.%.&.%.%.<.J.H.G.H.2.@.@.<.&.&.%.@.:.:.@._ +.+.E W Z M n M I j./././.j.Y Y Y Y Y Y ( ) E H > X . O t k.XX.X.X/.h. .o...z 1 O # # + . . o X : l K P P D u 0 9 y h K ] ] B [ 8.^.Y.Y.d.u % X + # 1 r y y t h k h d l P K G G | ,.3.3.3.=.=.$.$.[ [ 3.=.3.=.$.=.=.=.=.$.-.9.8.!.8.7.-.-.7.3.$.[ [ =.=.=.=.=.O.o.G l l l l P P P D z t r r r y P | [ [ ] d 7 9 9 y Q w...e.y.V.V.V.V.V.n.V.n.n.x.x.x.x.n.k.,XpXpX2XsXsX3X2X2X<X<X<X<X<X<XXXoX.X.XXXXXoXXXXXoXv.j.j.j.j.s.a.a.a.a.a.a.a.e.e.e.e.,.,.a.a.a.a.a.a.a.a.a.a.,.,.X.,.,.X.X.X. . . . . . .o.o.| L L J L ,.z.c.v.v.v.v.c.c.c.v.b.b.b././.v.v.v.c.,.K H z z r * o o 2                                                                                                                                   ",
"                                                                                                                                                                                                2 , 2 Q k.V.@Xn.n.n.b.b.n.n.V.V.b.b.b. XV.V.@X..: % % > * * : * 5 8 m I I V Y @.@.@.@.@.<.%.%.*.&.#.&.&.&.&.<.%.@.:.+.Y Y Y I m i 8 w 8 | OXfXgXfXOXY W W E W Y _ ` E J > O o o p k.XXXX.X/.h. .....z < O # # + . . . X : h D P P d > O O % 9 x K K B [ 7.I.Y.Y.d.d % O + + @ O O O 6 k Q } ] ] ] | ] [  .3.z.z.z.z.8.7.7.3.7.z.!._.!.8.-.=.$.=.-.8.!.^._.^.^.^.^.-X_.8.3.3.3.3.3.8.7.z.3.G l j s l l P P l K h z x z l l P B G l 9 X O O 6 w.@XoXXX<XxXBXBXBXBXBXBXBXBXBXBXNXcXcXdX<X XXXoX.X.XOX.XOX.X.X.X.XXXXXoXoXoX X X XoX XoX/.s. . . .E m n s j Z j j Z d s d d s j n n n Z Z Z A A A A m Z Z Z Z Z Z m A m m m m m n n Z s s s n | j.l.l.d.j.g.g.d.c.b.v.v.v.v.v.v.v.v.v.c.n.n.n.k.x : @ @ r                                                                                                                                   ",
"                                                                                                                                                                                              q.4 # X h k.c.b.v.b.b.v.n.b.V.b.V./././. X/.b.oXQ : O O * @ @ * @ $ 7 n F F m Y :.:.:.:.@.<.@.@.&.#.#.#.&.%.<.<.%.&.:.@.Y Y Y I m a w w 8 | <XgXfXgX3XN I E E W Y _ ` ) J > O o O h g.XXXX.X/.h. ...{ x < o # # + o . . X < x K P K k : % X O 1 h } ] G [ 7.I.Y.Y.d.d % O X # O . O . : k K } | ] ] [ [ [ =.7.8.z.8.8.8.9.9.3.7.!._._._.!.=.=.$.=.-.!.^.^.^.^.^.^.^.).!.7.-.=.=.9.9.8.9.z.3.G l l l l D D D l P D l l l l D B B B h : . X X : ..Z. X XXXkXNXBXBXBXBXBXBXBXBXBXNXNXxXkX<X XOXoX.XOX.X.X.X.X.XOXXXXXXXXX.X.XXXXXoX X XXX/.s.E E  .E m M a a a a a n s s s s s Z n n n Z A A A A A A F F F S Z A A A A m m m m m m m s s s s n | j.l.g.d.j.j.g.g.g.v.v.v.v.v.v.v.z.z.v.v.c.n.n.x.Q : . # r                                                                                                                                   ",
"                                                                                                                                                                                              q.4 o * h f.c.v.v.b.b.b.b.b.b.V.V././.(././.b.oXH & % O @ @ @ @ @ & = j J F F U ,.;.>.+.>.@.@.@.@.#.#.#.&.&.<.<.<.&.:.+.Y W E I m w w 0 0 | <XfXfXfX3XI I Y I E Y _ :.;.J 6 O O % t g.XX.X X/.s.^ { { k ; X X o + + # . X < x Q K Q h : X . X 1 x } ] G [ -.I.Y.I.d.f $ X O O O X O O > p L ] ] ] [ [ [ $.$.-.8.I.8.9.9.8.7.-.7.I.!.^.^.I.-.$.$.=.-.!._.^.^.^.^.^.^.^.I.7.=.-.9.-.7.8.8.z.3.G f D s n B B B B B B D l s l l B D n g < . . . : { V.b.@XoXkXNXNXNXBXNXBXBXNXNXNXNXNXNXlX<XOXOXOXOXOXoX.X.XXXXXXX>XXXXXXXXXXXXXXXoXoXoXXX/.,.E E +.E m n n n n n n n a a a a n n M n n A A m m A m m m A A F F S A A m m m m m A Z n s n n a n | g.g.l.j.j.g.g.g.c.v.b.v.v.v.v.v.z.v.v.v.v.n.n.k.Q > o o q                                                                                                                                   ",
"                                                                                                                                                                                              q.@ o @ t e.g.l.v.c.c.c.c.n.n.n.b.v./. X X Xb.Z...9 9 9 9 9 1 < < 9 t j j s Z L  . .;. .;.;.@.#.<.#.#.#.<.<.<.<.:.:.:.+.Y Y Y I m w u w u L  X<X<X2XOXF m I W ) ) _ ` E F 9 % O % h k.XX.XoX/.s.| { } h ; . o o + o o . o < h z z z g : O . X 1 h } ] ] [ -.I.I.I.3.B 5 & % % % % O % 6 s ] ] ] ] [ [ $.$.=.-.8.I.I.I.I.I.-.-.7.I.^.^.^.I.-.=.=.=.7.I._.^.^.^.^.^.^.^.Y.I.-.9.9.-.7.7.7.8.3.U B B B B B B B B V V B B B B B B D D g , . . . * Q k.c.b./.fXNXNXNXNXNXNXNXNXNXNXNXNXkXlX2X1X1X1XOXOXOXXXoXoX X XoX XoX X X X X XZ.V.b.b.l.,.E E Y E m M M n M M n M M M M n M n n m m m m m V I W W I A m A A A A F m V m m m m m n M s a i s ^ a.h.g.h.g.g.h.h.h.g.v.c.d.d.j.v./.v.v.v.v.n.b.k.Q : o o 2                                                                                                                                   ",
"                                                                                                                                                                                              c 4 o X 9 Q .... .,.,.a.s.s.f.h.g.h.g.c.n.b.b.n.n.n.n.n.V.V.n.x.x.x.y.x y y 0 y 0 u a i m ;.;.>.#.#.&.&.<.@.@._ ( _ ) ) Y W Y I I Z Z Z n s D D F R R A I R I Y Y @.:.;.J 9 % O % d g..X.XoXb.a.! { } h * . . o o + # o o ; 1 y q q < @ X . o 1 h K ] G [ =.7.8.-.3.[ V B B D P P P P P P L G ] [ $.3.-.-.7.I.^.^.Y.I.I.I.I.I.I.I.^.^.^.I.I.I.I.8.8.8.I.I.I.Y.^.^.].].^.Y.Y.Y.Y.I.7.=.$.$.[ [ [ [ [ [ =.=.=.=.=.$.$.[ [ [ G l s d g ; . . . % l y.s.a.h.sXNXNXNXNXfXfXdXfXsXsXsXsXsX2X<XOX<XOXOXOXOXOX.X/.,.R ....| ! ! ! ! ! ! ! ! L R R E +.+.+.W I I T T E E I W T W T E E E E ) ) ) ) ;.2.2.2.;.I M n Z A T E ;.;.+._ ) E E R F n s i a D R ^ R R R R R R R R | ^ R R ;.j.z.z.v.v.v.b.b.c.Q & o o 2                                                                                                                                   ",
"                                                                                                                                                                                              c # o X : z ! ! ! | | | | ..o.X.e.t.t.k.c.n.b.n.<XkXxXNXNXkXsXsXsXdXZ.y X X X % X X $ $ 7 ;.>.>.#.<.<.<.<.<.@.) W Y Y Y W I Y Y Y ;. .;. .F 8 5 6 5 0 Z F T I E ;._ ) E Z 6 % % : h g.XX.X.Xb.s.^ } } h * . . . . # + o o o O O % O o . . . X 1 x K K G U [ =.=.=.7.8.!.(.(.!.m.v.m.z.3.[ G G G [ -.9.8.8.I.^.:X:X:X^.^.^.^.^.^.^.^.^.^.^.^.^._._.I.I.7.-.9.I.Y.^.].:X:X^.:X:X:X^.=.0.0.0.[ 3.z.z.z.z._._._._._.!.8.7.7.,.R l d d g ; . . . * k e.o. .,.2XNXNXNXNX<X<X<X<X<X<X<X<X<X<XOXOX>XOXOXOXOXOX>Xb.L w a p p p p p p u y 0 w w i A E +.+.+.) E ) ;.;.+.+.+.;.;.;.;.+.;.:.:.:.>.:.<.1.H.R.R.5.E C M n A E ,.5.6.5.2.>.:.;. .R D n n M M n n n n Z Z n n M n s s s n R j.v.v.z.c.v.b.b.c.K % o o 2                                                                                                                                   ",
"                                                                                                                                                                                              c # . . ; z Q ! ! ........o.e.e.e.e.e.h.c.n.n.g.sXNXNXNXNXkXsX2X2XdXZ.q . X . O O X $ $ 7 ,.;.:.@.%.<.<.<.<.@.) W W W Y Y E U E Y ;.E  . .F 7 5 7 0 0 Z A I I Y E @.;. .D 9 = % % j c.OX.X(.b.s.| { } h * . . . . o o + # o X X O o o . o . . : h K P G G [ =.=.=.=.8._._._.!.!.8.!.!.8.[ G G ] [ -.8.8.8.I.^.:X:X:X:X].].^.^.^.^.^.^.^.^.^.^.^.^.^.I.-.-.-.8.^.^.].:X:X:X:X:X^.^.-.[ [ [ [ 7.z.8.8.8.!._._._._.I.8.8.z.3.R s d d r * . . . * k w.e.o.,.2XNXnXnXNX<X<X<X<X<X<X<X<X<X<X<XOXOXOXOXOXOXOXOX/.^ i a u p u p p u u w 0 w w w F ) +.+.@._ ( ) +.+.+.+.+.@.;.;.;.;.;.@.@.<.&.%.%.1.J.K.J.j.) C M n A R >.5.6.1.1.<.:.;. .I m n m m n n n Z Z Z Z n n s s d s s n R j.v.z.z.l.n.n.b.c.Q > o o 2                                                                                                                                   ",
"                                                                                                                                                                                              c # . . ; z Q ! ! ! ! } { ....e.e.t.e.f.k.c.c.g.<XkXNXNXNXkXsX2XsXaXB.9 . X . . . X $ $ 7 ,.,.>.:.<.<.2.2.<.@.Y W Y Y Y E E E E E ;.+.;. .J 7 5 6 6 0 D S I I W W Y +. .H 6 % * : j c.<X>X.Xb.s.| { } h % . . . . . . + # # X o @ # # # o o X : h K P G G [ =.=.=.-.I.!.^.^.I.I.I.I.!.9.[ 0.G ] [ -.8.8.8.I.^.:X:X].].^.Y.Y.^.^.^.^.^.^.^.^.^.^.^.^.I.9.9.9.I.^.^.^.].:X].:X:X^._.7.[ ] ] [ 3.8.8.I.I.^.^.^._.^.I.7.7.7.3.L d p h r * . . . * k w.w.o.a.2XnXnXnXNX<X<X<X<X<X<X<X<X<X<X<X<X<XOXOXOXOXOXOX/.E i i w a p u p p p p p p w w I +.+.@.@._ ( ( +.+._ @.+.@.@.@.@.@.@.@.@.%.%.%.%.1.K.L.K.6.Y M M M n I :.2.1.1.*.%.:.;.;.I m M M n n Z Z Z Z Z j s s s s d d s s R j.v.v.v.v.v.v.n.k.Q > o o 2                                                                                                                                   ",
"                                                                                                                                                                                              c + . . * z ~ ~ ~ ~ } } { ..w.e.e.X. .s.g.g.c.c.<XnXNXNXkXdXpX<XpXdXB.t X X . # # O $ $ 7  .:.>.2.2.1.6.6.2.@.) Y Y Y Y E E Y Y Y ( ) ) E J 0 7 6 7 w Z A A I Y E Y E R H 0 > : : L v.>X>XXXb.s.o.{ { h % . . . . . + + + + X X # + o # # o X : l P P P G [ ,.$.=.=.I.Y.Y.Y.Y.I.I.I.I.7.[ 0.G [  .=.8.I.I.I.^.^.^.].].].^.^.^.^.^.^.^.^.^.^.^.^.^.^.I.9.9.9.8.^.^.^.^.:X].].:X^.^.7.[ ] ] [ 8.Y.^.I.I.^.^.^.!.^.7.7.7.7.3.L d h k 9 % . . . @ v w.w...X.<XnXnXnXnX<X<X<X<X<X<X<X<X1X<X1XOX>XOXOX>XOX<XOX/.E w i a w u i a p w w 0 p w w T ;.>.@.@.( ( ( +.( ( @.$.@.@.@.@.@.@.@.%.%.%.%.%.*.K.K.K.6.( C M M m Y :.2.1.*.%.%.@.+.;.R F m m n n Z n Z Z D Z Z Z s s d j a s R h.v.l.g.l.c.v.n.k.H % o o 2                                                                                                                                   ",
"                                                                                                                                                                                              c + . . @ g k k k h h h h h j j S N N  .,.d.d.h.(.2XsXsXsX<XXXXX<X,X+Xy.q.q.c c v v x k j T m ' V _ _ &.:.@.) Y Y Y U U E E Y W Y Y ) Y I S w a w w s Z S F I C M M 8 i D } r.u.w...c././.c.h.o.o...{ h * . . . . . . . . o o # # # # # o o X : d P P B B [ [ [ [ #.I.^.Y.Y.I.-.-.-.-.=.0.0.[ [ [ =.8.8.7.8.I.Y.Y.Y.Y.Y.Y.Y.Y.Y.Y.I.I.I.Y.Y.^.^.^.^.I.9.9.-.8.^.:X^.:X].].].].^.^.7.[ [ ] [ =.=.-.-.-.!.^.^.!.^.-.-.=.=.[ l 0 9 r 1 O . . . @ v r.r.w.a.<XnXnXnXnX<X<X<X<X<XXX X X X X X X X(./.(.(.(./.j.E M n n n Z J L J Z a w w w i R 5.j.6.6.@.$.@.@.@.@.&.&.<.<.<.<.<.<.<.<.*.1.*.*.P.K.K.K.6.+.m C M F +.5.6.H.G.*.%.@.:.:.E I I I F F D Z Z D D D D H D s d s p a F  .,.X.,.h.g.n.n.k.K & . o 2                                                                                                                                   ",
"                                                                                                                                                                                              c o . . . o o o . . o o # # @ * * ; ; g r.y.t.t.f.f.f.s.t.g.c.n.v.v. XsXsXfXsX<X X XV.Z.e.% % ; : M R U E E Y W ) Y Y Y E E R R R J J F F F F A A F n J J H Z w & O O % t n.<X<X>X(.j.,.s.,.a.e.X.X...k * . . . . . . X X . o + # + + o # o O < h Q K l B P B B G V 8.^.^._.8.0.V V [ [ [ ] ] [ [ 3.8.8.8.-.[ [ [ [ $.I.^.Y.^.!.7.3.-.-.-.Y.^.:X^.^.I.-.7.-.I.^.:X^.^.^.].].^.^.^.8.7.=.3.3.[ V 0.0.V _._._._._.$.V G J H : . . . . . . . . @ k r.w.o.e.<XkXkXkXnX<XOX1X1X<Xo.J D Z F F F F F A m M m m m A T R U U +.R.H.6.5.C f w 8 8 <.~.~.~.~.H.1.2.6.1.4.H.H.H.H.H.H.G.G.G.G.H.H.H.H.G.H.K.K.6.@.( Y Y _ 1.E.~.~.L.P.*.1.2.2.&.&.#.>.>.Y m m m A R ;.;.;.+.V a a p p p p p p Z o.c.n.V.k.Q > o o 2                                                                                                                                   ",
"                                                                                                                                                                                              c . . . . . . . o . . o o # # @ @ @ O q { w.e.e.t.e.y.e.e.k.c.c.v.v.@XsXfXlXlXsXoXXXoXoXf.% % % ; w T I E E ) Y Y Y Y Y Y E R R R T T T T T T T T R J F Z j j 0 $ X X = t n.<X<X<X(.j.s.h.h.s.s.X.e...x ; . . . . . . . . . o + + # + o o o . ; h z K P P P G G ] 0.I._._._.8.$.0.V V G G ] ] [ [ =.9.9.9.-.[ 0.V V [ 8.^.Y.^.!.7.3.=.=.-.Y.^.:X^.!.I.7.7.7.I.^.^.^.:X^.^.^.^.:X^.8.-.=.3.3.[ V [ [ V !._.).)._.#.V G J K : . . . . . . . . @ k r.w.o.a.<XNXkXkXnXOXOXOXOXXX| Z n n n n M n m M M m M M m I E E Y Y @.R.H.H.6.m i p w M 2.~.[.~.~.H.1.1.6.1.4.H.H.H.H.H.H.G.G.G.G.G.G.G.G.G.G.K.K.6.@.( Y ( _ 1.E.~.~.L.K.P.1.2.2.&.&.#.>.>.E N N n m R ;.;.;.+.V n a a p p p p a n  .g.c.n.k.H = o o 2                                                                                                                                   ",
"                                                                                                                                                                                              c @ . . o . o . . . . o o # # # @ @ @ r { t.t.w.e.e.e.e.e.f.k.c.c.c.oXsXdXlXkX2X X XoX@Xf.$ = $ * 8 T R E R E ) ) Y Y Y Y ) Y E E U I I I W W T T S J J H H H q X X X X u n.<X2X<X(.d.,.,.,.a.s.e.e...x ; . . . o . . . . . + + + + + o o o X < h z z l l D n B G 0.8.!._._.8.0.V V U G G G ] ] [ =.7.9.9.=.[ V V U [ 8.^.^.^.!.7.3.=.=.-.!.).:X^.!.8.7.-.-.8.!.^.^.^.^.^.^.^.^.^.8.-.=.3.3.[ G [ 0.V !._.).)._.=.0.G G K : . . . . . . . . @ k r.w.e.a.<XNXkXkXnXOXXXOXOXOX^ Z s F F A n M M M C M M M M V Y E Y Y @.R.J.R.1.C f w 8 M 2.~.[.~.~.K.4.1.6.4.1.H.G.H.H.H.H.G.H.H.H.G.G.G.G.G.H.K.K.H.&.( ( ( _ 4.~.~.`.U.L.P.1.2.2.&.&.#.>.>.E N F n m R ;.;.;.+.V i i u w w w u a n  .g.b.V.k.Q > o o 2                                                                                                                                   ",
"                                                                                                                                                                                                o . . . . . . . o o + # # # # @ o @ q ~ r.y.e.y.y.f.y.y.k.x.n.n.n.oXsXdXlXfX2XOX X XV.t.& % % $ p J o. . .E E Y Y Y Y Y Y Y Y Y Y Y Y Y Y Y T T T ^ J H H j 9 * O X $ p c.<X<X<X.Xv.s.s.f.f.t.e.t.w.x 1 o . . . . . . . . . . + + . . o o o , g z Q K P P P P L [ 8._.).).8.$.0.U G G ] ] ] ] [ =.7.9.9.-.[ V G ] [ 8.!.!._.!.8.=.=.-.7.!.).-X).!.I.8.7.7.8._.).:X:X^.:X].^.^.^.8.-.=.3.3.] G L ] [ (.(.).)._.3.[ ] ] L 9 . . . . . . . . * x r.e.e.a.pXNXnXkXnXXXXXXXOXXXR s a a M n M C M C C C C C C W Y Y Y Y @.R.R.R.6.V M i w C 2.~.[.~.~.K.G.6.6.6.1.G.G.H.H.H.H.G.G.H.H.G.G.G.G.G.G.H.K.J.&.( ( ( @.G.~.~.`.U.L.P.*.1.2.&.&.@.>.>.E N F m m R ;.;.:.+.W M i i i u u u a n  .g.n.b.k.Q : o o 2                                                                                                                                   ",
"                                                                                                                                                                                                        , o o o # # # # # # # @ @ @ @ 1 9 9 9 y z c x x Q { ..w...f.b.oXXXXXXX<X2X2XsXXXf.k.x.k...k 0 7 w M T E W Y Y Y Y Y Y Y ( ( Y Y Y Y Y R T J 7 6 9 q x r.t.y.e.t.g.c.v.v.g.d.s.s.s...l u q 1 ; o . . . o 1 r q q < # # # o o . . o . o ; 1 9 9 0 d l D D 0.[ =.=.=.$.0.B ] G ] ] G U ] [ =.7.9.9.=.[ G G B G =.-.-.7.-.-.7.7.-.3.=.$.$.$.=.7.7.7.7.3.=.$.$.$.=.I.^.^.^.^.9.=.=.3.3.l u u u f 3.3.3.3.=.[ [ ] ] } 9 X . . . o . . . * z r.e.e.a.sXNXNXkXnXXXXXXXXXXXL s i M F U  .+.+.@.@.+.@.@.@.@.@.@.@.@.<.R.E.R.H.Y V F m V 6.~.~.~.~.K.G.4.H.4.1.G.G.H.H.H.H.G.G.G.G.G.G.H.G.G.H.H.K.J.*.( ( ( @.G.~.`.`.U.K.G.1.1.<.&.&.@.>.>.E N m m m I ;.;.;.+.( T I I F n a i a a R X.f.g.e.j % o X 2                                                                                                                                   ",
"                                                                                                                                                                                                        , . o @ o # o # # # # @ o # . O O O O ; q r 1 1 g z Q ~ Q { e.g.h.l./.sXkXfXlX2XoXoX+XZ.r.t > 5 7 u F T T I W W W Y Y Y Y Y Y Y Y Y R R ^ H $ X X O g k.V.V.n.g.a.X.X.s.s.h.h.h.f.! y & ; ; @ o # . . o 2 h g g r O . . . o . . o . . . X X O > t l D P B 0.0.0.0.[ ] ] G G L ] G G U [ =.7.7.7.=.[ G B B G $.=.=.=.-.7.-.7.7.3.[ V V U [ 3.8.8.8.3.[ V V V 0.8.^.^.^.Y.-.=.=.3.o.u % % > & B ] [ 0.[ 0.[ [ | ] 9 O . . o # o o . ; z e.e.e.a.sXNXNXnXnXXXXXXXXXXXJ i i a F +.>.2.2.4.H.J.J.R.J.1.*.@.&.&.4.K.K.K.H.@.( E Y Y H.~.~.~.~.K.G.4.H.4.4.4.G.4.4.G.G.G.G.G.G.G.G.G.G.G.G.H.K.J.*.( ( _ @.G.~.`.`.T.L.G.P.1.1.&.%.@.#.>.E N m m M I +.;.@.@.@.+.;. .E F n a a n J | o.X...h % o o q                                                                                                                                   ",
"                                                                                                                                                                                                        ; o o X o @ O @ o o O O o # . X X . . X ; < ; , g c ~ ~ ~ { e.f.a.h./.fXgXgXfX2XoXXX<XoXr.q & $ & 7 Z ^ R T I I I U W W W W W Y E E R R J j X X X X g x.n.b.x.g.s.a.,.s.s.h.h.f.f.} y % o o o # o . X % q x h h g % X . . . . . + . . . . . X % t H P P B B B ] ] ] ] ] L L L L G G U [ =.7.7.7.=.[ B B B G [ =.=.=.=.-.-.7.7.3.U B B B G =.9.9.7.3.[ B C N [ 8._.^.^.^.-.=.3.,.o.9 O O O % j G G [ [ [ [ | | } y O o . o # o o . ; x u.e.e.a.sXNXNXkXnX<XXXXXXXXXJ a i i F ;.2.2.1.4.H.!.!.R.K.1.%.@.&.&.G.K.K.K.H.&.+.E Y ( H.~.~.~.~.K.G.4.G.4.4.4.4.4.4.4.4.G.G.G.G.G.G.G.G.G.G.H.K.H.*._ _ _ %.G.~.`.`.`.L.P.P.1.1.*.&.@.>.>.E N m m M I ;.;.+.@.@.+.+.;.E F M a M Z L | ..o.{ h * o X r                                                                                                                                   ",
"                                                                                                                                                                                                        , # o o O O O O o O O O o @ . X X X . * , , , , g c } ~ } w.y.x.g.l./.fXgXgXfXsXoXXX<XXXr.6 & $ = 0 H ! L L J J T T T T E E R R R E ^ ^ ! H X X . X g k.x.n.n.c.X.o.o.s.a.h.f.f.y.~ 9 % @ @ o o O X O % 0 j t p q $ X X . o o . . . . . . . X * t z H H P P P G G L L L ] L L ] G G U [ =.7.7.3.,.] B B G G [ =.3.3.=.-.-.7.-.3.U G G G [ 3.8.8.8.3.[ N B B [ z._._.^.!.-.$.=.,.o.9 X X X O x ] ] ] [ o.o.......r O o o o # o o . ; x e.e.e.a.2XNXnXnXnX<XXXXXXXXXH p u u m +.>.&.%.1.K.!.L.L.K.1.%.@.*.*.G.K.L.L.K.&.( E ) ( H.~.~.~.~.K.G.G.G.4.4.4.4.4.4.4.4.4.G.G.G.G.G.G.G.G.G.H.H.H.*._ _ _ %.H.~.`.`.~.L.G.G.1.1.*.&.@.>.>.E N m m M I ;.;.+.@.@.+.@.;.E F M s M n L | o.X.{ h = o o 2                                                                                                                                   ",
"                                                                                                                                                                                                        ; O * O O ; ; * O * X O o @ . X X X X X ; , , 3 r c } q.{ w.f.k.g.g./.fXgXgXgXsXXXXX<X X..0 % % = 9 H ! H H J J L L ! ! R R R ^ ! | | ! ..z % $ % X t k.c.c.n.c.X.o.X.e.t.t.f.f.y.Q q O , @ X O % O $ & 0 p j k 9 = $ X . . . . . . . . . . . * h z z Q z K K K L ] L L } L ] ] ] ] [ [ =.3.7.3.3.] B B B ]  .3.3.3.3.7.-.-.7.3.] B B B ] 3.8.8.8.3.[ B B B [ z.(._.!.!.=.=.[ O...9 X O X @ c { ........o.} ..} r @ # @ # # # # o : c t.e.e.a.2XNXNXkXNXXXXXXXoX+XH u w i i E 2.*.%.*.G.K.K.K.P.P.*.%.%.*.G.K.K.L.K.*.$.+.) @.H.~.~.~.~.K.G.4.4.4.4.4.4.4.4.4.4.4.G.G.4.G.G.G.G.G.G.G.G.H.*._ ( _ %.H.~.[.`.~.U.H.G.*.*.*.&.@.@.;.Y N m M M I +.:.@.@.@.@.+.+.E F n M n n L | o.X...h * o o r                                                                                                                                   ",
"                                                                                                                                                                                                        ; O O ; g Q Q Q z c z z v z v g g g g 1 @ # # # * 1 r q r h ~ ..o.o.h..XOXOXOX.X XoXoX Xk.e.e.y.e.z t 6 6 6 9 q q 0 q 0 0 0 0 0 t t t w 0 H w.e.w.! } e.e.X.e.e.....X.o.} K x k h r ; O @ # * q t 0 w p s j S j j u w 0 9 ; O . . . . . . o o X ; < 1 9 1 q q 9 9 y t y y y d P ] ] 0.[ [ [ [ [ ] ] ] [ [ [ [ [ [ [ [ 3.9.-.9.3.[ [ [ [ [ =.=.=.[ [ [ [ [ [ [ $.3.=.=.$.$.[ [ O.| < . # # # 2 r y t y y t y y r , # # # # # o @ O : Q y.e.X.a.2XNXNXNXbX1XXXXXoXoXH u w w i +.R.K.K.K.L.G.H.K.P.G.G.G.G.*.G.L.L.L.K.*.$.+.( ( 1.K.K.K.K.G.G.G.G.G.4.4.6.4.G.G.G.G.G.G.G.G.G.G.G.G.G.G.H.H.*.@.@.@.%.*.H.K.K.K.G.1.*.*.1.%.%.@.@.+.U N m M M I +.:.@.@.@.@.@.+.E F n M M n L ..o.e...h * o o r                                                                                                                                   ",
"                                                                                                                                                                                                        < * O : h t.r.e.r.r.w.r.q.q.~ Q Q ~ z r . . . . . . . . X < h Q Q ! | s.g.g.g.v. XoX X X XoXXX+X@X{ 6 X O O X X O O O * % % % = = % & & & l oXoX@XV.s.| | | } | | ..o...Q y : ; * * * @ # @ < h H H D F Z Z Z Z Z Z Z S x q * X . . . . . + # o X X O % @ O * ; * * ; % % * 9 j ] ] ] G B B B B G | 3.3.3.3.G B B B V $.-.-.9.7.3.3.3.3.=.[ 0.0.V [ 3.3.3.3.[ [ V B V C 0.[ [ O.} < . + # # @ * O * % % % % % * @ @ @ @ # # # @ O 1 ~ y.e.a.s.sXNXNXkXbX1XXX+XXXoXH u 0 8 8 ;.!.~.~.~.U.H.G.G.G.K.K.K.K.G.K.L.L.L.K.*.$.@.$._ 1.G.4.G.G.G.G.G.G.4.H.6.6.4.4.4.4.4.4.4.G.4.G.G.G.G.G.G.G.6.2.&.%.%.&.*.1.4.4.4.4.<.<.&.<.@.%.#.>.;.U N n M M F +.;.@.@.@.@.@.+.) I n n M Z L ..X.e...k % o # g                                                                                                                                   ",
"                                                                                                                                                                                                        ; * O : h f.t.e.e.w.w.w.{ { ~ Q Q } ~ q . . . . . . . . . ; h Q H Q | X.a.s.s.g. X X/./. XXX1X+XoX} > O . . . . . . X X X X O O % % $ $ & p XXXXXXoXg.| | ..| ........w.~ q * @ O @ * @ @ @ < k H J S F F F Z Z Z Z Z Z z y % X . . . . . . o o . O O O @ o * ; * O * O % % : d K ] ] B B B B n G  .3.9.3.=.G n B n B  .-.=.7.7.9.9.8.8.3.[ V B B [ 3.7.8.7.=.[ B B B C V [  .o.} : . # + 4 # @ o ; O * * ; * * @ @ @ @ # # # @ O 1 Q y.e.a.s.sXNXNXkXbX1XXXXXXXoXH y 0 u 8 ;.!.~.~.~.L.K.H.G.G.K.K.K.K.K.K.L.L.L.K.*.@.@.@.$.2.H.4.G.G.G.G.G.4.4.6.6.6.6.6.1.4.1.1.1.1.4.4.4.4.4.4.4.4.H.1.&.&.&.*.<.1.4.4.<.<.<.<.>.@.@.&.>.:.;.U m M M M F +.;.;.@.@.@.@.@.) I n n M Z L ..e.e...h > # # g                                                                                                                                   ",
"                                                                                                                                                                                                        ; O % > h f.e.e.e.o.........! Q H Q Q 9 X . . . . . . . . ; g Q Q Q ..t.f.t.g.c. Xb./.b./.XXOXXXoXQ $ . . . . . X X X X X X O % % % % % & p XX<XXXXXc.,.............w.r.} r O # o @ @ X @ # : p D J F F F S Z Z Z Z Z Z l 0 % . . . . . + . o o . X O X * @ O * * * * ; @ O : h ] ] ] G G G D D G  .3.3.3.=.B B B B G O.3.3.3.3.9.9.9.8.=.[ V B B [ 3.7.7.9.3.[ B B B B [ [ O.o.L : . o o # # @ o ; o * @ * @ @ @ @ # # @ @ # @ O < Q y.e.a.s.2XbXnXbXbX>XXXXXoXoXH u w u 8 +.!.~.~.~.K.4.G.G.G.G.H.K.K.K.K.L.L.L.K.*.@.$.$.@.1.H.G.G.G.G.G.G.4.6.6.6.j.6.6.5.5.5.5.5.5.6.6.6.6.6.6.6.6.6.4.&.@.#.&.<.<.<.<.5.<.<.<.<.>.&.<.@.;.;.R m s i a F  .;.+.@.@.@.@.+.) I n n n Z L o.e.e...h > o # r                                                                                                                                   ",
"                                                                                                                                                                                                        r * : > l s.X.X.X.o.| | } } L K H H H t * O . . O X O O * < q h z z ~ ..y.e.f.g. Xb./.b.n.(..XXXoX} : O X X X X X O O O O % % % % % % & & j XX1XXX.Xv.,.X.........{ w.q.c q @ o X # @ # # o : d J J F F F F F F Z Z Z Z j 0 & X . . o . o + o o o @ @ * * ; * * ; ; o o @ @ , g z K P P B P P D ]  .=.=.=.=.G n B B P o.3.3.3.=.7.9.7.7.3.[ 0.B B [ 3.9.9.9.3.[ B D D B ] [ O.o.] : . . # o ; ; ; 1 @ , < < 3 3 , @ O o @ @ # @ O 1 Q y.e.a.s.2XbXnXnXbXXXXXXXXXoXK u u u w ;.!.!.~.~.L.4.4.G.G.G.G.K.K.K.K.K.L.L.K.*.@.@.@.@.4.H.H.H.G.G.G.G.G.H.6.5.5.5.2.>.>.>.>.>.>.>.>.<.<.2.2.5.5.2.2.&.@.#.#.#.#.>.>.>.>.>.>.>.>.@.:.:.;.[ R n i i i F E ;.+.@.@.@.@.+.) I n n n Z L o.e.e...h % o # r                                                                                                                                   ",
"                                                                                                                                                                                                      p.x x x H o.g.g.g.s.s.| L ! ! L | o.....~ h g g g h h x x k g < < r q t h h h j H g.g.g.g.d.g.c.g.c.e.~ Q ~ ~ ~ ~ ~ ~ ! ! } } { { { { ....! e.n.b.v.v.d.,.e.e.w.{ x h h g r , # o # # # # # o : d F F N N F F F D Z Z n n j p 0 6 < 1 ; # . o o @ 2 g v x c q.r.r.u.~ 2 ; @ @ ; 1 r y y u l P P D G  .3.=.-.=.B n l l P L [ [ [ [ -.9.7.7.7.3.;.$.$.3.7.9.8.9.3.[ P D P D L | | | ] > X O o o v x x c x c q.q.p.q.g @ O @ @ @ # @ O 1 Q y.t.s.s.2XbXnXnXnXOXXXXXXXoXK u y u i E j.R.R.K.K.4.G.G.G.G.H.G.G.K.H.K.L.L.K.*.@.@.@.@.4.J.H.H.G.H.G.G.H.6.&.( W R R I I I I I I I I U U Y Y Y Y ( +.@.@.#.@.+.Y Y E [ E E E Y Y @.@.:.;. .I n i i i F [ ;.+.@.@.@.+.+.) I Z n n Z L o.e.e...k % o # r                                                                                                                                   ",
"                                                                                                                                                                                              c # # @ 1 } y.w.f.g.n.b.n.g.h.R F L L L X.f.f.y.y.{ q.q.q.r.r.u.r.u.} < X * % * % % > % > X.X. .X. . .o.| X.k.V.Z.Z.Z.Z.Z.Z.Z.Z.@XZ.Z.+X+X+XoXoXXXXXV.s.s.s.,.,.,.e.e.t.! 9 O O O X X o o # # + # # o : d F F N N N A Z Z Z Z Z m j j j k k v q * o o . , c r.r.p.i.A.,X,XuXx.g @ 4 @ o O O O % > f l P D G [ =.-.-.=.B n s l l l B B B B =.9.7.7.8.8.j.j.z.8.9.9.9.7.=.[ G P P D J J J L P > . O . @ p.i.D.N.x.C.uXuXuXS.c - O ; # # o @ O 1 Q y.t.s.s.2XnXnXnXnXOXXXXXXXoXK u t u i R 2.4.4.P.P.4.4.4.G.H.J.J.G.K.H.K.K.L.K.*.@.@.@.@.1.J.J.J.H.K.G.G.K.4.( C 8 w w 8 8 8 8 8 8 8 8 i i i f M M ' W +.@.@.( V C M M M M M M M M ( @.:.;. .G M i i i F [ ;.+.@.` @.+.+.) I m n n Z L o.e.e...h % o # g                                                                                                                                   ",
"                                                                                                                                                                                              x @ @ o r } w.o.O.h.n.c.n.x.k.~ Q } Q Q e.f.h.h.X.| | ....o.X.e.s.f.! : % * ; @ @ * @ % : } w.w...w.w.....X.f.b. X/./.(. X X X X X(.(.(..X.X.X.X.XOX.Xs.s.s.s.a.s.X.X.t.} 9 X X . . . + + + + # # 4 , < k H D J A F A S S Z Z n n j s s n n j u > X # . , c r.r.w.k.Z.,X1X1Xx.h * * # # # o o + , d D P B B [ =.3.3. .G s l D l l l P B B =.7.7.7.7.7.8.8.7.7.7.7.9.8.=.[ B B G G J L D L z * X X o o u.k.k.i.k.Z.,X,X+XA.x , @ * # # # @ @ 1 ~ f.s.a.h.sXNXkXkXkXXXXXXXoXoXK u u u u E 5.5.1.H.H.G.G.G.G.6.6.J.K.K.H.K.K.L.K.*.%.` 2.@.6.G.K.K.G.K.G.G.H.1.E n w u u p p w w p w w w w u p p s s M U ( #.#.Y V n p p d d d d j Z V +.+.[ [ I M i i i F E ;.` ` ` @.@.@.) I m n n Z R o.e.e...h % o # r                                                                                                                                   ",
"                                                                                                                                                                                              x @ o o 9 ~ ....X.g.n.c.c.k.y.~ Q Q Q } t.g.h.h.o.| | ..o.X.X.a.s.f.} < * * ; @ @ @ o O ; ~ ......e.e.......f.b. X X X X XoXoXoXoX(.oX(..X.X.X.X.XOX(.h.s.s.s.s.s.t.e.t.} 9 X . . # # # # # # # @ X * < j L J J A A A A A Z Z n n j j n n n Z u > . o . , c r.r.r.k.Z.,X1X,Xx.h @ @ # # # o . o , d D P B ] [ 3.3.3.[ G s n D l D B P B G 3.d.7.7.9.7.7.7.7.7.8.8.8.8.3.[ G G J J J J L L z : X . o o r.k.k.i.k.A.,X,X+XA.v , @ 4 # # # * @ 1 ~ f.s.a.h.sXbXkXkXkXXXXXXXoXoXK u u u i E 5.5.1.1.G.G.G.G.4.6.6.H.H.K.H.K.K.K.K.*.%.%.%.@.H.K.K.K.K.K.K.H.J.6.E n i u u p p w w w w w u u u u i a a M Y +.#.#.Y m w a a d d f a a Z V +.+.+.[ G i i i i m E ;.` ` ` @.@.@.) I m n n Z ^ o.e.e...h % o # 2                                                                                                                                   ",
"                                                                                                                                                                                              c ; @ * q ! w.o.a.h.l.g.g.k.y.} K Q Q } y.g.g.h.X.| | o.,.,.,.,.s.f.} 9 ; * ; , # @ # @ ; c q.q.{ ..w.....o.f.b. X/././././. X X X(. X(. X(.oXoXoX.X/.h.,.,.s.s.t.t.t.t.} q O o o o X X X O O % $ % > 6 k H H D Z A A A A m m n s j j Z Z Z j u : X # # 3 c r.u.u.k.A.uX,X,Xx.g @ @ # # o o . o , p l P B ] =.3.3.3.O.G n l l l l B B B G ,.z.7.7.7.7.8.7.9.7.7.7.7.7.3.[ ] ] G J L P H K x ; . . . o q.k.i.u.i.S.A.+XA.B.v , # @ # # # @ @ 1 ~ f.s.a.h.sXNXkXkXkXXXXXXXoXoXH u u u u E 5.5.1.1.P.G.G.G.4.6.6.H.H.H.H.K.K.K.K.*.%.%.%.$.4.G.G.K.K.G.G.4.6.2.R i 8 u u u a i u u 8 8 8 f f f M M M N E +.+.+.Y V M i i i f i i M n W +.;. .[ J s i i i m E ;.) @.@.@.@.@.+.I m n n Z R X.e.e...h % o # 2                                                                                                                                   ",
"                                                                                                                                                                                              c - @ O < h z j S J ! ! ! Q ~ } Q } Q } f.g.g.c.h.s.s.h.l.g.s.,.,.y.{ x h g g q @ # o o o g g g g j ! ......e.g.g.c.c.c.c.c.v.c.v.c.c.c.c.c.c.v.v.v.l.,.,.s.e.o.L x x x g < o o o * < 9 q q 0 0 0 0 0 0 y t 0 u a A T W W I m n s j j Z Z Z Z p : X # # 4 g x x x F.p.i.i.i.q.q @ @ # o o O X X ; p l P B G ] [ [ [ ] B s l l l l l P B P [ ,.=.=.=.3.8.8.8.3.=.$.$.[ [ ] ] ] G P d u p t r @ . . # # c } c c c q.u.i.u.p.g 4 @ @ # # # @ @ 1 ~ f.s.s.h.sXbXkXkXkXXXXXXXoXoXH y u u w E 5.1.1.1.P.G.4.4.G.6.6.H.H.H.H.K.K.K.K.1.*.*.&.&.&.&.#.&.%.<.<.>.:.;.I M f u u n G F N V U [ [ [ $.$.#.>.>.,.,.U I V U +.:.;.;.$.[ U U R E E U I J F D D n s M F E +.+.@.@.@.@.@.+.I m n n Z R X.e.t...h % o # 2                                                                                                                                   ",
"                                                                                                                                                                                              c - - o @ ; * * * % $ O X O < x c Q Q } f.c.c.v.c.v.v././.v.h.,.,.t.e.r.u.r.q.v @ o o . . + . . X q Q { { { } ....| | | | | o. .o.| | | | | | |  .o.X.o.e.s.o.K 7 ; , , ; # X o O < g l H D D H D D D p 6 % % & 6 F +.+.+.Y m n M j j Z Z j S h < o # # # 4 ; > > , 3 , ; , , # + # # # o o . X ; d l P B B B B B l l d d l l l l l P D B G G B B [ =.3.8.8.3.[ V V V B G G L P D 6 % % % * . . . . . @ # + # 4 , @ 4 , < @ o - - @ # # @ O 1 ~ f.f.s.g.sXbXkXkXkXXXXXXXXXoXH u u w w E 5.1.1.P.G.4.4.4.6.6.H.H.H.H.H.K.G.K.K.H.K.K.K.4.( V V V m m V m m m M f f u s R ,.3.=.7.8.).).).).).{.{.{.(.d.N f M N 5.(.>X-X).!.!.j.j.j.E m M i i Z J J F F I  .+.+.@.@.@.@.@.+.I m n n Z R X.e.e...h % o # 2                                                                                                                                   ",
"                                                                                                                                                                                              c , - - @ o o . X . . . . . ; Q { L L ..g.c.c.b.v././././.v.g.s.a.s.t.f.f.y.r.x @ o + o . . . . . : H { { { { { ..........X.X.X.X.X.X.o.o.X.X.o.X.....o.e.t...z > 4 @ # @ # # O * : t H J D F F F F F s > O X X 5 A ;.:.;.E m m M s j Z Z Z H h < @ @ 4 4 @ O O % 4 4 @ O O @ @ 4 # + # o o . X ; y l P l l B l l d j j j l l l l l l D D B B B C G =.3.8.z.3.[ B B B G G L ] K z > X O . o . + + o . o . . # @ + * @ @ @ o o o o # # # @ O 1 Q f.f.s.g.sXbXkXkXkXXXXXXXXXoXH u u w w E 5.6.6.G.G.G.G.6.6.6.6.H.H.H.G.G.G.K.L.K.K.K.I.J.( C C m M m m M M M M f n i s R 3.7.7.7.I.).).).).].].{.{.>X7.M i i N 7.-X-X-X)._.J.6.6.6.E M w i i n L L L L R  .+.+.@.@.@.@.@.+.I m n n Z ^ X.e.e...h % o # 2                                                                                                                                   ",
"                                                                                                                                                                                              c - @ O @ o o o . . . . X . * c c L ] o.g.c.c.b.b././././.v.h.s.s.s.a.s.e.w.} z O . . . . . . . o 9 Q { { { { { ........w.w.e.e.e.o...............w.w.w...r...K : 4 4 @ @ @ o X O > u D D Z F F A m D a = % $ O 6 Z  .E E E M M M s n Z Z Z D k < # # @ - @ * * * * * ; % % O . o # + # o . . . * y l l l l l l l l x x l l l l l l l P P B B B B B 3.3.3.z.3.[ G B G G L K ] K z 9 O % X o o + + . . . X O O O X X O X O O o O # # # o O O < Q f.s.s.g.sXbXkXkXkXXXXXXXXXXXD u w w i E 5.6.6.G.G.G.G.6.6.6.6.G.G.G.G.H.G.K.K.G.J.J.J.J.Y m m I A m A m M M M f M M M U <.7.-.7.I.).).^.^.].].{.{._.<.M i i N 3.^.:X:X].~.J.6.6.7.E M i i u M L L L L R +.+.+.@.@.@.@.@.) I m M n D ^ X.e.t...h = # # 2                                                                                                                                   ",
"                                                                                                                                                                                              c , @ @ * % % % % % O $ O X * ~ Q ! | w.k.x.x.n.b. X/././.v.f.t.t.s.s.s.X.o.{ x O X X . o . o o X 9 c } ~ } ~ ~ ~ } } { { q.w.w.w.{ { { { { { { { } { w.{ w.{ z : # @ @ @ * * O = > p D D Z F F F F D s > & = O 6 j ! J T I M M M n n m m Z D p 6 * # @ 4 ; > > > > > > > > > O @ + + # . . . . , t x z x l l l x h h h h h l l l P l D P B B B B B  .3.3.3.,.G B G G P P K K K x 1 O O . o # + + o O X O % O % % % > > * O o O # # # o @ O < Q f.s.s.g.sXbXkXkXkX>X>X>XXXXXL u u u 8 Y 6.6.H.G.G.H.G.6.6.6.6.4.G.G.G.G.G.H.H.4.H.6.5.6.W m m m m m V V m m C C C C C V <.6.4.J.!.^.^.^.^.^.].].].^.-.C 8 i m =.^.:X:X].U.J.6.6.7.Y M f i 8 i J F F J R E +.+.@.@.@.@.@.) I m M n D ^ X.e.t...h = # # 2                                                                                                                                   ",
"                                                                                                                                                                                              c , * * 6 j j a a a a j s j k 9 k k z x c c } ..c.V. X@X/.c.g.h.g.d.g.X.X.X.} K t 9 q q q < 2 2 1 g g g g g g g h h h h h x x x x x k k k h h k h h h h h x h r : # @ o * 9 9 : 6 0 a D F F F I I L J Z p 0 0 0 q q q 0 7 w m I I R I A m A D d 6 % * @ ; y h p d f J [ ] ] D : X o + . o . o # 4 1 r r r q q q q q 1 q 1 1 1 r x D P P D D B B B G G [ [ [ ] B B P G D p t t h h : O o o o + # + . . q y p u 7 B G G D K 9 O o o # # o @ o < Q f.s.f.g.<XfXfXfXfXsXsXsXsX<XL u a i i +.6.6.H.G.G.G.G.6.6.6.4.4.4.G.H.G.G.G.G._ V Y W I ) Y Y Y ( +.<.<.#.&.&.&.%.$.&.1.G.I.~.I.K.I.J.I.I.U.].].].].G.V C C V -.^.^.^.^.I.6.7.7.7.$.[ V V I B i n s i F  .+.+.@._ @.@.@.) I n M n Z R X.e.e...h % o # r                                                                                                                                   ",
"                                                                                                                                                                                              c < : : Z c././._._./././.v.e.$ X . . . O . . % ..b./.@X/././.b.b.v.l.X.X.X.o.o.} { q.{ { z c z z q @ . . . o . X X X X O O O O O O X O X . . X . . X . . X O . . # @ @ < g h k j Z F L J T R R T L L J D J H S k : X . X 6 F  .+.,. .F m m Z j 6 % * * 1 z } | | [ z.(.>X(.g.d O # + o o o o + # . . . . . . . . . . X X X X O r D D D D D D B P P B B B B B B B P P d : O O X X O X X o # # # + X O Q } | [ [ z.(.(.(.m.l O . o # # o O o : Q f.f.f.h.OX<X<X1X>XbXNXNXNXkXo.a i i i +.6.6.H.G.G.G.G.G.H.6.6.4.G.G.G.G.G.4.4.V C M M I 5.j.!.!.!.3X4X4X3X4X3X3X3X;X;X-X;X-X{.^.!.1.-.-.-.I.^.].].].~.!._.!.!.!.I.I.I.I.4.$.$.$.$.I._._.!.z.;.i 8 i i m E +.@.@.@._ @.+.) I n n n Z R X.e.e...h % o # 2                                                                                                                                   ",
"                                                                                                                                                                                              } ; % & n W._.E.E.E.R.W.W.v.f.$ X . + . # . O O ..b././././././././.c.,. .o.| o.....{ } ! k z k z g @ . . . . . o . X o o O @ O o O X o O . X o X . X X . . o o O X X X : p j j D D J J J J T T I J J F F J J S k * . . . > D  .;.,. .F m A F s 6 % * % 1 z | ] ] $.8._.(.(.d.u X + . . . o o + + . . . . . . . . . . . . . . o r l P P P P P P P P P P J P J G G K K d : X . . . O X o @ @ # # # . X z |  .[ [ 8.8.z.m.v.d X X # o + o O O : K y.s.s.s.XX<X<X1X1XbXbXNXNXkXo.i i i M +.6.6.H.G.G.G.G.G.G.H.H.G.G.4.G.G.G.6.2.V M i i N >.6.I.K.I.].-X;X;X;X;X;X;X;X=X:X].].].^.I.4.<.7.-.I.^.^.^.].^.^._._._._.!.I.^.!.7.$.[ [ ,.-.!.!.!.!.[ i 8 8 w m E ;.+.+.) _ @.+.) I n M n Z R X.e.e...h % o # 2                                                                                                                                   ",
"                                                                                                                                                                                              c : % 5 n W.~.E.E.L.E.E.~.R.a.$ $ . @ # @ O : = ..b./././././././.b.g.X.o.| | ........} ! l H l H r O X X X X X X X X o O O @ O o o X o o o . # + o X o o o . . . X X X > t j j Z F J R T I T I F J J F A A F Z k = X . X : H  .;.,. .I F F F j 6 % % O < l | ] ] 0.7._.(.(.d.u X X . . . . . + + . . . . . . . . o . + o . . O r l l K K K z l P l P P L L K P P K K h : . O O @ O O O O O X X # * % K | | [ 0.9._.!.z.z.d X . . o + o o X : H e.s.s.h.OX<X<X<X<XNXNXNXNXkXX.s M i M +.6.H.H.G.G.G.G.G.G.G.H.G.G.G.G.G.G.6.2.V M s i N >.6.I.J.I.:X;X;X;X;X;X;X;X;X:X:X:X].].^.I.7.7.7.-.I.).:X^.^.^.~.!.!._._.!._._.!.7.$.[ ;.,.7.!.!.!.!. .i i i i m E ;.;.+.+._ @.@.) I m n m D ^ X.e.e...h % o # 2                                                                                                                                   ",
"                                                                                                                                                                                              ~ 7 & e m W.[.Q.Q.L.L.L.E.R.5.5 & = = $ 5 5 5 5 ..c.n.b.b.v.v.v.v.n.g.a.X.o.....o...o...! j S l H h % X O O * % O O O O O O ; % O @ # # o . o # + o + o o # o o . o X X : h j j Z F I R R I I I I F F F A I J Z s > X . X 9 H |  .,. .T F F F j 9 = % % < l ] [ [ [ 8._.(.(.d.p O . . . . X . . . o o o . . . o + . . . o . . o r z z z z z z z z K K K K K K K K K Q h : . . o o O * % * * O X O X % K | ] V [ 8.!.z.z.z.d . . o . o o X . ; z t.s.s.h.XX<X<X<X1XbXNXNXNXkXX.i i M M @.6.H.H.G.G.G.G.G.G.4.4.G.G.4.4.4.4.5.2.V M u u n ,.6.J.G.I.{.-X-X-X-X-X-X-X-X:X-X:X].].^.I.4.7.5.7.!.).).^.^.^.^.^.^._._._._._.!.7.;.[  .,.6.!._./.v. .f u u i n T E E E ;.@.@.@.) I m n m F ^ X.e.e...h > # # 2                                                                                                                                   ",
"                                                                                                                                                                                              k.;.) +.1.~.`.Q.T.`.}.}.}.{.~.' V I T W W T R T  .o.o.........^ ! ! ! ..o.o.o.{ ....o...| D H H H x y 9 9 9 9 9 q 9 9 q 9 q y 9 < , # o # . . . . + . . . o o . . . . . * t j s n m I E W I Y ) +.E Y I / A A Z j 0 6 6 9 0 p s s n Z Z F J J Z 9 % * % < l ] G G [ 3.z.z.z.o.9 X . . O ; : : : : + . . . . . . . o . o + o . o , r y r y r r r t g t t t t t t h h h r ; O # o * ; 9 9 q q : $ % O % K o.[ [ [ 3.7.7.d.h.t . . . . . . X . ; z e.a.s.h.XX<X<X<X1XfXlXlXkXkX,.m M M M @.H.H.H.G.K.G.G.G.G.G.4.4.4.4.G.4.6.5.2.m i d d n E +.@.@.#.6.I.I.I.I.I.J.I.7.4.I.^.^.^.~.J.&.#.3.>.5.I.I.I.I.I.I.~.~.!.6.>.>.3.3.;.$.$.;.,.#.#.#.>.,.R s d u p a n F N N Y _ @.+.) I m n n F | X.e.e...h : # # r                                                                                                                                   ",
"                                                                                                                                                                                    c < > 6 { @X{.[.{.[.[.`.`.Q.Q.6X8X8X8X6XE.~.~.[.[.[.[.)._.;.7 > % * * @ # + O 6 Q { ..w...o.| o...| H H H ! K K ! Q K K H Q Q Q Q z z K z l , O o # o . + . # + . o o . o o o + X * q p a M N I E Y ) ;.2.5.5.<.+.I A S S H Z j H H p 6 & = & 7 a J R ! H q % % O : l ] ] ] G ] B B B d > X X O ; y x z j k , # . . . . . . o . o o o . . O O O o o o O O O o o O O O O O O O % O X . o o * q h k k h 6 % = % O K ] ] [ U Y V U G L 9 . . . . . . . . ; z t.s.s.h.oX>XOXOXXXOX1X1X<X<X .n M M M @.J.H.H.H.K.H.H.G.G.G.G.G.G.4.G.4.6.5.>.m 8 y y 0 a i M M m C C C C N V C ' V V #.I.I.I.J.-.$.$.+.+.+.+.$.$.$.-.I.^.~.J.+.C i i f B [ $.>.>.V C M M i u u u p p u u i i i N _ @.+.) T m n m F ^ X.e.e...h > # @ r                                                                                                                                   ",
"                                                                                                                                                                                    c : = : ! oX#X[.}.[.'.`.'.Q.|.8X9X9X8X6X`.Q.`.`.'.[.[.[.).` 8 > O @ @ # + + . 1 Q q.{ ..{ o.o.X.X...H H H ! L K K K ! ! Q Q Q Q Q Q K K l d , o . . o o . . + + . o o . o o . o . O q u u i m I Y Y ) @.2.5.<.<.@.W A S S J J Z D L d 6 $ $ $ 7 n T ^ ! H q * ; O : d L B B P B B B P j > X . . ; t z K l p , # . . . . . . . . o o o # . o o o o o O O O O @ @ O O o O O O O O O o # o o * q k k h k 9 % & O % K | | [ [ [ U U J P 9 . . . . . . . . ; z t.e.a.s.@X>X>X>X>X<X<X<X<X<X .Z M M M :.R.H.K.H.K.H.H.H.G.G.G.G.G.G.4.1.4.2.>.m 8 y t p j a n M m M m m C m m C m m m #.!.I.I.I.&.$.+.:.;.+.+.+.+.$.7.I.I.I.J.+.M i i n V $.>.:.+.V C M M s s d p p d p u i i f F _ @.@.+.T A m m D ^ X.e.e...h : # # r                                                                                                                                   ",
"                                                                                                                                                                                    v 4 @ 5 Y _.'.}.|.'.|.'.T.`.`.9X7X7X9X5XT.T.'.`.'.[.`.`.[.%.e 5 % % O X X X O : Q { } w.w.w.o.t.t...! H K Q ! ! L ! ! ! ! Q Q Q ! Q H H H k , . . . . . o . . o . . # . . o . . X = 0 p a i m I E E Y +.<.5.1.<.+.I m A I I m V V I M 6 % O * : j ! ! ! H 7 % % O > h z z K l B D D K h : X X X > p H J n i = X . . . . . + # . # # o # o o @ @ @ # @ @ @ * @ * @ @ * @ X @ + # + + @ X O % y d s Z k 6 % % > % ] | | ] ] ] ] D K H 9 . . . . . . o . * x r.a.s.h.oX1X1X1XXX1X1X<X<X<X .m M M C :.R.K.K.K.K.7.4.7.G.G.G.G.G.4.4.<.5.5.>.V 8 w w p i i i f M M M M M m m m C N C #.!.!.!.R.<.$.$.$.#.$.$.[ [ @.6.!._.!.8.[ M f i M R ,.,.;.[ R D i n M f M i i i i i i u s F ( @.@.+.I m M m D R X.e.e...h * # @ r                                                                                                                                   ",
"                                                                                                                                                                                    v 4 O $ I (.'.|.'.'.|.'.T.T.|.9X7X0X7X6X'.'.|.|.|.'.'.[.[.1.8 e 5 & & % $ $ $ 9 ~ w.} { { w...w.o.} Q H Q Q Q Q Q Q Q Q Q z Q H z z l l l k , o . o . . o . o # o o # . . # o X O = 7 w i i m J R Y Y +.<.5.<.<.+.W m m m V m V V I M 6 % % > 7 j ! ! ! H 0 % % O > t l l z l D l P K x 9 O $ % 6 p D D M M 6 % X O O . . . # + # # o o @ , 4 ; 4 4 , , ; , , , * * , * * ; 4 4 @ # # X O = 0 d s j p 6 & = % > K } ..| ] ] | P K z 1 . . . . . . o . * x e.e.a.s.oXOXOXXXOX1X1X<X<X<X .F M M C >.R.J.K.K.K.J.J.G.H.G.G.G.G.4.4.<.5.>.:.m 8 w 0 w i i M M C C C C m m m C C N V >.!.!.R.6.<.#.#.#.#.$.+.[ $.@.6.!.!.!.7.[ C 8 i M G  .,.;. .F m M M M M N N N N M f i i s F ( @.@.+.I m M n D R X.e.e...h * # # 2                                                                                                                                   ",
"                                                                                                                                                                                    v 4 * = F /.'.|.|.}.6X6X5X$X6X8X7XqX0X9X5X5X6X6X6X|.'.'.|.E.1.@.) ) ^ T T T ! ! z k g g h k h x j k h h h h g g g g g g g g g t h x x x h p 2 , , , * o o . o o o o o o o ; ; ; : 6 7 0 w w M F U U Y +.<.2.<.<.@.) E Y E ) ( +.@.:.R a u t t t p p p p u w 9 < : : 9 y t p t t y t p h p y u u d F R T F F j p t y q * o o + + # # o # ; g c c c ~ q.r.r.r.r.u.u.r.u.r.} ~ c c g , # X O % 0 j j j j u 0 7 7 y d j l j s s d y y q * . . . . . . . . * z e.s.s.h.XX1XOX1X1X1X1X<X<X<XX.F m m C :.R.K.K.K.K.G.K.K.G.G.G.G.4.4.<.) E R R n w u 0 u F [ $.+.$.+.+.+.+.+.+.+.+.[ $.$.>.>.>.>.<.J.J.7.7.=.$.[ ;.#.<.7.z.j.5.[ U N F L L R R U [ [ [ [ [ +.<.z.z.j.7.[ M i i s J $.@.@.+.I A M n D R o.e.t...h * o o 2                                                                                                                                   ",
"                                                                                                                                                                                    v # X $ F /.'.|.|.$X7XmXrX7XeXrXrXqXqXrXqXrXqXmX8X}.'.'.|.`.[.[.~._._.W.W.W./.a.6 $ $ X O . % % % = % * * * ; ; ; ; ; ; @ @ O O 1 h x x x h g g g g 2 @ o o . o o X o o @ 1 q q 9 0 0 0 0 w s F U U W +.<.2.*.<.<.>.>.>.2.5.<.1.4.6.,.J D H H j 0 > & = 9 p k h p 9 : % O $ O O O O % 9 l ! J J L R R R I I L H H H h < O o # @ # # @ # , c r.r.u.i.x.V.V.V.Z.+X,X+X,X+Xx.k.k.i.} 2 # o X * 9 k j j Z s s s k j 6 : % > > > % % O X . . . . . . . . . * x e.a.s.h.oXXXOXXX1X1X1X<X<X<X,.F m m m :.R.K.K.K.G.K.K.K.K.H.H.H.H.<.Y M M i n w w 0 0 s ,./._._._.!.!.!.!.!.!.I.!.8.8.$.V V m V +.!.!.!.I.7.+. .;.+.+.+.+.[ [ U U R R R F n i f n $.3.5.5.5.!.).).-X).3.M i i s J $.@.@.+.U m M m D R o.e.t...h * # o r                                                                                                                                   ",
"                                                                                                                                                                                    v @ + $ Z /.'.'.|.&XqXMXmXrXrXrXrXrXrXrXmXmXmXmX7X}.'.|.|.|.|.[.[.[.[.[.[.[./.a.5 X O . . . o X O O * * * * ; @ @ @ @ # o X . O : g x h h d g k h h g * . . . o X X o X ; q y y q 9 0 0 0 0 p D G U W +.<.1.*.1.2.2.<.5.5.2.4.6.6.6.>.I F F K j 9 & = = 6 k z z k q = . . . . . . . X 6 D ^ R R E E Y U I I J F L K j : O X # @ @ # @ o ; c y.y.y.x.V.Z.Z.Z.+X<X<X,X,X+XV.k.k.k.q.2 # o o O 9 k j d s s n s k k > % O X X . X X . . . . . . . . . . . * z e.e.s.s. XOXOX1X1X>X1X<X<X<X,.F m m m >.R.K.K.K.K.K.K.G.K.K.H.H.6.5.W 8 i i a 0 w 0 7 i 5.).).^.^.~.!.!.!.!.!.I.!.!.!.$.C M M m #.!.!.~.!.6.>.;.;.[ [ Y Y U U U [  . .^ F i i i m $.7.j.6.6._.-X-X-X-X5.C M n i F @.@.@.+.U A n m D R X.e.t...h * # @ r                                                                                                                                   ",
"                                                                                                                                                                                    g O X $ n /.'.'.|.$XqXmXmXmXrXrXrXrXrXrXmXmXmXmX7X|.|.'.'.'.'.'.`.`.`.`.`.Q./.,.5 X X . O X X O O % % % % % * % % % % $ O O X O < g h h h t h k h h g @ . . . X X X X X ; q y y 0 q q 0 0 0 p D L I U ( &.1.*.1.<.2.2.4.4.4.4.G.G.6.>.I F A H d 6 $ % = < g k k k q = X . X . . . . X 6 Z R U Y Y Y Y Y Y Y U R R L j 6 $ X X o o o @ @ , c t.y.y.k.n.Z.Z.Z.+X<XuX,X,X+XV.x.k.x.r.r o o X O 9 h k d s s M s k k : * X X o . X X . . . . . . . . . . . * z e.s.s.s. XOXOX1X1X>X>X<X<X<X,.F m M m <.R.K.K.K.K.K.K.K.K.K.K.J.6.j.Y 8 w w w 0 p t 0 i 3._._.^.~._.!.!.!.!.!.!.!.I.z.+.C M M ' #.!.I.I.I.7.@.) ` +. .[ [ [ [ Y [ [  .R N i 8 f M 0.<.6.6.6.!.-X-X-X-X7.M M M i G $.@.@.+.U m n m D R X.t.t...h * # # r                                                                                                                                   ",
"                                                                                                                                                                                    g $ $ 5 / W.'.'.|.$X8XmXrXmXrXrXrXeXmXrXmXmXmXmX8X}.|.'.'.'.`.`.`.`.`.`.`.Q._.5.8 & & & = % % % & = = 5 5 5 5 5 5 5 5 = $ $ $ $ < t g g g g g g g g g @ . o . o . X X X ; q y w 0 q 6 9 9 q u j J I U ( &.1.*.*.1.4.4.6.4.4.1.G.1.4.@.W V V J j 7 & % % < q k k k q $ . . . o . X O $ 7 F Y Y W V V V V W W U I R L j 6 % O % O o o * @ , v w.r.t.k.x.V.V.Z.+X,X,X,X,X+XV.k.i.k.q.2 X . . % 9 k k j s p p u h g , @ . o # @ O o o X . . . . . . . . . * z e.e.s.s.oX1X1X1X1X>X>X<X<X<X,.N M M m <.R.K.K.K.L.K.L.L.K.J.H.6.6.>.Y M i i u 0 w u 0 i >._.~.^.~.!.I.J.I.!.R.J.I.8.7.[ m C C C $.!.I.I.I.7.#.+.@.+.[ [ [ [ [ Y [ [  .Y N C M M C $.<.5.j.6.!.-X-X-X-X5.C n M f G $.@.@.+.U m n m D R X.t.t...h * # # r                                                                                                                                   ",
"                                                                                                                                                                                  k.! n i i _ W.'.|.|.$X9X8X9X8X8XrXmXrXmXmXmXmXmXmX8X}.|.|.'.|.}.}.}.}.}.}.$X$X#X[.1._ ) E R F F J T T I T Y E E E W I / m a w w w 0 9 1 < < , 1 < < 2 1 # . . . . . . X X ; q 0 0 0 6 : : : : t j F I I +.&.4.4.4.4.4.4.4.1.1.G.G.G.H.1.( ( Y R S u 7 9 9 9 q q 9 q < + . . . # * 9 q 6 i E +.@.@.( ( Y Y Y W Y U R R F u 6 : 9 : ; @ @ @ * g x x x c { w.w.r.r.u.u.u.u.r.{ ~ c } v , . . X % 9 p d d p 0 9 6 1 < * X o # @ ; 1 1 < ; @ . . . . . . . . * z e.t.s.d.OX2XsXsXsX>X>X<X<X<X .m M M m <.R.K.K.K.L.K.L.K.G.*.@._ _ +.Y I U I F a u 0 0 i 3._.~.^.~.&.$.$.$.+.$.[ $.[ [ Y V ( ( $.G.).^.^.^.~.J.G.K.6.5.>.#.#.<.7.7.6.6.7.<.#.#.#.#.[ [  .;.:.4.Y.Y.^.^.<.C M n n G @.@.@.+.U m n m D R X.t.t...h * o # q                                                                                                                                   ",
"                                                                                                                                                                          q.g g t ! j.j.2.H.E.[.'.|.|.}.}.$X}.5X6XmXrXrXmXmXmXmXmXmX8X}.'.|.`.$X9X7X9X9X9X9X9X9X9X6X6X6X3X3X#X_._.W.W.~.~.~.[.[.~.~.[.E.W.R.` E ^ J j = X X . o . o o . . . . . . . . . O O % q w 0 0 6 % O % % 6 j L I W +.<.4.*.*.4.4.4.4.4.1.G.G.G.G.G.4.1.2.a.;.A s p p t : $ $ X + . . . . O q k p a F E <.6.<.@.@.( Y Y Y W Y E E R Z s p h g < O @ ; @ , < < < 1 1 2 2 2 q 2 1 1 1 1 < , , 3 4 # o . X $ 9 p p p j : % O X . . . # . # r g g g h * . . . . . . . . @ z r.t.s.h.<XNXkXkXNX<X>X<X<X<XX.m m m m <.R.K.K.K.L.K.L.K.H.( C m C V Y 6.5.5.5.N 8 w 8 i <._.^.^.~.$.C M M M M f C M M [ !.!.I.I.^.;X;X;X-X-X:X:X].).!.I.I.I.I._.).).).).).).).^._.3.M n m M $.7.I.I.I.+.M m n M U $.@.@.+.Y m m n D ^ X.e.t...h * o o 2                                                                                                                                   ",
"                                                                                                                                                                          v @ O $ F j.~.~.E.`.[.'.'.'.|.|.}.|.}.6XrXrXmXmXmXmXmXmXmX8X}.[.[.`.$X7XrXrX0X0X0X0X0XqXqX7X7XVXVXVX#X{.{.}.}.}.}.}.}.|.|.|.[.[.E.1.` ;.E S : X . . o . . . . . . . . . o . . O O ; q u 0 0 6 % O O O 6 j J I W +.<.4.4.4.4.4.4.4.1.1.G.G.G.G.G.G.6.6.j.,.I Z j j t > X X X . . . . . = p z Z n m +.6.<.<.>.@.( Y E E ) ( +.+.R F j j j h < O * * @ @ @ @ # @ @ @ @ # @ # o X X X X X . . . . . . X % 9 p d p h * X o . . . . o . O r h h h k : X . . . . . . . * x t.t.s.h.sXNXNXNXNX<X>X<X<X<X .m M M C <.R.K.K.K.L.K.L.K.6.Y C C C C $.!.!.j.j.N 8 w 8 f <._.^.^._.V M i i s i 8 f f M $._._.~.^.].;X;X;X;X;X=X=X=X-X^.I.I.I.~.^.{.-X-X-X-X-X-X-X].3.M i i 8 U -.-.7.7.+.m A m M U @.%.@.;.Y m m n F R X.e.t.w.h * # # 2                                                                                                                                   ",
"                                                                                                                                                                          v ; = $ I R.~.`.Q.`.`.'.|.|.|.|.|.|.}.5XrXrXmXrXrXmXmXmXmX8X|.[.[.`.$X7X0XrX0XwX0X0X0XwX0X0XrXrXmX8X}.|.}.}.}.}.}.}.}.}.|.}.}.[.~.P._ :.) Z = X . . . . . . . . . . . . o . . X O % 9 w w 0 6 % X O O 6 j J I Y @.2.6.4.4.4.4.4.4.4.4.G.G.G.4.G.G.4.6.5.;.m M s d w % X X . . . . . o & t j j s m E j.5.5.2.:.Y Y +.) +.) +.+.R F Z j H k 1 % * * o o @ @ @ @ @ # o o X X X X X X X X o o . . # . . % 9 d j k g * o o . . O . O O % y h x j j : X X X . . . . . * x y.t.s.g.sXNXNXNXNX<X>X<X<X<X .m m M C 2.R.K.K.K.K.K.L.J.6.Y M M M C $.!.!.!.j.V 8 u w i 5.^.).)._.[ M i d s i 8 8 8 M $._.^.^.Y.].;X;X;X;X;X=X=X=X-X^.Y.I.I.U.].-X-X-X-X:X:X-X{.].3.i 8 8 8 U 7.8.8.j.;.A A m M U @.&.@.@.Y m m m F R X.e.t.w.h ; # # r                                                                                                                                   ",
"                                                                                                                                                                          v ; * & I R.~.T.Q.`.[.'.'.'.'.}.}.}.}.6XrXrXmXrXrXmXmXmXmX8X|.'.'.`.$XwX0X0XwXwX0X0X0XwXtX0XrXrXrX8X}.|.|.|.|.}.$X$X$X$X'.'.'.'.Q.P._ %._ m 8 & & % X o . . . . . . o . . o O % % : 9 w 0 0 9 % % % = 9 Z R T Y +.<.6.4.1.1.4.G.G.G.G.4.4.4.4.1.1.1.1.5.+.m M n n p = $ O O X X . O O > 0 j d a n R ,.,.,.>.;.E E +.+.+.( +.+.E F n j H h 6 % * * @ ; * * * * * @ % % O % % % % % % % @ 4 @ . . . X % 9 t k h g 1 @ # O O O O O % % y j j j j 6 X X X . . . . . * c t.t.s.h.2XNXNXNXNX<XOX<X<X<X .n M M C >.R.H.K.K.K.K.K.J.6.E M M C C ( I.!.!.R.V 8 u i M 5._.).)._.[ s u d u f M M C ' #.!.^.Y.^.].;X;X;X;X;X=X=X=X:X].Y.I.I.U.].].:X=X=X:X:X:X].].3.C 8 i M E 5.7.j.j. .A A m m U @.&.%.:.Y m m m D ^ o.e.t.{ h * # # r                                                                                                                                   ",
"                                                                                                                                                                          v ; % & I R.`.Q.Q.`.`.`.`.`.'.$X6X6X6X8XrXrXmXrXrXrXmXrXmX8X|.`.`.`.$XwXqXtXwX0XrX0XrXrXrXrXrXrXmXrX9X6X9X9X9X9X9X9X9X5X|.'.'.'.`.L.L.K.H.2.;.W R J a @ . . . . . . . . o : 9 6 6 0 w w w 0 q : * ; > 0 D E E Y +.@.:.@.%.*.1.G.G.4.G.4.4.4.4.4.1.1.*.2.:.( Y Y R F w 6 6 9 9 1 1 9 9 9 6 9 9 9 0 s D Z m J R E E +.) +._ +.+.E F n s D k 9 % * * , r t t t t t y y t y t d d s s d d h x t ; . . . X ; 9 9 q q t 9 9 9 9 9 9 9 0 0 a s Z Z S 6 X X . . . . . . @ x r.e.a.h.2XNXNXNXNX<XOX1X1X<X .n M M C :.R.J.K.K.K.K.K.J.6.E M M m C $.!.!.!.!.V C u i M >.!.!.!.!.U i u s f G ;.3.<.<.K.^.^.].].:X;X;X;X;X=X=X=X=X=X].].].].].].=X=X=X=X=X=X=X].].!.#.$.>.+.;.+.$.[  .T n n n m R %.<.&.:.E m m m D ^ o.e.t...h ; o o q                                                                                                                                   ",
"                                                                                                                                                                          x , : 5 E E.`.`.Q.E.E.Q.T.T.'.6X7XqXqXrXrXrXmXrXrXrXrXrXrX9X|.`.`.`.$X9XwXwXwXwX0X0XqXrXrXrXrXrXrXmXeXrXrXrXrXrXrXrXmX8X}.'.'.'.'.`.`.`.`.~.~._._.R.;., . . . . . . . X * 9 t t w p p w w p q : : : > 0 F E E Y ) _ _ ( _ %.1.G.G.4.4.4.4.4.4.4.1.1.1.<.<.>.>.>.,. .Z j j h h h j j j q > O O O O % = % & 0 F E E ) ( ( ( +.;.E J m s Z k 9 * % ; 2 v } } } } } ] ] ] ] | o.O.3.3.,.3.O.s.} 9 X . . . o O % % : k k j j j j j j j s m m D Z D 6 X . . . . . . . @ x r.e.a.h.2XNXNXNXNX<XOX1X1X<Xo.s n n M >.R.H.K.K.K.K.L.K.6.E M n M C ( !.!.!.R.V C u i f #.7.7.6.j.U f f s n +.!._.^.^.^.].].].].=X;X;X=X;X=X=X=X=X=X=X:X-X=X:X=X=X=X=X=X=X:X:X].].].^.^.)._.5.V m m F n n Z n A R %.<.&.:.E m m n Z R o.e.t.{ h * o o q                                                                                                                                   ",
"                                                                                                                                                                          v 4 * & W E.`.Q.Q.Q.~.L.L.L.'.6XqXrXrXrXrXrXrXrXrXrXrXrXrX8X|.`.`.Q.}.9XwX0XwX0XrXrXrXrXmXrXrXmXrXmXrXrXrXtXtXrXrXmXmX8X}.'.'.`.'.'.'.`.`.Q.`.~.[.E._ < . . . . . . . X * q k p w p w p w p q < : : > 0 F E E ) ) ) ) _ _ %.1.G.G.4.G.4.4.4.4.4.4.1.1.&.&.<.5.5.2.;.F Z j j j j j Z Z g * . . . . . . . X 6 Z E Y ( ( ( ( +.;.E F m n D k 9 * % * 2 c ] ] ] ] ] G L ] ]  .,.3.3.3.3.3.3.3.| 9 O . . + + o X O & d Z D Z j Z j s n M m m D Z Z : X . + . . . o . ; c y.t.X.h.<XNXNXNXNX<XOXOXOX<Xo.s a M M :.j.H.K.G.K.K.L.K.6.Y M M M C Y !.!.!.R.W M s i M #.6.7.7.7.U u u f M +.!.^.~.^.^.].].].].;X=X=X=X=X=X=X;X;X=X=X=X=X=X=X=X=X=X=X=X=X=X-X:X{.].].].-X).5.C i i s s n Z m m R %.<.<.>.E m m n Z R o.e.t...h ; o o q                                                                                                                                   ",
"                                                                                                                                                                          v 4 * = E E.`.`.Q.~.~.T.T.T.[.6XqXrXrXrXrXrXrXrXrXrXrXeXrX9X'.`.`.Q.}.9X0XwXwX0XrXrXrXrXmXrXmXmXmXmXmXrXrXrXrXrXrXmXmX8X|.'.'.'.'.'.Q.`.`.Q.`.Q.`.E._ 3 . . . . . . . X * 9 k w w w w w w p q < : : 6 0 F E ) ) ) ) ) _ _ @.1.G.4.1.4.4.4.4.4.<.<.&.&.-.<.<.2.2.2.:.I Z D Z Z j Z n n q O . . . . . . . X 6 D E Y Y _ @.@.+.:. .I m n D k 9 % O O 2 x L ] ] ] ] ] ] ] [  .3.3.3.3.3.7.5.3.R 0 O . . + + + o % & s n m Z j Z Z n Z m A m m Z Z : X o + . . . o . ; c y.y.s.h.2XNXNXNXNX<XOXOXOX<X..s a M M :.j.H.H.G.K.K.K.K.6.Y M M n C ( !.!.!.R.Y M s i f =.6.7.7.7.U i i i M $.I.~.Y.^.^.].].].].=X=X=X=X=X=X=X-X-X=X-X=X;X=X=X=X=X=X=X=X=X:X:X{.{.].].].].{.6.C M i a a n m m F R %.<.<.>.E m m n D ^ o.e.t...h ; o o q                                                                                                                                   ",
"                                                                                                                                                                          Z e e e ( R.`.`.`.`.`.`.L.T.|.6X7XrXrXrXrXrXrXmXrXrXmXtX0X9X'.`.`.`.}.9X9XqX0XqXrXrXrXrXrXrXrXrXrXrXrXrXrXrXrX0XrXrXtX9X|.`.'.`.'.'.`.`.`.`.E.W.W.l.` < # . . . . . . . * q g p p p w q q t t 6 6 6 7 u D |  .E E +.+.Y ( @.<.5.5.5.2.2.2.1.2.1.1.1.1.<.2.2.2.4.2.@.V V V V m m m m m t % X . . X . . . . : H L R E E +.+.@.@.( V m m D j 1 * % % < x L L L D ] G V V 0.=.-.-.7.7.-.-.3.3.] 7 O . + + + + o O % d A A A A m D n s D Z Z S Z S 6 X . o . . . . . ; c y.f.s.g.<XNXNXNXNX>XOX>X1X1X..s i f M #.6.4.J.G.H.K.K.K.1.( C C m C $.7.7.z.j.E M C C C $.6.6.j.d.U M M M C $.!.^.Y.Y.^.^.).).).{.-X{.{.{.-X=X=X=X=X=X=X=X=X=X=X=X=X=X=X=X:X:X=X=X-X).^.).).,.M d p s n M m m V U ;.>.,.;.R F m n m R o.t.t.{ h * # # 2                                                                                                                                   ",
"                                                                                                                                                                        k.R A C C %.E.`.`.`.'.}.6X}.}.5X9X7XqX7XrXrXrXrXrXrXrXrXtX0X9X'.'.'.|.}.$X$X$X5X9XrXrXrXrXrXrXrXrXrXrXrXrXrXrX0X9X9X9X9X6X'.`.`.`.'.'.'.`.`.L._ ( E T Z * . . . . . . . . * q g p p w 7 9 < < 6 6 q 0 6 w n F F F U E +.$.( $.+.@.@.@.@.<.2.2.2.<.1.1.1.<.2.2.2.4.4.<.@.( ( ) E E E E E z y 9 9 < < X . . . % 0 p a Z F Y E +.+.( I m m D j 9 * O O 1 x L L J G [ [ [ $.=.7.I.!.!.I.8.-.3.3.] 0 O . + # o # o O > D R R R T Z m n n D D Z S Z Z 6 X . o . o . o . ; c y.f.f.h.OXfXfXfXfXOXXXXXXXXX..s a f M #.6.4.J.G.K.K.K.K.H.%.( ) ) W Y [ $.$.+.+.>.#.#.#.<.6.6.z.j.,.E U Y Y 7.^.].].].U.-.-.<.7.6.6.4.4.G.~.;X;X=X=X=X=X=X=X=X=X].=X=X=X=X=X=X=X].!.-.&.7.5.[ s s p s F E +.+. .E Y R E I F m n m m R o.t.t.{ h * # # 2                                                                                                                                   ",
"                                                                                                                                                                v , ; < H a.j.R.R.R.~.`.`.`.}.8XrX0X0X0XrXrXrXrXwX0XrXrXtXrXrX0XtX0X9X}.}.|.|.}.'.`.`.`.$X7XrXrXrXrXrXrXrXrXrXrXrXrX0X7X5X5X5X5X$XQ.T.Q.Q.`.`.`.`.`.1.C e 5 & $ # . . . . . . . . * q t p p 7 & % $ $ : q p u w u a M n M I E +.[ E Y Y Y Y Y ( <.2.2.2.2.2.2.<.<.1.4.4.4.4.4.<.6.6.6.5.5.5.5.5. .D s s j t * . . . . * ; = 6 0 V  .:.@.+.I m n D k 9 % % O : h J J D P O.3.3.=.7.!.^.^.^.^.I.-.3.3.] 0 O X + + + # # O 6 L ,.,.;. .F n n n n m A S Z Z 6 X . . o + o o . ; c y.f.h.s./.1XOX1X1XXXXXXXXXXX| s s i M #.6.4.H.H.K.K.G.K.K.4.4.5.5.5.E M M M C >.).{.{.).!.I.6.R.j.j.5.j.6.7.!.-X-X-X-X7.C C M C M M M C C *.-X;X=X=X=X=X=X=X=X=X=X=X=X=X=X:X=X:X].>.C C C C f u u p s E 5.j.7.3.[ m m m n M n n n D R o.t.t.{ h * # # 2                                                                                                                                   ",
"                                                                                                                                                                g o O X H l.W.W.~.~.`.`.`.`.}.8XrXrXrXrXrXrXrXrXwXwXtXtXtXtXrX0XqXwX9X$X}.}.}.|.`.T.T.`.$XrXmXrXmXmXmXrXrXrXrXrXrXrXqX0X$X$X5X$X}.Q.Q.`.`.`.Q.`.`.[.2.8 $ $ X . o . o + . . . . . * q t t t 6 $ X X O * q h p p p s a i M I E  .E E E E Y W W Y >.<.<.<.<.2.<.<.4.1.4.4.4.4.4.6.6.6.6.6.5.5.2.5.>.I M m Z p : . . o o o O O $ 6 m  .;.;.+.I M m Z k < % O X : h D D B B ,.3.3.-.8.!.^.^.).^.I.-.3.3.| 0 $ X + + # # . O 6 L ,.,.,.;.F M N n M m A S Z Z 6 X . . + + o o . ; c y.s.h.s.b.oXoXXXXXXXXXXXXXXX| a a M C #.6.4.H.G.K.K.G.G.H.G.J.6.5.>.E M M M C <.).).{.).!.J.7.6.6.j.6.j.R.J._.:X;X-X-XJ.C M M i i i i M C ( -X;X-X=X=X=X=X=X].=X;X=X=X=X=X:X-X-X:X3.f C M M i s d j s E j.6.j.7.[ m M n a s n n n m L o.e.t.{ h * # # 2                                                                                                                                   ",
"                                                                                                                                                                2 . . . F j.W.E.E.E.`.`.`.`.}.8XrXrXrXrXrXrXrXrXrXrXrXtXrXtXrX0X0XwX9X$X$X}.$X'.`.Q.Q.`.6XrXmXmXmXmXmXmXrXrXrXrXrXqXqX7X$X$X$X$X}.`.T.Q.`.`.Q.[.[._.2.8 $ $ o o . o o o . . X . . % 9 t t t 6 $ X O O * q g t p p d a a n F R E E E E E Y W Y Y >.>.<.<.<.2.2.2.4.4.4.4.4.4.4.4.1.4.1.2.2.<.<.<.:.V C n Z p : . . # # # X X $ 6 Z  .,. .E I n F Z j 6 % O X ; g B B B B  .3.3.-.7.I.^.^.^.^.I.-.3.3.| u $ X + + # # O % 6 R ,.;.:.;.m M N m m F m A Z S 6 X . . + + o o . ; c y.s.h.s.n.oXoXXXXXXXXXXXXXXX| a i M M #.6.G.H.G.K.K.K.H.H.4.7.6.5.j.;.M M M C <.).).{.{.~.K.I.I.6.6.6.7.6.4.~.].=X-X-X7.C f f i i i i M M 0.-X-X-X:X-X=X=X=X=X=X=X=X=X;X=X-X-X-X].,.8 M M M i u p d u U 5.7.7.7.[ m M s a s j n n Z L o.e.t...h * # # r                                                                                                                                   ",
"                                                                                                                                                                g . . X S j.R.E.E.E.Q.Q.`.'.}.8XmXmXmXmXrXrXrXrXrXrXrXrXrXrX0X0XtX0X9X$X$X}.$X'.`.T.`.`.}.8XrXmXrXmXmXmXrXrXrXrXqX7X8X9X$X$X$X$X|.T.L.L.~.~.E.[.[.W.;.w $ O X o + + o o . X X X X % 6 q w 0 6 $ X X O * q g t p p p s a n F R E R R R R U I U Y >.>.<.<.<.<.<.5.4.1.1.1.4.4.1.1.4.4.4.2.2.2.<.<.;.I m Z Z g * . o . o X O X $ 6 Z ^  . . .T n Z Z k : % X X ; g B B B B ,.3.7.-.7.I.^.^.^._.8.7.3.3.| 0 $ X + + + # o % 6 L  .;.;.;.V m N m m m m A S S 6 X . o o + o o . ; c y.f.f.s.b.XXoXXXXX.XXXXXXXXX..a a i M #.6.H.H.G.K.H.H.K.K.4.4.4.5.>.E M M C C &.^.{.{.].I.G.G.7.6.6.6.7.7.I.^.:X=X-X-X7.C M f i i u 8 8 f [ ).-X{.{.-X-X=X=X=X=X}.=X=X=X-X-X-X-X).a.n M M M i u p p u U 5.7.7.7.[ n s a a s s j j Z L o.e.t...h * # # 2                                                                                                                                   ",
"                                                                                                                                                                b . . X Z j.W.E.L.E.`.'.}.}.6XmXmXmXmXmXeXeXeXeXrXrXrXrXqXqXqXqXrX0XwX9X6X6X9X}.`.`.`.`.|.6X6X6X6X6X9X9X9X9X6X6X6X6X5X5X|.|.|.|.`.U.L.E.~.R.2.` ;.^ S 7 $ O # + # # o . O * : = * : q t 0 9 9 : : : < 1 < 9 q 9 0 w s s a n Z F F F J I I F I I [ +.;.+.+.@.#.>.@.%.@.%.&.@.@.@.@.@.@.+.( ) ( ( R a w w q q * o o . O 9 0 0 w i j Z D J F Z s s j p : O X . * g B B B B 3.3.7.7.7.I.I.I.I.I.8.7.3.3.| u $ X o + o o o % 6 J ^ E ) ) Y E Y I N m m A Z Z < X . o o o o . . ; c y.f.f.f.XX2X<X<X<X.X.XXXXXXX..a a i M @.6.6.H.G.K.H.H.K.G.#.( ( +.+.+.;.+.( $.4.).^.^.^.K.-.G.7.6.6.6.6.4.G.U.].=X-X-XI.V N N m f u u i i U 7.!.I.I.^.].].].=X=X=X=X;X=X^.I.I.!.j.,.R T I I m p p p u G >.3.<.3.U s s a p d j j s Z L o.e.t...h ; # o 2                                                                                                                                   ",
"                                                                                                                                                                b # . O Z j.R.P.K.Q.}.9X8X8X8XmXmXmXmXmXmXrXrXrXrXrXrXqXqXqXqX0X7XrXrX0XrXrXmX9X'.`.`.Q.`.`.L.L.L.`.`.|.'.`.`.`.`.`.T.T.L.L.L.L.L.L.L.R.6.Y e & $ $ = $ X o @ + # o o o ; q g q q 0 t t 0 0 t t h h h g = X X X > 9 u s p p i a p a n F F F m m N I I I V I W Y ( ( ( ( ( W W Y Y Y W V V m m C p = O X X O . . o X 9 Q o.,.;.) u 6 & & 6 0 s Z j p : X . . @ g B m B B 3.3.7.7.-.-.-.-.-.-.-.3.3.d.| y $ X o o o o O O & Z L J V Y +.>.>.+.E I m A Z j : O . o o o . o . ; c y.f.f.c.pXNXkXkXkXXXXXXXXXXX! a i i M :.6.6.H.G.K.J.J.H.<.V C 8 M M 5.>X3X-X{.~.I.!.I.I.&.( $.( $.7.6.6.7.I.^.:X=X-X-X^.-.5.j.s.| u u u 8 8 8 8 8 C -.].;X=X=X=X=X=X=X].1.C 8 M M ^ s.j.j.5.R a u d u B Y Y [ [ N s s s s d j j j Z L o.e.t...h ; # o 2                                                                                                                                   ",
"                                                                                                                                                                g . . X Z a.R.K.G.[.6X9XqXrXmXmXmXmXmXmXmXrXrXrXrX0XqXqXqXqXqXqXrX7XrXrXrXmXmX9X[.~.~.`.E.`.Q.L.E.`.|.|.'.'.'.'.`.`.`.E.L.L.L.L.L.L.E.R.R.I & $ X X X o o # # # # o o o * q g p t w 0 0 0 0 t p k k h t * X X X = 6 t p u u p p p p d D F J F F F I I I I U Y Y ( Y Y Y ) E Y Y U E I F m m m m g ; X X X X # X X X 6 J E ;.;._ p 5 & = 6 0 k p h t ; X X . o g n D D B ,.7.7.7.8.-.-.-.-.-.3.3.3.3.| y O X o . o . X % & j D H I E ,.,.>.>.>.E m m Z j 6 X o o o o . o . : Q f.f.f.g.sXNXNXkXbX>XoXXXoXXX! s i i M +.6.J.H.H.G.H.H.R.2.W i C C C &.-X-X-X{.I.K.I.J.I.#.( $.$.+.5.6.7.7.7.~.].;X;X{.~.G.6.j.d.^ u p p u w w 8 8 C 4.].-X=X=X;X;X;X;X].-.C M i M R 5.5.>.3.R u u p u n Y +.+. .I d p s d d j j j Z L X.e.e...h ; # o 2                                                                                                                                   ",
"                                                                                                                                                                g + . X S a.R.H.P.[.6X9X8X8XeXmXmXmXmXmXmXmXrXeX7X7X7X7X7X7X7X7XVXVX8XmXmXmXmX6X[.~.[.[.~.`.Q.T.L.Q.[.|.'.'.'.'.[.[.`.`.E.E.E.E.E.E.E.R.j.Z % . . . . o # # # @ o O O O : q g p p w u u w w u p k j k q = X X X $ < t h p t w w t w p j D F F F J I I I U U R R E E E E E E R R R R R J F F F A g < X X O X X X X X 0 J E ;.;.( p 5 & = > 0 k h h t ; X . . O g D D P G 3.d.3.8.7.7.-.-.-.7.3.3.d.h.} 9 X . . . X X O $ > l H H T R ,.,.>.,.>.E A A Z j 6 X X o + + o X X : Q f.f.f.g.sXbXNXkXNX>XoXoXoXXX! a i i M +.6.J.H.H.H.6.6.R.2.Y M C C C &.-X-X-X{.I.I.!.!.!.#.$.$.$.+.5.j.j.7.I._.].-X;X}.`.G.G.R.5.R w w w w w w w w C 7.{.-X;X=X=X=X;X;X].-.C f i i E 5.<.<.5.U u u s i m E +.+. .F d p s d d j j j Z L X.e.e...h ; # o 2                                                                                                                                   ",
"                                                                                                                                                                g + . X Z a.j.H.1.).3X9X9X9X8XVXVXVXVXVXVX8X8X8X8X9X9X9X8X8X8X8X8X8X8XVXVXVXVX3X_._.~.E.E.~.E.T.Q.`.`.[.[.`.`.`.[.[.`.E.E.E.L.E.E.R.R.j.g.l % . . . . o o @ @ * O % % = 6 w k s u p p p u u p p j j j u = $ X X $ : q t t y q q y y h z H J J J J J I I R R R R R R R R R R R L L J J H D S D Z h 9 % % = % % % $ $ 0 F E ;.` ) i 7 & 5 > q g h t r * . . . @ g l l l l 3.d.3.7.9.7.7.7.3.3.3.3.O.o.K y O X O O % % $ $ > j l H F J  .,.,.,.;.E m Z Z j 6 X X o # # o o o < } k.g.h.g.sXNXNXkXkXXXoXoXoXXX! p u i M ;.6.6.6.H.H.j.6.j.2.Y C C C ' -.-X-X-X{.I.J.!.!.R.<.+.+.+.+.3.d.j.7.6._.].-X;X}.`.K.K.K.6.+.M M M i i 8 w w C 7.{.-X;X=X=X=X;X;X].-.C f 8 M Y <.4.<.7.[ i u u i m  .+.;. .F d p p s p j j j Z L X.e.e.{ h ; # # 2                                                                                                                                   ",
"                                                                                                                                                                g # + X S a.R.H.H.~.[.{.#X#X)._././././././._._.!.!.!.!.!.!.!./././.!._._._.(.!.,.,.>.:.J.[.}.|.`.`.`.`.`.~.`.~.E.E.E.E.L.L.L.L.j.` E T ! r o . . . o @ ; < < 6 : : : 6 0 u p p p p s a a a a s Z Z Z j 0 6 6 : : : : ; , < < < : : 9 p j j j s n m m A D D F F F F J F F D j s p p p p t w p p u s s s s j s s i i Z R E ;.:.` F M i p w q 9 9 < : ; % % * , r t t y y ..3.3.=.3.-.7.7.3.3.] B K z h y : % % > 0 0 0 u u p t p u p J R R R R A n n j j < X X X + + o o o < Q k.g.h.g.sXbXNXkXkXXX XoX XoX! p w u i ;.6.6.6.H.1.>.;.;.+.:.:.#.#.&.7.^.^.^._.4.&.<.<.<.>.#.>.:.,.,.;.+.+.#.I.{.-X=X}.].U.U.~.~.J.#.#.#.+.Y N N I 0.I.{.-X;X=X=X;X;X;X{.7.V V F R &.I.!.I.!.+.i u u i F >.>.>.,.R d p p s p j j j j L X.e.e.{ g ; # # 2                                                                                                                                   ",
"                                                                                                                                                                g + + X S j.R.R.1.1.1.1.P.2./ e & & & & $ $ $ $ $ $ $ $ $ $ $ $ $ $ & & 5 5 5 & & 5 5 e @.#X8X8X8X6X~.K.P.P.P.P.P.P.P.P.1.*.*.*.T e $ $ O . . . . . O < 0 w w w u u w w u p p w p a Z Z S Z Z Z Z Z Z Z j j k h q * X . . . . . . X % 6 t t w w u u u i i i a a s s n j j d 0 5 $ $ $ O O O $ % 8  .v.v.v.v.z.j./.z.j.5.;.` ` ` ) )  . .! q = . X O : q t t q < X . X O d P B B [ =.3.7.3.[ u & O O % 9 y p k j ^ |  .o.L 6 X X % & p s n n n n M s j k 6 X X # # + o o o < ~ f.f.f.g.pXNXkXkXkXXX XoX X@XJ w w w i +.5.6.6.6.@.M M C I 6.OX-X{.).~.I.G.J.J.$.$.Y [ +.>.5.5.5.3.I m M C C &.^.-X;X=X=X;X;X=X=X;X-X-X-X).!.5.5.7.4.^.-X;X;X=X=X=X=X;X-X!.-.>.>.5.~.-X-X-X).6.N M i i U d.j.j.d.E s p p p p d j j j L X.e.e...h ; # # r                                                                                                                                   ",
"                                                                                                                                                                g # o X F j.R.R.K.P.1.2.2.:.M & O O O O O X O X X X X X . . . . X $ $ $ % $ % % * : & 5 ) 3X8X8XVX6XE.P.K.P.P.P.P.P.P.1.P.P.P.P.! 5 X . . . + . . . % 6 w p w w p p p p p p u w w a Z J F A A A A m A Z Z j j k q * . . . . . . . X % 9 y t w w w w w u i a s s s s s s j d 9 = O O O O X O O % e ;./.!.!.!.!.R.6.j.6.>.+.+.;.:.%.:.,.,.! w $ . . X : t h h g < . . . O d P B B [ =.3.3.d.| 7 $ X X O 9 t p p a J R  .,.! 6 $ % X O t s s a n M n s j j 9 X @ # # # # # o 1 ~ f.f.h.g.pXNXkXkXkXXX X X X@XH u w w i +.5.5.6.4._ m m C V 6.-X-X{.-X^.J.7.7.6.$.V U Y Y >.5.5.d.,.U M M M C &.^.-X=X:X=X;X=X=X=X=X=X-X-X].!.7.7.6.I.).-X;X;X;X=X=X=X;X:XU.4.4.5.j.Y.:X-X-X{.7.C i i i E j.j.j.j.E s u p p p d j j j L X.e.e.w.h ; # # r                                                                                                                                   ",
"                                                                                                                                                                g # X X A j.R.E.P.P.1.2.j.,.Z & . . . . X X X . . . . . . . . . . O O O % O @ @ @ , = 5 E #X8X8X8X6XE.P.L.P.P.P.P.P.P.P.1.1.1.1.! 5 $ X X . o . . . O : 9 0 0 0 w w w u p u u u w i Z F F A A A F A A Z j j j h q * . . . . . + . . % < y t y u u u p a a s d j s s s s j j 0 : O X X O X X X @ 8 ,.!.R.R.R.J.J.R.!.J.&.@.@.@.@._ _ ) E J 0 $ X X X : q t h h < o o O O h K P B [ 3.3.3.d.| u % X X * 9 t p a n E ;. .^ L 6 X O O O h k d s n Z n s j h 1 X @ X # # # # o < Q f.f.h.g.pXkXkXkXlX.X X X@X@XH u w u i ;.5.5.6.6.( i M C V 7.-X-X-X].~.J.J.!.j.+.U Y Y Y >.5.5.5.,.R m M C V <.).-X;X;X;X;X;X=X=X=X:X].].{.~.G.4.J.K.^.-X;X;X;X=X=X;X=X{.U.4.1.<.<.Y.{.-X-X{.6.N M a i E j.6.6.7.Y s i p p p d j j j L o.e.e.{ h * # # r                                                                                                                                   ",
"                                                                                                                                                                v @ O $ A R.R.E.H.P.1.2.2.a.Z $ o @ @ @ @ * * * , ; 4 @ 4 4 4 4 , 3 3 2 2 2 2 2 3 2 1 7 ) {.6X9X9X#XK.P.P.*.P.P.P.P.P.1.1.P.1.*.! : $ X + . # . . X O : 9 y y y w w w w p w w u w a Z A A m A A m A A A a j j k t , X . . . . + . X % 9 y t u p u u u u p p p p u u u p d p 0 < ; * * * ; * * , 8 ;.j.R.!.R.K.K.G.K.4.@.$.@.@.@._ _ ` ;.! w $ + O X 6 t 0 h g > o . . O t l D B B =.3.3.d.| 0 % X X * q t p d n E ;.;.^ ^ 0 > % @ O t p s a i n s a d k < X O @ # # # o X : Q y.f.f.h.<XkXkXfXfX.X X X@X@XH p w u i ;.5.5.6.6.$.M M C V -.-X].-X].~.7.6.6.7.[ [ Y [ [ >.5.5.j.a.U M M C C &.^.-X-X-X-X-X-X;X=X=X=X=X{.{.^.K.4.J.U.].;X;X;X;X=X;X;X;X-XU.-.1.4.6.U.].].{.{.<.C M M M E j.6.6.7.Y s i u p p s j j j J o.e.e.{ h * # # r                                                                                                                                   ",
"                                                                                                                                                                z 6 > 6 H ! e.f.w.Q k k z k h k h h h h x l H H K X.X.o.o.o.,.,.t.e.y.y.e.f.s. .E E U E e.f.k.k.k.f.! S J A W 2.1.1.1.P.1.*.1.%.^ 6 $ $ . . o . . . . ; 0 w w w 0 w w w w w w w w a a a Z Z j S Z Z Z Z Z Z j a p 0 6 > : : : : 5 5 7 w a a a a s a s d u 6 : < , , : < 6 6 u J N V V m m m N F W +.>.5.5.<.<.2.2.&.@.@.@.@.@.@._ _ ) ) Y M w w w 0 : : ; , 3 # o + . X < q r y d | O.O.t.] 0 % X X < s F F I W +.+.+.+.E m i M a p 6 6 q 3 b 3 3 2 2 < * @ O X o o o # # < Q y.f.s.h.OX2XsX<X<X1XOX>X<XOXJ w w w i +.6.6.6.6.+.B M m I >._._._.!.7.,.,.,.>.7.7.7.-.7.-.7.5.j.d.R Z i i m #.!.).).].].;X:X=X=X=X=X;X{.{.~.J.J.J.I.^.-X;X;X;X;X;X;X;X=X].I.I.I.I.U.I.~._.!.>.M M M M Y j.j.6.5.Y s p p p p s s s s L X.e.e.q.h * @ # r                                                                                                                                   ",
"                                                                                                                                                                Q h h p t 9 9 9 = & = % $ = g ~ ....e.y.f.k.c.c.oX<XsXsXsXsXsXsXdXsXdXdXsXdXfX<X/././.v.a.j 9 < : : = $ & 5 8 ) 1.*.1.P.1.*.1.2.! 6 $ X . . . . o . X ; 0 w 0 w w w w w w w w w p a a a a a a Z D Z Z Z Z Z Z Z Z j s p d h h k s a s j Z Z D F F Z D D p : O O @ @ O % % = s ;.z.j.R.j.j.j.j.j.5.<.>.@.+.@.@.:.@.@._ _ _ _ @.@.` _ ) ) ) W I J R Z 9 $ X X # o o # . . @ * O % 9 l | | | K 0 % @ O q H  .;.;.:.@.#.#.>.>. .E E | J 6 $ O o @ # # # @ @ o X O O o o o # X < Q y.f.a.s./.XXXXXXXXkXlXgXfXsX| p p w M @.6.H.6.6.@.B n m m +.6.7.-.3.[ M M M V 6._.).^.^.I.6.6.j.a.R n a s M +.J.!.I.~.^.-X].=X=X=X].;X{.{.^.K.J.K.I.].;X;X;X;X;X;X;X;X;X;X;X-X-X-XI.-.-.<.>.Y M M M M E j.j.6.5.Y s p p p p s j s s L o.e.e.q.h * # # r                                                                                                                                   ",
"                                                                                                                                                                Q h x h q > $ $ $ X X X . X g q.e.e.a.h.c.v.b./.OXfXfXfXfXgXgXgXkXlXkXkXfXlXlX2X.X(..X.Xa.7 X X . . . . X $ 5 ;.2.2.*.%.%.*.` ` ! 6 X X X . o # # . X ; 9 t 0 w u w w w w w p w a a a a a i a Z D D Z m Z Z Z Z Z j j j j j j j l j j Z Z Z D F F F J H p : X . . o # O O % s ,.!.R.R.R.R.R.R.R.R.2.` _ _ ` ` @.) ) ) _ +.+.+.+._ _ _ ) ) E E ^ ..! 9 O X . . . . X o . . . . X > l ] ] ] l 7 % . . 9 K  .;.;.@.@.@.@.@.:.:.;.,.,. .= O X . o . o . o o o X # X o o o # o , Q y.f.s.s./.oXoXoXXXkXkXnXnXfX .p u a M @.H.H.H.6.@.B n m m E 5.5.=.=.[ M M i M 6.-X{.{.).I.7.6.j.5.R M i i M [ 6.!.I.I.^.-X-X=X=X=X=X;X-X{.^.K.J.I.I.].;X;X;X;X;X;X;X;X;X;X;X;X;X;X~.1.#.>.,.R M i M M E j.j.7.5.Y s a p p p s s d s L o.e.e.{ h * # # r                                                                                                                                   ",
"                                                                                                                                                                { x z z q : % % % X X X X % g ~ o.e.a.h.l.c.v.b.OXfXgXfXfXfXgXgXgXgXkXkXfXkXfX2X.X/././.a.7 X X . . . . . X 5 ^ ,.2.2.2.2.2.2.` ~ < X X X o o # . o . ; q t 0 u t t u w w w p p a i i n i w a n D D n n Z Z Z Z Z n Z Z Z Z Z Z j k j j D D F F F F F H p : X X . o o O O % a ,.!.!.!.E.R.E.E.R.H.2._ ` @.@.` ` @.@.+.+.+.+.+.+._ _ ) ) ) E E ^ ! ! 9 $ O X . X . o o o o o . X : l } { } K 0 $ O X 9 L  .;.+.@.@.<.@.@.:.:.` :. .o.= $ O O X . o . X o o o # o o o o o . , c y.e.a.s./.oXoXoXXXkXkXkXnXfXo.s a a M :.H.H.H.6.@.n M m F  .5.7.5.=.[ f M M C 7.).).).).I.7.6.R.5.U M i i M Y j.!.J.I.~.-X:X:X].:X=X=X=X;X].K.K.I.I.].;X;X;X;X;X;X;X;X;X;X;X;X;X;X^.4.<.5.3.[ n i M M Y j.6.7.5.Y s a p p p s s s s L o.e.e.{ h * # o q                                                                                                                                   ",
"                                                                                                                                                                } x c z q : ; * = $ O O X $ g q.X.X.a.h.g.c.n.b.@XsXfXsXfXfXfXfXfXgXgXfXfXfXfX2X.X(./. Xs.w = $ o o @ @ O * 0 ^  .;.;.` ` ` ` ` z : X X X o . + o o X * q 9 9 w 0 t t w w p p p a i M M i i M n n s s s Z Z Z Z Z A A S A S Z Z j z z k k j j j j j j j p 9 : * ; : ; & & 6 m >.R.R.R.R.J.J.J.R.6.2.` ` ` ` ` ` ;.@.@.) +.+.+.) _ _ _ ) E E R L ! H 9 $ % O O O o X @ X o . . . ; t z K K l 0 = * % 0 L ;.:.@.@.@.<.:.:.:.;._ _ ^ ..6 & $ % % % % O O O . . o o . . . o . , c u.e.e.e.b.oXoX XoXkXlXgXgXfX .a s a M >.J.H.H.j.@.n s n A E ,.;.;.$.[ i i i C 7.).].].^.I.G.G.J.5.Y M n B m [ 5.j.6.6.!.{.].].].].].=X].=X].I.I.U.U.^.].{.-X-X-X-X-X-X-X-X-X-X-X-X!.<.>.,.,.R n i M M Y j.6.5.6.( s i p p p s s s Z L X.e.e.{ h ; o o 2                                                                                                                                   ",
"                                                                                                                                                                c g r g g h x h k h h g q q z q.....X.X.e.s.f.h.v.XXOXOXOX<XsXsX3X3X3X3X3X<X<X<XOXOXOXOXn...H H x h h k g h k k j a n n M M a w q O X . o o . o o o . O ; : : 6 9 0 t w w p p i i M U E I I m M u u u a s Z Z Z n Z Z Z Z A A A j j p 0 6 9 9 6 9 9 0 0 p j D Z Z Z Z Z D F E 2.6.H.H.1.*.@.@.:.%.:.` ` ` ` ` ` ` ` ` ` @.+.+.) ( W W I F n a p p p 6 > : & > : ; ; ; ; # o X . * 1 y y y p p k p u n R ;.@.@.@.@.@.@.@.+.Y I / J L w 0 6 6 6 9 6 : 9 < * . o o . . . o . * c u.f.e.a.b.oXXXoXXX2X2X2X2X2X^ s s s M >.J.J.H.6.+.n s s M F R I U [ ;.E I V W 7._.].].].U.I.I.!.6.$.Y U [ R E [ +.+.#.6.^.^.^.^.].=X=X=X=X].^.^.].^.!.G.4.7.7.J.6.4.6.6.6.6.6.6.6.>.Y E [ R F s i i M Y j.j.5.6.Y s i p p p s s s Z L X.e.e.{ h * o o 2                                                                                                                                   ",
"                                                                                                                                                                v < ; ; x q.r.w.w.{ { { { { ..r.w.w.o.o.o.o.e.e.s.h.g.g.g.v.XXXXOXOX.X.X.X X(..X<X<X<X<XXXn.x.x.n.x.f.i.i.i.r.9 = = = = & & % = * X X . . o . . . . . X O O O * 9 0 t w w p p w w A ,.j.>.>.W 8 0 0 0 u s Z Z Z Z Z S Z A A A A Z j u > % % @ @ # @ $ > p  .3.,.>.>.>.5.j.5.<.<.%.<.<.` W V m A V ( @.@.@.@.` _ ` ` ` ` ` ` ) _ I m M n a 7 = = = : : q q 9 9 9 9 9 q q * # # o @ O * % % 9 z ~ E R E ;.:.%.*.%.%.#.#.>.;.I m A Z D Z j j j s j d k h t < o . . . . . . . ; c u.t.e.X.b.oX.XoXXXOXOX>X>X<X^ s a a M :.J.H.G.6.+.n s s s M m M n f U ,.,.>.>.6._.].].].^.].).)._.=.>.>.3.,.R N m C N +.!.J.K.I.~.=X;X;X=X;X].=X=X{.J.V V V N N N N I I I N N N N m C m m n s u u i i U j.j.6.5.Y s u p p p s s s Z L X.e.t.{ h * o o 2                                                                                                                                   ",
"                                                                                                                                                                g * @ O x r.k.f.k.f.y.e.e.e.w.e.............e.e.s.s.s.h.f.c.oX X X X/././././.oXsXsX<X<X<XoX@Xb./.@Xc.x.k.x.i.< X X X X X X X . . . X . . o . . . . . . . . X * 9 t p u w p p w i I ,.j.5.5.) 8 0 0 0 u s j Z Z Z Z Z Z Z Z Z Z n s u & X X o . + + X $ w ;.j.j.H.H.6.6.R.J.6.<.@.%.&.) / M n n m Y +.@.@.@.@.` ` ` ` ` ` ` ) ) / m n S a 7 $ $ X = : y y q t 0 0 9 t t * X # X o X O $ O > z w.;.;.;.;.` %.%.%.@.@.@.>. .I m F F Z F Z D H Z D Z D H h < X . o . . . . . ; c u.e.e.s.b.oX.XoXXX.X.XOXOXOXR s s a M :.H.H.4.6.+.s s M s i i u i n R 3.>.>.<.6.).].].].].-X{.)._.<.5.5.5.5.R i w 8 C [ j.6.6.I.~.-X;X=X=X=X=X;X;X3X6.V M M M i M n n s M M M M M M M M u a d p s i i R j.j.6.5.Y s u p p p s s s Z L X.e.t.{ h * o o 2                                                                                                                                   ",
"                                                                                                                                                                g @ O X x r.f.f.f.t.t.t.e.w.w.............o.e.e.a.f.g.g.g.v.@X@XoX X X XV.n.b.XXpXsXsX<XOX@X/./././.c.g.c.x.y.: X O O X o . . . . . . . . o # + # # # o o . . * 0 u p u w p a i i I >.j.5.5.) 8 0 0 0 u j j S S S S S S Z Z D D D s u = X X o . o X . $ 8 ;.6.6.G.G.H.G.H.H.4.<.@.<.2.+.I n n n ' Y +.@.+.@.@._ :.@.:.;.) ) ) E J Z Z Z j 9 $ X X = < q q 9 9 0 0 0 q 9 * X X X . O O O X > k w.;.;.;.;.` @.@.@.@.@.>.:. .I N m A A F F F D Z Z Z s D j : X o o . . o o . ; c r.e.e.s.b.oXXXXXXX.XOXOXOXOX .s a M M @.H.G.J.6.( M i s M i i s u n F 3.3.<.<.J.).].].].{.-X{.{.!.&.7.7.7.5.R i i i i [ j.j.!.I.~.-X=X=X=X=X;X;X;X-X6.C M M M i n s s s s M M m M M m M i s p d a i i U j.5.6.6.Y s a p p p d s d Z L X.e.e.w.g * # # r                                                                                                                                   ",
"                                                                                                                                                                g @ O O x w.f.t.f.s.e.X.o.e.e.......{ ! ! { ....e.e.f.f.a.k.n.V.V.M.n.V.x.k.x.V.+X,X<X<XXX@X/./././.j.l.c.n.f.9 % : ; * @ # # # @ . o . . , v c c c g @ . X o ; 0 p p w w w w w w A ;.5.>.>.Y 8 w w w p j k k k k k k k j k j j l j u 6 $ $ % % O $ $ & i +.5.4.P.G.G.P.1.H.1.<.%.<.<.+.V C M M V ( @.@.@.@.@._ @.;.+.) Y E R R S j j j k q > $ % > 6 q q 0 0 0 0 0 0 0 : $ O * O * % % % 6 k ~ E E ) ) +.+.@.@.+.+.+. .E F A A A A F F D Z Z Z D n D j 6 % O . . . . o . ; c u.e.e.t.b.oXXXXXXX.XOXOXOXOX .s s M M @.K.4.H.6.+.M i i s u u a u i F 3.>.#.-.J.).].].{.].].).).!.-.7.5.5.3.R a i i i R j.j.j.J.^.-X=X;X=X=X;X;X;X-XJ.V C V N m n n n s m N N V C m M i d d d d p a i R j.5.6.5.Y s a p s p d j d Z L X.e.e.w.g * # # 2                                                                                                                                   ",
"                                                                                                                                                                g # X O k w.f.t.e.e.e.X.e.X.! j k k k k k k k h l z Q Q H ! { { q.{ { { ~ ~ ~ } u.y.e.e.h.v././././.z.c.v.b.g.H j j x k g g g 2 , . . . @ q.          v o X O ; 0 p j p p p w w i n R ) E E I w 0 0 0 0 w q q 0 q q q q q y y y q q t j a u u u w w w u A ;.2.<.1.1.1.<.2.1.<.%.%.*.%.@.( V V I ( _ @.@._ @.` _ +.+.E m i i a u q 0 q 0 w q 9 6 6 9 q t t t t u u u p u 0 6 6 6 6 6 6 6 6 9 t j s s m J R E Y E Y Y E T I F A / A A S S Z Z Z Z A n Z Z 0 : < : * X . . . ; c y.t.e.t.b.oXXXXXXX.XOXOXOXOX .s s M C %.K.4.G.6.@.I N F F i u p u i U j.6.7.J.!.).].].{.~.!.!.!.J.&.<.<.5.3.R a i u i D E  .+.#.!.-X;X=X=X;X;X;X;X;X~.K.4.6.<.Y m m m N +.5.<.<.&.R n i s s d d u a i R j.5.6.5.Y s p p s p d j s D L X.e.e.w.g * # # q                                                                                                                                   ",
"                                                                                                                                                                g # . X h ..e.e.e.a.e.e.e.e.H 6 * * * * * * : : : : : : : < 6 < < 1 < < : : : * < < > 6 Z h././.v.b.v.b.n.b.b.g.g.h.f.f.~ ~ q.~ g @ . . @             c X X * , 0 p j p p p w p a i M m n n n w p p p 0 : $ $ $ = = * * % % % * @ ; h !  . .E E E E R R E ;.:.:.%.%.@.:.:.&.&.%.%.%.%.%.%.@.@.@.%.%.%.%.@.@.@.:.+.E F 8 & & & % % = = = < y k k p k j j d s s j a s j j s p p j s p d k p u 7 5 > & 6 a D F N F F F F A A A A / A A F S F Z A Z m n Z Z s p p p 1 * X o . , c y.t.t.s.b.oXXXXXXX.XOXOXOXOX .n n n M &.J.G.H.J.<.>.>.>.[ n u u u i  ._.!.!.~.^.{.].{.].I.7.7.7.-.&.7.7.5.5.R a i u u u M M C V 7.-X;X=X=X;X;X;X;X;X=X{.-X-X).>.N C C V R.{.{.{.^.,.M i s p p d p i i R j.6.6.5.Y s p p a p d j s D L X.e.e.w.g * # # q                                                                                                                                   ",
"                                                                                                                                                                g # X X h { e.e.a.e.e.e.e.e.z & . . . O O O O O * O @ @ O O O X O O X X X X X . . X . X 0 s.b.v.n.b.b.b.b.b. X/./.b.b.b.e.e.e.w.x @ o . @             c o X * < 0 p j k j j p p a u w w w w w w u p p 0 = X X O O O O O O O O O # * p ..,.>.>.<.>.:.,.,.;.;.;.@.@.:.:.:.:.>.<.%.%.%.%.*.*.<.<.1.2.2.@.` @.:.;.;.;.E Z 6 $ O O O O O O O : t j j j j j Z Z Z j j s n Z j j j Z Z Z s j Z Z p 6 $ X O & u j Z n m m Z m A A A A A A A F F A Z A Z A n A A Z Z Z S r ; X X . < c y.y.t.s. XXXXXXXXX.XOXOXOXOX .s n M M #.J.G.H.J.6.R.j.j.>.B u u a i +.).^.^.^.).{.].{.).7.-.&.<.&.&.<.7.5.5.E s i u p w i i M C 7.-X;X=X=X;X;X;X;X5X;X;X;X3X{.6.V C C V !.3X3X;X=Xj.n i a u p s a s i R j.5.6.5.Y s a p a p j Z j D L X.e.e.w.h * o o 2                                                                                                                                   ",
"                                                                                                                                                                g + . X k q.y.y.e.e.e.e.e.r.k = . . X O O O O % * % * * O O O O O O X X X X X . . . . . 0 a.b.v.b.b.b.V.V. X/.(./././.b.X.e.w.w.v @ o o 4             c o X @ , 0 k k k k k k k p u u u u w u k t p p 9 > O O % O O O O O $ % % X % u  .5.<.<.<.>.>.:.:.:.;.@.@.@.@.@.@.>.:.:.%.%.%.*.*.*.<.1.1.2.:.@.:.:.;.;.;.;.^ Z 6 X X X . . X X O & y d a M M M M M n n a M M s n n n n n n M s s s p 6 $ . X > t j Z Z Z Z D Z Z S S S A A A F S S Z A A Z A A A S Z Z Z g * . X . ; c y.y.s.f. XXXXXXXXX.XOXOXOXOX .s s M C @.K.G.G.6.6.J.J.R.=.N u u a i +.).^.^.].].{.-X-X{.7.<.<.#.<.<.4.<.<.3.U i i u p u a a M C 6.-X;X=X=X=X;X;X;X;X;X;X;X-X).7.V C C V !.;X;X;X=Xj.M u f u p p a i i E j.j.j.5.Y s a p a s j Z j D L X.e.e.{ h * o o 2                                                                                                                                   ",
"                                                                                                                                                                b + o . g ~ { ..........w.q.z < % % % & > : : : : > : : * > > > = = % % % % % O X # o * y ..c.v.n.c.c.c.n.n.v./././.v.v.o.X.....c * . . @             v o O @ < 9 u p p p w w w 0 0 0 0 y q q t p p p 9 : % % = = * * * * > % = = & p  .>.>.@.@.;.+.+.+.+.@.@.%.$.@.@.@.@.@.@.@.%.%.%.%.%.%.2.2.>.;.Y ) ) E Y R T L Z 7 = % * O X O % % 6 p n m m m m m m m m n M M n n n A A m m m A Z Z p 6 & O % : w k j j j j j s j j Z Z Z m A A A S Z S S Z A A A A A Z Z g * . X X ; c y.y.f.f. XXXXXXXXX.XOXOXOXOX .s s n C @.K.G.G.6.6.H.H.6.>.N i p p i +._.^.^.].^.^.).).).7.<.<.#.<.<.6.6.6.5.E i i p p p a a M C 7.-X;X=X=X=X=X;X;X=X;X=X;X-X).5.N C C V I.-X;X;X].d.M i u u d u s s M E j.j.j.j.Y s a p s s j Z j D L X.e.e.{ g * o o r                                                                                                                                   ",
"                                                                                                                                                                b + . . 2 g h h j j j k k z k q q t p k k k k k k k k k h h k h h p p p k p t g g g g g h H L R ........o.X.a.c././.z.c.o.X.o...v * . . ;             v o @ @ * > 0 0 9 0 q 9 9 > 6 : : : < < 9 6 6 9 9 9 q t g t g t t t q 0 0 q 0 a R +.( Y Y Y W I W ( _ _ %.@.@.$.@.#.@.@.@.@.%.%.` _ _ _ ` U m M M M M M M a a w q 6 q q q 2 q 1 9 u D R R Y Y E U R T F A M M n n A T T T I R R R L D u 6 < < 9 w t w w w y y 0 0 p d Z Z m m A S Z Z S Z Z S A A A A Z Z g * . X X ; z y.y.f.f. XXXOXXXXX.XOXOXOXOX .a a i C @.K.K.G.6.R.J.H.6.>.N i u w i +.^.^.^.^.~.~.I.!.!.&.=.<.#.<.6.!.!.!.!.+.M i p p u s i n V 6.-X-X=X=X=X=X;X;X=X=X=X-X-X_.3.m M M V I.-X;X;X].d.n i u u d u s s M E j.j.j.j.( s a s s s j Z Z D L X.e.e.{ g * o o 2                                                                                                                                   ",
"                                                                                                                                                                g . . . # @ @ @ 4 @ @ * * * q x m I I E ) +.@.@.+.@.( @.) _ ) ) ) Y ) >.>.@.@.@.@.) ;.;.J 0 ; ; 3 3 2 , < 9 d a.g.g.g.f.e.e.e.w.c @ o # ,             v # o o # @ @ @ , @ @ . # X o o o # # # # O ; % > n R Y ( ( ( ( Y W I N B A A / I F A Z Z Z Z n n F [ +.+.@.%.%.%.%.%.%.%.%.%.` _ W / F J k 9 % * * * * * * % < p j s n n Z Z Z m J E ;.:.:.:.@.:.:.;. .N Z Z n n E ;.;.;.@.@.@.:.;.E F M j j k 9 * * , 4 4 4 @ = = k Z Z A A F A n m A m m m m m Z Z j j t > . X . , c u.y.f.k. XXX1XOXOXOXOXOXOXOX .M M M M :.j.6.K.H.K.G.H.6.>.F u u 8 M +.).^.).^.J.&.3.3.3.>.,.,.>.2.~.].].].^.>.M a s s s a s M V 7.-X=X=X=X;X;X;X;X}.;X;X{.{.^.=.C M M V !.-X;X;X{.5.C i a k k j s M M E j.j.j.5.( n s a a d j j j D L e.e.e.q.g * o O q                                                                                                                                   ",
"                                                                                                                                                                b . . . . . . o o . . X . X 1 k I E Y +.:.>.>.@.#.<.@.>.+.@.+.:.:.;.<.6.6.6.6.6.6.5.j.h.L 6 X X # o o X O % 9 ..h.f.f.f.e.w.w...c , o # ,             v o . # # . # + o . o . . . . . . . . o . . O O 6 F ,.2.5.<.<.2.2.>.+.U F A F F F A A Z Z n n s n F E +.+.@.@.@.@.;.:.:.%.:.%.:.) I A S J h : O O O O O X X X : p j D F F F F F F U +.>.>.<.<.@.:.>.:.+.N Z Z n M E +.:.@.:.@.@.:.:.+.I m S S p 6 $ X o o . . . X X w j j S S A S A A A m m m m m Z Z Z Z t > . X X , c u.y.f.h.oXXX1XOXOXOXOXOXOXOX .i i M M :.j.6.K.H.K.G.H.6.>.F u u 8 M @.).).).^.4.$.+.$.$.+.>.>.2.6.~.].:X:X).5.m n s s s a s i V 7.-X=X=X=X=X=X;X;X}.;X}.{.{._.=.C f M V I.-X;X;X].3.C w a j j j s i f Y 5.j.j.5.$.M s a a d j j Z D L e.e.e.q.g * o O 2                                                                                                                                   ",
"                                                                                                                                                                g o o . . . . . . . X O X $ q z I E Y +.>.>.<.<.>.>.#.<.@.:.:.:.@.@.2.j.R.R.J.H.1.2.j.j.^ 6 X X . . . X O O 9 ..f.f.f.f.e.e.e.w.c , o o ,             c o . # o o # o o . o . . . . . . . X . o O % $ 6 L a.5.5.1.1.6.6.2.;.Y F F F F F F A A Z Z Z n n F E +.+.+.+.+.+.) ;.;.;.;.:.:.E F Z Z H h : O X O O O X X O > d D F I I I I V V W +.<.<.*.*.%.%.%.:.+.V n n n M E +.@.@.%.%.%.%.@.+.W m J J d 6 $ X . . . . . . X 0 k j Z Z Z Z Z Z Z m Z Z A Z Z Z Z Z t : X X X , c y.y.f.k.oXXXXXOXOXOXOXOXOX.X| i i M M :.j.6.K.G.K.H.G.6.>.F u u u M +.).).).^.7.+.+.+.+.$.>.>.<.6.~.{.:X:X).5.m M s s s a i f V 7.-X;X=X=X=X=X=X=X=X=X{.{.{._.=.C i M N 8.-X;X=X].3.C i s j j j i M C [ j.j.j.5.Y M s i a a s j Z D L e.e.e.q.g * o O 2                                                                                                                                   ",
"                                                                                                                                                                2 . . . . . . . X X % % % & 0 j I E Y +.>.>.>.>.>.@.@.@.@.@.@.@.@.@.2.6.R.J.H.H.1.2.6.j.E w $ $ O O % % % $ 9 { e.e.e.u.w.w.w...v , o o ,             q.2 , g , @ . . . . X . . . X X X X X X X O $ $ 7 J ,.2.2.2.2.1.5.>.;.W I F F F F F F F Z Z Z n m F E +.+. . . . .E  . .E E  . .^ D j j S t : % O O $ % $ O $ 6 a F F / V V V V V V $.%.*.*.*.%.*.%.@.+.V n M M M ) @.@.@.%.%.%.&.@._ V m A A a 7 % X O X . . . . % q k z j j j j j j Z D Z Z Z A A A A A t : X O X < Q y.f.h.h. XXXOXOXOXOXOXOXOX.X .i i M M :.j.6.H.G.H.H.G.6.>.D u u u M +.).).).).6.+.;.;.+.:.>.>.<.4.~.].:X:X].4.V M n s s f i i N 6.-X-X=X].=X=X=X=X=X:X].{.-X!.$.f i i N 8.-X-X:X].3.M i a j j D m C C Y >.5.d.,.[ m M M s s s j Z D L X.e.e.{ g * o O 1                                                                                                                                   ",
"                                                                                                                                                                q . . . . * ; ; : : 9 0 0 0 j H I U Y >.).)._._.6.+.@.@.@.@.@.@.@.@.2.J.R.K.K.H.1.1.5.2.E m u 0 9 0 6 6 6 : q k k k x z k k x h 2 @ # o ,                       b . . . . @ * * * * * > : : > > 6 6 6 w F E ;.) ) ` +.` ) E W I F F F F F N D m Z Z n n A I W W L F Z s s p p p a s s p 0 0 q q q 9 6 6 6 6 9 9 6 6 w F R E ) ( Y Y ( ( ( @.*.*.%.*.%.%.%.@.@.V n n M M E @.@.@.%.%.%.&.%.@.( Y R R J s w 7 7 6 : : : : < 9 q r q y 9 9 0 0 0 j Z Z Z A A A A A t : X O O < Q y.f.f.h. XXXOXXXOXOXOXOXOX.X| i i i M ;.j.6.J.G.H.H.G.6.>.D u u u M Y !.!.!.!.+.V I F U +.<.2.2.G.~.].:X:X].J.Y I G F n i i f m #.!.U.Y.U.].;X=X=X:XY.-.=.=.$.B i a a F 7.).:X].Y.3.n i a j J  .[ [ Y Y Y E E U N I I I J F n n Z D L X.e.e.{ g * o o 2                                                                                                                                   ",
"                                                                                                                                                                g . . . ; q r t t p k j j Z F J I I E R.fXVXVX3X_.@.@.@.@.@.@.@.@.@.<.H.J.K.H.G.%.*.%.:.;. .R R ! H p u p k g 6 O O $ O O O O X @ o # # 2                       c . . . o 1 q t t t t p p d d d k k j j Z F I I I I I I I I A A D S F F F N m m D m n n n A m m s u 6 % O O O $ $ $ $ $ O X O $ : t k j j j j Z j s F  .:.>.2.&.:.:.:.:.@.%.*.*.*.*.%.*.%.:.+.V Z n M M E +.@.@.%.@.@.@.%.@.:.:.>.>.;.[ R L J H j h h h g < % O . O O O $ O & w j Z Z A A A Z A t : X O o < Q y.f.s.d. XXXOXXXOXOXOXOXOX.X .i i i M ;.j.6.J.G.H.H.G.6.>.D u u i i V 6.5.5.>.V f a i m [ <.6.4.K.~.:X:X:X-X!.@.+.[ [ F i M i M [ <.-.-.-.Y.-X-X-X^.-.C 8 f f i a p a m 5._.^.Y.I.,.i i i Z ^ d.j.j.5.Y M i i i m +.+.;. .R D n Z D L e.e.e.{ g ; o o 2                                                                                                                                   ",
"                                                                                                                                                                2 . . . * q y t p p d Z Z Z F F I I E j.VXnXVX2X).@.$.$.@.@.@.%.%.%.1.J.K.I.K.K.*.*.%.@.;.+.[ E  .R s a j j g = % O O @ O O * O + # # # 2                       c . . . o q g g p k j j j j Z D S j H H D F F F F F F F F F F F F F F F N N m m D D Z Z Z Z n n j 0 = . . . . . . . . . . . + + & t j j H S Z F F A I +.:.&.&.%.2.2.2.>.>.&.%.%.%.<.%.&.:.:.;.I Z Z n n  .;.:.:.@.@.@.@.:.>.>.>.@.#.:.;.;.;. .^ Z j k h h : X X . O . . X X = u j Z Z Z S S S Z t : X O o < Q y.f.s.d./..XOXXXOXOXOXOX.X.XR i i i M ;.j.6.H.G.G.G.G.6.>.m u u i M U j.5.5.5.U M a i M [ 6.6.G.K.^.].:X:X:X!.#.;.[ [ G f i M M U <.&.-.-.I.-X-X-X_.#.C 8 i i u p w a A ,.!.!.I.I. .i u i Z  .j.z.7.5.Y M i i n L :.>.>.,.E F n m F ^ e.e.e.{ g ; o O r                                                                                                                                   ",
"                                                                                                                                                                q . . . * 9 y p p a s n n A F F I I E j.fXVXVXgX).@.@.@.%.@.@.%.%.%.1.J.L.~.L.K.1.%.%.%.:.) E  .E T s a d j h : O X O @ X o @ o @ @ @ # 2                       c . . . o r h t t p j j Z n m m Z Z D H D D F N N N F F F F F A Z S A A N N N D D D H H S Z Z j h q O . . . . . . . . . . . + + = p j j Z Z n A m m I +.@.&.<.*.:.:.:.:.:.@.%.&.%.&.@.:.:.:.+.I Z Z n n E ;.:.:.@.<.>.>.:.:.:.:.>.#.@.@.:.;.) R F Z j j j & X O . X . . X . $ w k j Z Z Z S Z S t : X O O : Q f.f.s.s./..XOXXXOXOXOX.X.X.XR i i i M ;.j.6.H.G.G.H.6.6.>.m u i i M U j.5.d.3.I i Z a m +.6.J.J.I.^.:X:X:X:XI.#.@.[ [ B 8 i s n R 5.>.<.&.I.-X-X-X).>.M 8 i w i a a a A ,.!.!.!.!. .i u u n E 5.6.5.5.E M n a s L @.@.>.:.E N n m F R X.e.e.{ h * o @ q                                                                                                                                   ",
"                                                                                                                                                                2 . . . < 9 p j d s n n m m A I I F I j.2XnXfXfX).@.( @.@.<.@.*.%.&.1.K.~.L.~.K.*.*.*.@.@.+.) ) E I n M s j k = % X @ @ . o # @ , 2 2 2 g                       c . . . @ q g t h u j j s n n m Z Z Z D D D m m B m D D F F S S S A F A F F F F D j l x j j k j g q @ . . . . . . . . . X X + X & u Z Z n m m m m m I _ &.*.*.*.&.&.<.<.<.@.@.&.%.%.&.:.:.>.;.I Z Z n M E ;.>.:.<.&.<.<.:.:.:.:.@.%.@.@.@.:.+.) I m n Z j 6 O $ X O X X X X = t k k z j j j j j g < O O O : c f.s.s.s./.XXOXXXOXOXOXOX.X.X| i i i M ;.j.6.6.G.G.H.6.j.>.m i i i M I d.d.5.5.I i j a M +.J.K.K.I.^.].:X:X].I.&.$.[ [ N i i i M T 3.5.<.&.I.-X-X-XOX>.M 8 i i f M i 8 M ;.j.!.!.j. .f u i i R 5.7.6.6.+.M M n n L @.<.>.:.E m n M D ^ X.e.t.w.h * o O q                                                                                                                                   ",
"                                                                                                                                                                2 . . . t Q ! ! ! D a n m A A I F I U ,./.OX).).5.+.@.@.@.%.@.%.%.&.1.K.~.L.~.K.*.*.&.&.@.+.) ) +.U M n s j j 9 9 < 1 1 X o # @ v                               c . . . . ; < < : 6 p j s Z n m Z Z Z Z Z m m m N F m D F F A A S S S A A F F D s y y r 9 q q q 1 * X . . . o # @ * * = = * : , 8 Z L T T W W W W W Y @.%.%.%.*.%.%.@.%.%.@.%.%.%.%.%.@.:.>.+.V n n M M E :.:.@.@.%.%.%.%.&.:.:.@.@.@.@.@.:.@.) Y W I T J w 6 6 > : : > : > : q t t t t t t t t 1 * X O O < Q f.f.s.s./..XXX.XXX.X.XOX.XoXR a a i M ;.j.6.6.H.G.H.6.6.>.N i i i M m  .[ [  .n i j a C >.!.~.~.U.^.].].].].I.1.*.=.$.U i a i n R ,.3.>.>.<.j.z.!.j.>.+.+.$.V V $.$.Y +.>.>.;.;.+.D u u u s U 3.7.7.6.+.M n n D L @.<.:.:.E m m n D | X.t.t...h * o O q                                                                                                                                   ",
"                                                                                                                                                                2 . . . g r.e.a.a.R n M m A A A A F I I I V m m V +.@.@.@.@.%.%.@.*.1.K.~.E.~.K.*.*.&.#.@.+.) ) E I M n n s j p h g g g # o # ,                                 c . . . . X X O O % u j s n n Z A A A A A A F F F F F F F F A A S S S A F F D D 0 % % O O O X X O X . . . . # , r t t t t p g k M R  .;.;.;.+.+.@.@.@.@.%.%.%.<.*.%.%.%.&.&.&.*.*.%.%.%.%.<.@.V m m M C ) :.&.%.%.%.%.%.%.%.%.%.:.:.:.:.@.%.@.@.@.;.;.;.E J s p k k k k k k t q = * * % % * % % * @ X # o < Q f.f.s.s./..XXXXXXX.X.X.X.XoX| u a i M ;.j.6.6.G.G.J.6.6.>.N i i i i u M M M n i a j a N 5.).{.].^.^.].].].^.~.K.R.!.6.[ i M a n R a.,.>.+.V C C C V <.^.).).).).).^.^.!.<.V i i i u 8 u a i U 3.5.5.5.) m n n D L %.&.#.:.E m m n D | X.t.y...h ; O O q                                                                                                                                   ",
"                                                                                                                                                                g . . . k w.w.f.s.R m m A A m I J F I m M M M M C +.@.@.&.<.<.%.%.&.1.K.~.E.~.K.*.&.@.@.@.) ) ) [ I M n m n j j k k k g O X o ,                                 c . . . . . . . . % t j d s s Z Z Z A A A A A A F F F F F S A S S S Z Z D F D j 9 % X X X X . X X . . . . . @ q g h k j s j j j m E >.>.:.:.:.:.<.<.&.%.@.%.*.<.*.*.%.&.&.%.@.%.%.%.%.@.@.&.+.V m M C C ) :.@.@.%.%.@.@.@.@.@.@.:.;.;.;.@.@.@.:.@.:.:.:.;.T m n Z Z j Z j z j 6 O O X X X X X . X X o # O ; Q y.t.s.s.b..XXXXXXX.X.X.X.X.XL u i i i  .j.6.6.4.G.J.6.6.>.V i i i i w i u u i i s j s m 7.).].{.].].^.^.^.^.~.~._.!.!.:.f M a a R s.,.,.;.I 8 f 8 C 4.-X;X-X;X;X-X-X-X).7.C 8 8 8 u u p i i U 3.5.<.5.E m n n D L %.&.@.:.E m m m F | e.f.t...h ; O O q                                                                                                                                   ",
"                                                                                                                                                                b . . . k w.e.t.s.R n n A A A F F A F m i M M 8 C :.@.@.<.%.<.%.&.&.1.R.E.R.!.J.&.#.@.@.;.) ) )  .I M M n i a s s k h g X X o ,                                 c . . . . . . . . % q k j j j D Z Z Z Z Z Z Z A Z F F F F J Z Z S H Z Z D D j j 9 % O o o @ O O X X . . . . * q p p p a a a a a C Y :.:.:.%.%.&.@.&.&.#.:.<.<.<.&.@.@.#.#.@.@.@.@.@.@.@.:.>.+.I m m M M E ;.:.:.:.:.:.@.@.;.@.@.;.;.;.;.;.@.@.@.@.:.:.:.;.W M M n n n Z j H z < $ O O X o o o o . # # # . ; c y.t.t.s.b..XXXXXXX.X.X.X.XoXR u u u i  .j.6.6.4.H.H.6.6.>.V 8 i i i i s i u a a s j M N 7.^.].].].].^.^.^.^.~.~.!.!.!.$.f i i i R 3.,.,.,.U 8 i 8 C J.-X;X;X;X;X-X:X-X^.-.M 8 u u u u p u i U 3.3.<.5.E m n m m R %.&.#.>.E m m m F | a.f.t...h ; o @ q                                                                                                                                   ",
"                                                                                                                                                                g # # O k w.y.e.f.^ n M A F A F F J T F i w i 8 M ;.>.:.<.@.&.<.&.&.1.J.R.R.R.J.&.#.@.:.;.Y Y E R I m M M n a i s s p h X O o ,                                 F.. . . . . . . . O q h k j j j j j j Z Z Z Z Z D D D H H H D S j l l j Z D j k < O X o X O X X X X X . . X = w s a a M M M n n C Y @.@.%.%.%.*.%.&.#.@.@.:.#.@.:.+.+.;.:.;.;.;.;.;.;.;.;.;. .R D D n m  . .;.,.;.;.;.;.;. . . . . . .;.:.@.+.@.:.:.:.2.:.Y V m m A n Z Z H H : O X X . . o o o o X o # . ; c y.e.t.s.b.oXXXXXXX(..X.XoX XL u u u i  .5.5.6.6.H.J.6.6.>.m 8 i i i i u u i a s s s M N 7.).].].].^.~.^.^.^.~.~.I.!.!.#.f i i i F ,.,.>.[ N 8 8 8 C 1.].;X;X;X;X-X;X-X^.=.n u u 8 u u p u f U =.3.3.3.E m n n m I %.&.&.>.E m m m F | s.f.t...h ; o @ r                                                                                                                                   ",
"                                                                                                                                                                        q.c K H L Z s n Z S S F Z Z F Z M M M M m ;.>.>.>.&.%.<.#.&.<.J.R.R.R.J.#.#.:.;.E I m A n F R R R R J i a s p h O O . ,                                   o . . . . . . . X < 9 q 0 0 0 y y y y y y t t t t t t t t y y y t y 0 y t t q < * @ @ * < < < ; : < ; : < 9 p a n M M M m N N V _ @.@.%.%.%.*.%.&.@.+.+.+.) Y F A m D D n n D Z Z D Z n Z Z d t t t y j j j D D Z Z Z Z j j j Z n F R  .) ( ( +.@.@.@.@.) Y W I I M n Z Z j > $ O O # # # # # + + o # o , c u.e.e.X.c.n.b.b.b.(.oX.XoX XL u u u i E >.<.2.4.G.K.6.6.<.Y V F F F n u u a a s s s M N 7.).].].[.!.K.I.I.I.I.~.~.^._.5.N N N B B U U U U U ,. . .&.I.].;X=X].].].^.^.!.;.s u p y s Z D D D ] $.=.=.3.E m n n m U %.&.>.>.E N m Z J  .s.f.t...h : o @ 2                                                                                                                                   ",
"                                                                                                                                                                          y % = & 7 u Z Z Z S J F F F J J I I I U >.>.:.>.2.<.%.#.&.<.J.R.J.R.6.#.@.+.;.I M 8 8 8 Z a.j.j.j.,.n i a p k O X . ,                                   # . + . . . . . . O O O $ % % O O O O % % % % % % % % % % O % % % % % % % = % % X @ @ < g h h t g g g g h k Z F A A I E +.+.+.+.:.@.@.%.*.%.%.%.@.+.Y V W V m 7 6 & & & & & & & & 5 & $ & & $ O O % O > % % & & & & & $ $ $ $ $ $ 7 s I I W Y ( @.%.@.@.2.:.;.;.) m n Z Z Z 6 % @ X # + # # # # + . # o , c r.t.e.o.s.s.s.s.s.(.oX.X X XL u u u i U >.@.<.4.4.J.6.6.6.>.>.5.s.s.R a a s p a s s M N -.^.].].^.G.&.#.&.-.I.^.).).^.!.$.[ [ U N f M f M ,.OXOXOX).^.^.Y.Y.U.~.~.Y.I.7.E p 0 p p J | o.| |  .,.=.3.3.E M n M M G %.&.>.>.E A A Z J o.s.f.t...h : o @ q                                                                                                                                   ",
"                                                                                                                                                                          2 . . . : t j Z D m N F J F J R U U Y Y #.>.#.<.<.%.<.&.#.<.J.R.J.R.6.@.) +.;.T i 0 0 8 m 5.j.d.d.5.F n s j p O X . ,                                   o o o . # . o . . . o # o X X # # # . . . . # # . o # o o # . + + + # + + + # X @ O O : h k h j j s a a n n A A A I W ) ;.;.;.%.%.%.%.%.%.%.%.@.:.) Y I I R n 1 o o @ o # # # # # # # o o X . . . o o . . o . o . . . . . . . . . % p F I I Y _ @.@.@.%.%.*.*.<.>.V M m Z j 6 O o o # o o @ o o o o o . , x u.u.r.y.y.t.t.O.X. XoXoX X@XL a p a i R ,.+.:.>.6.G.G.4.6.6.6.6.6.5.W M M M i s s M M N 7._.).^.^.7.#.#.#.#.I.^.^.).).I.$.[ ,.[ D u i 8 C 5.-X-X-X{.^.~.~.^.Y.I.I.I.!.7.[ i u u k J |  . .[ ,.3.,.,.,.E M M M A T @.&.2.:.E I m D F ..s.f.y.w.h % # # r                                                                                                                                   ",
"                                                                                                                                                                          2 . . . : t j Z D D N Z F F F I U U U Y #.>.#.<.<.*.<.&.@.<.J.J.H.R.6.@.) +.;.I i 0 w 8 m a.j.j.j.d.I s s d p O . . *                                   o # . . o . . . . o o . X X X . . o . o o o . . . . . . . X X o o + + # + + # o X X O : h x j j j j d s s Z A F A F T E ;.;.;.@.@.@.@.@.@.@.@.:.>.;.R T T R A 1 o . o o o # # # # o o . O X X . . . . . . . . . . . . . . . . . . ; k J T I W +.;.:.@.@.@.@.@.>.>.I m Z D j 9 * o O # X O O X # o o o o , x p.u.w.y.y.e.t.X.X. XoXoX X X^ a a u a R ,.,.>.>.5.G.G.G.6.6.6.6.6.5.Y M i i i n n n M N 5._.).).^.7.#.#.#.#.!.).).).).!.#.[ ,. .J u f 8 C 5.-X-X-X{.).~.~.U.U.I.I.!.!.7.[ i u y k J  . . . .,.,.,.,.,.U M M M n F @.&.2.:.Y I m F F ..s.f.y.w.h > # @ r                                                                                                                                   ",
"                                                                                                                                                                          2 . . . : t j Z D N m Z F F F U E Y Y +.#.&.&.*.*.*.<.&.&.<.J.J.H.H.6.@._ +.;.I i w u w F a.j.j.j.s.R n j j h O X . ,                                   # # o . o o O o o O O % % O % % O O O O O O O X O O O $ % = % & % % O X # o + + o X O : y k k k h h k k d j Z D D F J R E  .E E E [  . . . . . .;.E R J J J H q ; O % ; ; < < : ; ; ; ; ; ; ; ; ; ; ; * * * * O * @ @ @ @ # . o X ; t H H J J E E  . . . . .+.E E Z s j j k < O o o o O * % % O . . O X , h q.r.{ { t.t.t.X.o.(.oXoX X X| j a a s R  .,.,.>.2.G.G.G.H.H.6.6.6.5.$.C M M m A M n n N >._.^._.!.-.#.#.#.>.J._.^.).).!.>.$.,. .L u n f M =.).).).).^.~.~.U.U.I.I.!.!.7.[ i u u s G [ ,. .,.,. . .,. .I M M M m I @.@.>.:.Y V m F F o.s.f.y.w.h > # @ r                                                                                                                                   ",
"                                                                                                                                                                          2 . . X : t j Z Z N m m N F I +.:.+.@.@.#.&.&.&.*.*.*.&.&.<.J.J.H.H.1.@.( +.;.R M i a n F  . . . . .F s d k t X . . ,                                   # # o @ 1 1 1 1 9 9 q q q 9 9 9 9 9 9 9 6 6 6 6 9 0 0 0 u p p a u 0 > O X o . # # # X % 9 9 7 1 1 1 1 1 9 9 0 0 0 0 y u p a a p p p d d s s s s Z d p p p k j h t t t h ~ ........{ { { { { { ......{ { { ~ ~ } } ~ ~ ~ Q x r 2 r r q t p u p s s d s s s d s a d 0 0 0 r q ; @ O o * < 9 0 0 < @ . X . @ q h x h x w.t.t.t.X./. X XoX Xa.^ L L L L G I U Y :.G.G.H.H.H.H.6.6.<.#.Y Y E E R M n n m +.j.I.7.6.<.#.>.>.>.5.I.!.!.!.6.#.$.,. . .F L F V [ 5.7.7.4.I.~.~.~.~.I.I.I.!.7.U i 8 u s N [ ,. . .[ U G J I I I I I T E @.:.:.:.Y V m F F o.s.f.f.w.h > # @ r                                                                                                                                   ",
"                                                                                                                                                                          r o . X : p j n m N m m N F E >.5.<.<.<.&.&.<.<.&.&.%.%.&.<.J.J.H.H.1.@.( ) ;.R m M m n m J F F A F n a d j g X . . ,                                   # o o ; t t p d d d j j j j k j j k d d p p p d D J L R R E ^  .E D 7 % X # + + + + o X % % % O o o o o o O O % O % % % = % % @ @ * * * % % & % > % % ; : : q K { ..{ s.Z.,XXX1XXX+X+X+X+X+X+XXXXXXX+X+XXX@X@XoXoXZ.Z.Z.Z.k.{ } ~ c r * % % = * = * > * * * > % : * * * ; , * @ @ O ; t j j j g ; O X . . @ ; ; ; 1 } e.t.e.X.b.(. XoXoXc.h.s.h.s.L i M M m E G.G.H.H.H.H.H.H.4.4.<.5.5.5.;.M j n m [ >.>.#.#.#.>.>.>.>.<.<.<.<.<.<.#.;.>.,. .X.,.,.[ U N m N V &.I.~.!.!.I.I.I.z.5.U i 8 w a N [ ;. . .R n s s M J E ;.;.;.;.@.:.:.;.Y F m F J o.s.f.y.w.j > # @ r                                                                                                                                   ",
"                                                                                                                                                                          r o . X : p j n m m m N N V E 5.j.6.6.1.<.<.<.<.>.<.>.&.<.2.R.R.H.H.6.@._ +.;.R m m m Z n Z n Z n Z s j j h h X . . @                                 q.# X O 1 h x j s j Z D D D D D D Z j j j j s s Z J ^  .;.;.,.,.,.,.G 0 $ X # # + + + . . X X X . . . . . . . . X X . . . . . . . . . . . . X X . X X . X X o 1 H e.s.e.c.1XsXsXsXsXsXpXpXpXpX<XiXiXiXiXiXiX<X<X<X<X,X,X<X,Xn.w.r.r.~ r O . . . X X + X X X + X X O O X o o # @ # O X * p H H D g : X X . . X . . X % } r.e.w.o.b. X XoX Xc.c.g.c.g.L u u i M U G.G.G.H.H.H.H.H.H.H.6.J.R.j.:.C a Z m R >.+.+.+.:.>.,.>.>.>.>.#.>.>.>.>.>.>.,.,.,.,.,.,.I 8 8 f C $.I.!.!.!.!.!.!.z.7.U i 8 w a N [ ;.;. .G i i i a J ;.,.;.:.;.+.:.:.;.Y F N D J o.s.f.y.w.j > @ @ r                                                                                                                                   ",
"                                                                                                                                                                          g o X X : p j j m m m N N V E 5.j.j.6.6.@.@.>.>.>.>.>.@.>.2.R.R.j.R.5.:.) ;.;.R A m Z Z Z Z Z Z Z Z d d k h g X . . @                                 q.@ o O < j Z s n M m m D D D D Z Z s s s s s a a F E E ) ;.;.;.,.,.L 0 % % @ # # # + o . X X X . . . . . . . . X X X X X X X X . . . . . . X . X X O . o o . 2 H e.e.X.c.XX2X2X2X2X<X<X<X<X<X<X<X<X<X<X<X<X<X<X<X,X<X,X<X,Xb.e.r.r.{ r O . o X . . . X O X X O O X X o X o o O X O O % u D D D g : X X X X o o X X O } r.w.o.o./. X(. X/.c.g.g.g.g.J u i i M R 4.G.G.H.H.H.G.H.G.H.G.J.R.6.@.C s n n R ,.:.$.+.:.,.3.,.>.>.>.>.>.#.>.>.>.>.>.>.:.,.,.,.R i i f C $.!.!.!.!.!.!.!.z.j.U i w u a V +.;. . .L i a a i J ;.;.:.:.@.+.;.:.+.Y F N F F o.s.f.y.w.j > @ @ r                                                                                                                                   ",
"                                                                                                                                                                          g @ o X : p d j Z m m N N F E 5.j.j.j.5.@.+.:.;.;.:.;.+.:.>.j.j.j.j.5.;.E ;. .R F Z Z Z Z Z Z Z j j j k k k x 1 2 2 g                                 q.@ @ % : j Z M m m m N m D D D Z Z s s s s s n s J E ;.E ) ;.;.;.,.R w & = : % * * % % % $ $ % = $ $ % = = % = = = % $ $ $ $ $ O O O O % % % % O O O X o o . 2 ! t.s.s.v.XX2X2X<X<X<X1X1X<X<X<XXXXX<XXXXXXXXXXXXXXXXXXX<XXXb.s.y.y.{ t X . X . O O O % = = $ = % O O O O O O % O % % & u Z Z D g : X X . . . . . . X ~ r.w.w.t.b././.oX(.n.c.g.g.c.L u i u M R 4.4.H.H.H.H.G.H.G.G.G.J.J.6.@.C s M M R ,.,.:.$.:.3.3.>.>.>.>.>.>.>.>.>.#.#.#.#.>.,.,.,. .i f f C +.!.!.!._.!.!.z.z.j.R i i u s U $.;. . .L i a s a F ;.;.:.@.@.+.;.;.;.E F N D L o.s.f.f.w.x : @ @ r                                                                                                                                   ",
"                                                                                                                                                                          g @ X X < t d j n n m n n m I  .,.>.:.;.I E R I R R I I I E ;.;.;.) E I F F J F Z Z Z Z Z j j j j s w 9 y 9 x                                         p., # * 9 d n m m M m m A m n n l Z s s s s s a n A I T I E E E E R T F Z n a s d d s s s p s d a a u p d s a a a a s a s a p a p p p u a u u 0 0 t 9 % O @ # g o.n.b.b.oXoXOXOXOXoXv.g.c.c.k.x.c.c.c.c.c.c.c.c.c.c.c.c.c.b. Xc.n.V.f.t O X X % 9 t y u u w w w y t 9 6 9 : 6 6 6 6 6 7 p Z D Z h : X X . . . . . . o } r.w.o.w.(./. XoXoX(.b.n.n.c.J u i i i R 4.4.6.6.H.H.H.G.K.G.G.J.J.6.@.C s M M R ,.;.>.;.[ [ [ [ [ +.>.3.3.>.=.7.7.7.7.5.>.>.,.,.[ B n B V Y >.5.5.5.5.3.3.,. .R F n D D Y +.+.,. .J s a a a F  .;.:.@.( I I I R E E R R  .X.f.f.f.y.x : @ @ 2                                                                                                                                   ",
"                                                                                                                                                                          g @ o X 1 t d j s s s f i i s n m m M m i n n i a i u M i M M n n n i i i i a a s a s a s p p p p 0 = > % * v                                         p.* @ ; 9 j D m m m m m A Z n n j l s s s s d s a a n n n m A A F F R ,.,.>.>.>.2.>.>.>.,.,.a.a.,.3.,.,.5.,.,.5.,.,.,.,.3.,.,.,.,.,.,.,.,.,. .E R | D 9 % * O g n.pXsXpX<XoXb.c.c.h.R D H H H ! L L L K K P L L L L ! L L a.@X<X<XpXZ.z * O O : H | |  . .[  . .| ! D j j d k d j d p s j D D Z h : X X . . . . . . O } w.w.o.w././.(.oXoXoXoXoX Xb.L i i i M R 4.4.6.6.6.H.G.G.G.K.G.J.J.6.@.C i i M U ,.:.,.,.G B B C N Y :.5.3.3.6.!._.!.!.7.#.#.,.,. .| |  .U U N N N F U U B N F J R R  .| +.:.,.,. .F i i a a F  .;.;.+.V M M M F  .,.,.X.X.s.k.k.k.u.k : @ @ r                                                                                                                                   ",
"                                                                                                                                                                          g @ o O 1 t p j s a a d u u u u u w 8 w w a i u w 0 w 8 7 8 8 7 8 8 8 8 w w w w p p p u p w u p p 0 % O X O g                                         p.# @ * 9 j Z D n m m m m Z n Z l j j s s d d s a a a a a n M n M A E 5.R.R.R.R.R.R.R.R.R.R.R.R.J.!.!.!.!.!.R.!.!.!.!.!.!.R.R.R.j.R.R.R.R.j.5.>.,.s.^ u % % @ x V.dXkXkXsXoXc.s.s.o.s w u u u d s d d d d d s s a a a s a R @XsXfXfXXXQ ; O % 6 ! ,.,.>.>.>.>.>.,.,.R F F D H D H H H Z Z Z D Z g : X . . . . . . . O ~ w.r.o.w.b./. XoX.XOXOXOX.X XR i i i n R 7.6.6.6.4.H.G.G.G.K.G.G.6.6.+.C M i M U ,.,.,.;.B f f f f U :.3.3.=.z._._._.!.J.#.#.>.,.;.,.,.,.[ N f f f M n f i 8 i J  .,.X.X.[ :.;.;. .J i i i a F  .;.+.) V i i i m  .a.s.s.f.f.k.f.f.y.x < o @ r                                                                                                                                   ",
"                                                                                                                                                                          g * O O q g h j j p p u u u u u u w w w i p w w w 0 u 0 0 w w w w a w w w w w w p u u u u w w t p t * . O o v                                         p.o @ * < j l D Z Z Z Z Z Z D j j j j s j d d d s s a a s n n n M m Y 2.R.R.J.K.K.K.K.H.J.R.R.R.J.K.K.K.I.K.K.K.I.K.K.J.J.J.J.J.J.K.K.J.J.H.2.>.,.,.R u % % % x Z.dXhXkXsX Xg.f.f.X.j 0 u u w s s s s f s f s s s s n Z n ^ @XsXfXfXXXQ > O % 6 L ,.>.>.>.>.<.>.3.,.F N F F F Z Z Z D Z Z Z Z Z g : X . . . . . . . o Q w.w...w.b./.oX.X.XOX.X.X.X(.R i i i M R 7.6.6.6.4.G.G.G.G.K.K.G.6.6.+.M M f M Y ,.,.,.,.F f f f f G ,.,.>.>.z._._._.!.7.#.#.#.$.=.;.,.,.,.F f i n n n i i 8 i G  .,.,. .[ ,.,.,.,.L i i i i I ;.;.;.) m a i u n | a.s.s.h.f.f.f.k.u.z : @ ; g                                                                                                                                   ",
"                                                                                                                                                                          g ; @ O 1 t h p p p d u u u u u u u u w p u w w w w w 0 0 w w w u a u p a p p p p u u u u u u t h t % X O o x                                         q.# O @ < k k z j Z Z j j j j j s s j s s d d d s j j j Z Z a n M C I :.6.6.6.H.G.G.G.G.H.J.R.K.K.K.K.K.K.K.K.I.I.K.K.K.K.K.K.K.K.K.K.K.J.6.<.:.+.,.R u & % O v /.sXdXdXpXV.k.k.k.X.Z 0 w w u n M M M s s M M M M M M M n  ..XsXsXfXXXQ : % % 6 R ,.>.>.>.>.>.:.,.;.I N F A A Z Z Z Z Z Z Z Z Z g : . . . . . . . . o Q w.w...o.n./.@X@X.X.X.X.X.X/.R i i i n R 4.4.6.6.4.H.G.H.H.G.G.G.J.6.@.C M i C U ;.,.,.,.F i f f f G  .,.>.>.j._._.!.!.7.#.>.#.$.$.;.;.;.,.I M i M n M M i i M I ;.,.,.:.;.,.,.;. .T i i i M I E ;.;.+.V u u u s ^ e.s.f.s.f.y.y.k.y.c q 1 , v                                                                                                                                   ",
"                                                                                                                                                                          g ; @ O < q y y 0 p H D D D D D D D D H J J H J ! ! ! L L L ! ^ o.X.o.o. ...o.^ H D D D D H H H Q x * O . X v                                         c # O O ; t g h p p p u t t p j n n n j s s j d j ! ......! Z a M M V Y ;.;.+.+.( _ _ $.%.1.4.1.4.4.4.4.4.4.K.~._.~._.!.4.4.4.4.4.4.1.4.4.<.@.( +. .F 0 % % O g c.<X<XsX<Xg.w.....! H j n M m F I I I I I J F J m n M M M  . X<X2X2XoXQ : % = 6 Z E E ) ( Y +.Y  .E F m F A A A F A Z F D Z Z Z g ; . . . . . . . . o Q w.w.o.o.g.c.v.c.v./..X.X.X/.R i i i n R <.4.4.4.4.H.K.H.G.G.H.G.J.6.&.V N C V I E  .E R D i f f f D R | +.Y 5.!.!.!.!.6.5.7.5.5.3.>.>.>.,.E U G F G G F F N F [ ;.>.>.>. .[ R R R F n M n m I +.;.;.+.V u p u j ! X.s.s.t.e.} ~ { q.u.i.                                                                                                                                        ",
"                                                                                                                                                                          g ; @ O ; ; : : : p { o.o.X.X.t.s.s.f.f.g.g.g.g.n.oX XoXoXXXXXOX<XiX<XoX@XoXXXb.s.o.o.X.X.X.e.w.r.~ ; X . # v                                 p.p.q.c 1 O o o * ; < < 6 : : : > > 9 k n n n n n j j j H f.n.n.c.s.J a M M n A A A m m m m m V W +.@.@.<.<.%.%.&.%.R.).3X#X#X).6.@.@.@.#.@.#.&.&.@.Y V I I s 6 % O o r ,. XXXXXb.! t 0 0 p D ^ R R R R +.+.;.;.;.;.+.;.Y F m m m R v.OX>X>Xb.l * O * < j J F V V N F F N F M n m m A A F F F F F Z n Z t ; . . . . . . . . o Q w.w.X.X.t.s.s.,.s.v. X.XoX/.L i i i n R &.<.&.1.4.H.H.H.K.G.H.K.J.6.6.:.$.+.;.I A F n m n f f f i s n D m C Y 5.6.5.5.7.!.!.!.!.6.3.=.<.3.,.,.,.,.,.,.;.;.;.:.:.>.>.>.#.R m M m m F R R R T E ;.;.;. .V p p u j ! X.e.t.e.! y q q c                                                                                                                                             ",
"                                                                                                                                                                          g ; @ O @ % % O % h t.s.s.f.g.c.n.n.n.b.V.b.V.V.XXfXdXsXfXfXkXkXNXkXkXsXpXsXsX<Xn.h.h.h.s.s.f.y.y.} * . . X v                               c @ # , # o . o o O X * O = O O % O O : p n n n n Z Z j j H c.XXXXXXc.L a M n n n a a j j a n M M V ) +.+.:.@.@.@.` @.R.#X3X3X3X#X6._ +._ $.$.$.@.@.( V m N F u > % O . 2 [ c.n.b.g.j > & & 6 H ..^ E ;.;.2.2.2.5.5.2.>.>.;.N M m m R l..X(.>Xn.z : * * : p Z n M M M M M M m M n m m A I T T T J F n M n t ; . . . . . . . . o Q w.e.X.X.o.X.o. .X.l.(..X.X/.L i i i n R &.&.%.*.4.H.K.H.G.G.H.K.H.H.R.j.6.j.5.W M n i a i u u f s i i a M M V $.3.#.>.6._._._._.j.<.<.5.5.3.3.3.3.3.3.3.,.5.3.3.3.<.<.#.G i i i M I ;.;.;.;.;.>.;.;.+.V p p w p L X.e.t.o.j > O X g                                                                                                                                             ",
"                                                                                                                                                                          g - - - o @ - O O h y.s.s.f.h.g.c.c.n.n.@X/. Xb.XXdXdXsXsXlXlXkXkXkXlX2X<XsXsX<Xn.h.h.k.a.f.f.e.f.w.: X . # v                               v o o o o O O . X @ o o # @ o @ @ o O 1 g n n j j j j j j K c.XXXX Xg.L i a a a n n n Z j j Z n n I ) @.@.@.%.@.@.$.+.j.OX2X2XfX3Xj.$._ _ @.@.+.+.+.) I F J H p > O X X 1 } g.x.n.y.d & & = 6 J ^  .E Y >.>.<.<.<.*.<.*.<._ V m m m R g.oXOXOXb.H ; O O > u j Z n n n s s n m A m m F m J J J J F Z Z n Z t = . . . . . . . . O Q r.w.X.X.X.X.o.o.o.c. XoX X/.R i n i i R >.>.<.*.4.K.H.H.H.H.H.H.K.G.G.G.4.H.<.V M i M a i a p p a a i u i i J ,.3.,.3.7.!.!.!._.I.&.&.<.-.4.7.3.3.3.3.>.<.<.&.<.<.5.,.,.L d u i M I ;.:.:.;.:.:.:.:.+.I p t u p D o.e.t...h ; O O g                                                                                                                                             ",
"                                                                                                                                                                          g - @ o o - ; ; : h w.h.s.s.f.k.c.c.k.x.n.n.b.n. XpXpXsXsXfXfXlXkXlXfXsX<X<XpXOXn.s.s.e.e.e.e.w.e.Q % . X @ v                               c 4 o o @ % ; ; ; ; ; ; , , 4 o O o X : g s s s s d j j j H k. XoX Xg.J i a a s n n n Z j j Z n m I ) @.@.%.%.@.$.+.@.j.OX2X3X3XOXj.@._ _ @.@.$.+.@.E I F F H p > O X X 1 ] h.n.n.f.l 9 : > 7 D R  . .;.:.>.>.>.&.<.<.*.<._ V m m m ^ z.oXOXOXn.l * O O * t j Z n n n s Z m M F F A F F F J J J F D Z n n t * . . . . . . o . * ~ t.w.e.e.X.X.o.o.o.c. XoXoX/.R i n n n R >.>.<.&.4.K.H.H.H.H.G.H.G.G.G.G.4.H.<.V M M i i a p u u u i i i i M F  .,.,.3.7.!._.!._.I.-.4.7.-.7.7.5.5.3.3.>.#.<.&.<.>.>.,.,.P s i i M I +.;.+.+.:.:.:.:.) V p u p p H o.w.e.{ h ; O O g                                                                                                                                             ",
"                                                                                                                                                                          g @ o O 1 g h g h ! f.,.s.t...Q Q ~ Q Q Q Q ! Q } f.y.f.k.k.k.x.n.c.c.k.f.f.f.e.! H z x x h h x z g @ X # 4 v                             M.r.c c } { w.y.y.u.u.u.u.u.r.c O O O X : h n n n s s s s j D ..e.e.e.! j s s a a s s n j j j Z n n I ) @.@.@.@.@.@.@.@.>.j.v.l.l.j.>.@.@.@.$.@.@.+.+.E I m D H p > O X . < ] k.c.g.k.o.! ! ] ..h.g.c.z./.>.E E Y ( @.<.%.<._ V m m m R d. X.X@Xc.j * O O = t j n n n n n Z n M  .,.,. . .F n n n Z Z Z j s t * . . . . . . . . @ Q r.w.e.e.X.X.o.o.| c. XoX X/.,.R R R R R [ [ +.+.<.K.K.H.H.H.G.G.G.G.G.G.4.H.4.( V I F F n a i a a n F J F F F G G I [ =.7.7.7.I.I.I.I.I.I.6.7.5.5.3.5.6.6.J.6.#.$.E E R D s i i M I ;.:.:.;.;.;.:.:.) V p w u p D ..e.e.{ h ; O o g                                                                                                                                             ",
"                                                                                                                        q.v g g v v v v c c c c x                         g ; # . r } r.r.w.e.f.,.s.e.H : O * @ @ O X O O O : : < 6 9 9 9 0 0 q q 9 9 q 9 6 : : @ @ o O O O @ . . . # g                     q.g r g } k.N.V.V.oXpXdXdXpXpXpXpXiXuXx.; O O O : h n M n s s s s s s j j p p p p j s s a a s s j j j Z Z n I ) @.@.@.@.@.:.@.+.U N M m m F E @.@.%.@.@.$.@.+.E V m D D p > O X . , P s.g.h.n.Z.oX+XXXXX1X<X<X<X>X3.m m M V +.&.<.2.+.V m m m R j./././.f.k % O O % t j n M n n s Z m M l././.v.v.L i i u a s j s s t * . . . . . . o . * ~ y.e.e.e.X.X.o.o.| c. X X X/.d.s.h.j.h. .N N V V &.K.K.K.H.G.G.G.G.G.4.4.4.H.6.<.>.>.,.,.F M i a M J  .;. .[ F i i i n U =.<.-.7.!.^.).^.^.I.7.<.<.5.6.!._._.!.#.V m m n Z s s s M I ;.:.:.;.+.+.;.:.) V p u u p D ..o.e.{ h ; . o g                                                                                                                                             ",
"                                                                                                                        g * X . o o O @ @ * ; ; < g                       q X . O g { y.y.f.s.X.X.e.o.h O . X . . . . . . . X X X O % % % = = = * * * * * * * % o o . O O . . . # @ 4 v                     g @ @ ; x x.Z. XoX<XjXkXkXkXlXdXdXdXpXV.O O O O ; g s s s s s n n n a p w 0 w p h k j j j j j j Z Z j Z Z n I ) @.@.@.:.@.+.+.+.I M i i w M Y +.@.@.$.@.@.+.@.E I m Z Z p > % X . , H s.f.f.n.XX<X<X<X<X<XsX2X2X<X;.M n M m ) >.2.2.+.I m m M U d././.v.s.p % O X = t j Z n n n s n m m /. XoX X XL u u u u d s s d t * . . . . . . o o * Q u.e.e.w.X.X.X.o.| c./. X(./.v.l.c.v.v.;.n M M N @.K.K.K.G.H.G.G.G.4.4.4.4.G.6.4.5.j.j.d.U m M M M I ,.,.,. .D 8 8 u i G =.<.-.4.!.{.-X{.).!.7.-.7.7.J._._.).!.#.N M m n D s s M M I +.:.;.+.+.+.;.;.E V d u u u D ..o.e.{ h * . o g                                                                                                                                             ",
"                                                                                                                        1 X X O o o O O O % % % O q                       q @ @ . r { y.y.y.f.f.s.f.e.j $ . . . . . . . X X X X X X X X O O $ $ > * * = % = % % . . . X X . X o o . # v                     g ; 4 ; x x.@X X.X<XlXkXkXlXfXdXsXdXpXV.% O X X ; g Z j j s n n M M a a p u u g k k j j j j j Z Z Z Z Z n n I ) @.@.:.:.:.;.+.+.U M i i w M Y ;.@.@.$.@.@.@.@.E I m Z Z p > % X . , J s.s.a.c.XX<XpXsXsXsXsXsXsX<X;.a i i m E >.2.2.+.I m m m R d././.b.f.p % X X % t j Z n n n s n M m /. XoX.X XJ 8 w u u d s j s t * . . . . . . . . @ ~ y.y.e.e.o.o.....| g./.(. X/.v.j.l.v.v.,.s s M N @.J.K.H.H.G.G.G.4.4.4.4.4.G.4.4.6.6.5.5.U M M M M I :.>.,. .m u u i i I >.3.7.-.I.].{.{.).!.-.-.-.-.J._.^.)._.#.N M n Z s s s i i F +.:.+.+.:.:.;.;.E V u w w w j | o.w.} h * . . g                                                                                                                                             ",
"                                                                                                                        t O X $ % % % % % % % % : h                       g * O * g } y.y.t.e.t.u.f.r.l 6 $ $ $ X $ $ $ $ $ $ $ $ $ & & & & & 5 & & & & & & & & & $ $ $ $ & = X * # 4 c                     g 4 - , z x.oX XoX>XgXkXkXkXfXsXsXsXpXn.* O X X , g k k j d s s M a a a a w w k k k j j s a n n Z Z Z Z n m I ) @.@.:.;.:.>.@.+.Y M 8 i M M Y @.@.@.@.@.@.@.@.) V m m Z p & O . . , H s.s.s.n.XX<XpXpX<XsX2X2X2X<X3.M M M m ) >.2.2.+.I m m m E d././.b.f.p % X X * t j Z n n n s n m m v./. X(./.L w w w i a s j j t * . . . . o o # o * ~ w.r.w.{ ........| g.b./. X/.v.j.z.v.v.,.j s M m @.J.H.G.H.G.G.4.4.4.6.6.G.4.4.4.6.6.5.>.V M M M M V +.;.,. .m u i i s I 3.5.6.7.I.).{.{.).I.4.-.-.-.J.~.^.).!.>.m n s j s a M n M I +.;.:.:.;.+.) +.E I i u u u D | o.w.} g * . . g                                                                                                                                             ",
"                                                                                                                      i.w...{ ..{ { { } } Q K K Q } N.                            u.~ x x x z z z Q z j Z J A A A A I A S J F F m N F I I I I E E I U U I I I I I W T / A J k > X @ @ g                     g 4 @ , z c.XX X(.>X2XsXsX2X3XOXOXXXXXf.% X X X @ b 9 9 0 t p s n n a a a a w j k k j j s Z n n Z Z Z Z m m I ) @.@.:.+.@.@.@.@.) V m m V W ) @.@._ $.@.@.+.@.) V m m Z p & O . . ; H t.f.s.h.g.c.c.b.b. X(.(..X/.;.I N m I @.2.2.>.@.I m m m U a.v.v.v.s.t O . X * t j Z n n n s Z m M ,.h.h.s.a.n i i i a s s s s g * . . . . o o # o o v Q z k t } ......| g././.(././.v./././.,.j s M m @.J.H.H.G.G.G.4.4.4.6.4.G.4.4.4.4.6.5.5.+.V V I V Y >.>.,. .m u i s M R 5.5.6.7.J._._.~._.I.J.J.G.G.I.I.~._.!.+.N M Z j F D F m M I +.+.:.+.) Y I R R I J D D D L o.w.w.{ g @ . o g                                                                                                                                             ",
"                                                                                                              c b r g y.+X<XpX<X<X<X1X<X1X Xb.b.V.V.{ h g v c                       x , ; ; < ; , : 6 S /./._.W.~.R.W.W.W.W.W.W.W.W.W.E.~.~.~.~.~.~.~.~._.~._.~._._.W.W.W.W.a.5 $ O , 2 c c F.q.            g @ - , z x..XoX(.(.OX>XOXOX Xh.s.f.t.} O X . + # 4 @ O * < t j s s a a a p a s j k j j j j n n n Z Z Z n m I ) @.@.@.@.@.@.@.@.+.( +.+.) +.@.@.@.%.@.+.+.@.+.) I n m Z p > O . . ; z t.f.k.e.H s s n D L  .,.,.,.>.+.+.+.@.@.%.&.2.+.I m m m I d.v.b.v.s.p O O X * t j n n n Z Z Z m m F F F F m n n n n n s s j j t * . . o . o o # o o * ; : * $ l { { ..| h.b. X(.oX.XoX.X.X/.3.j j n m @.R.J.H.G.G.4.4.4.4.4.4.4.4.4.4.4.6.4.5.>.#.#.#.>.>.>.<.;.,.N 8 i i s R 5.5.5.<.-.4.7.4.-.I.^.^.~.~.I.J.G.J.5.E m M s s L  . .E E E +.;.+.+.Y m m m m I  . .o.| ..o.w.w.} g * . . g                                                                                                                                             ",
"                                                                                                              g # X : y.<XdXkXlXlXlXlXlXsX1XXXXX,X+X~ : * @ ,                       c 4 # o @ O * = 6 T .X).{.[.`.`.`.[.[.[.[.[.`.[.[.[.[.|.|.}.|.|.}.}.}.}.}.}.#X}.[.[.[._.j.7 $ O O @ 2 3 3 g             b @ ; : K n.XXoX(..X.XOXOXoXb.,.......z X o . # + + + . X < t k j s a a a a a s j j j j j j s Z Z Z Z Z A A I +.@.@.@.@.@.@.@.@.@.@.@.@.:.@.@.@.@.%.@.+.+.+.+.E I m m Z p : O . . ; K y.f.k.X.d 0 7 u u n J I T E ) #.#.@.%.*.<.<.2.+.I m m M R d.v.b.v.s.p O . X * t j n n n Z Z D m m m Z m m n n Z n Z Z s s j s t * . . . . o o # o o o O X X . j ! } ..| g.b././. X.X.XOXOX(.3.j Z n m @.R.J.G.H.G.G.4.4.4.4.4.4.4.4.4.4.4.4.4.2.<.<.<.<.<.<.<.>.:.N i i i M R ,.5.5.<.<.4.-.1.-.I.^.).].^.I.G.<.4.>.U M n n Z R  .;. .+.+.+.:.+.+.I m m m m L  . .X.o.X.e.w.r.{ g * X o g                                                                                                                                             ",
"                                                                                                              , X . % f.sXlXgXgXgXgXgXgXsX<X.XXXoX+XQ : ; o @                       v # # # @ @ * $ 5 W [.{.|.'.'.'.`.`.`.`.[.[.`.'.`.'.'.'.'.'.'.|.|.|.}.}.|.}.}.}.|.[.[.[.j.e & % % O ; O O 1             g ; O ; z c.XXoX(..X.XOX.XoXv.o.| { } x . o + + . . . . . , t k k j j s s s p s s s p j s s s j j Z Z Z Z Z I  .;.;.@.+.+.@.@.@.@.@.@.@.:.@.@.@.@._ @.+.@.:.+.E I m m Z p : O . . ; z t.k.k.t.j w 0 7 8 M J T T E ,.#.#.&.&.%.*.%.>.;.I m m M R s.v.v.v.f.p O . X * t j n n n Z Z D m m m m n n n n Z Z Z Z j j j j g ; . . . o # o o o o o . . . . k ! ! ! | g./. X XoX.XOXOXOX(.,.j Z n m ;.R.J.H.H.H.4.1.4.4.4.4.4.4.4.4.4.4.4.4.4.4.2.<.<.<.<.<.<.>.I i i i m R j.5.5.<.<.<.&.&.-.I.).].{.{.I.7.<.5.>.Y M i M Z U ;.;.;.;.+.+.+.+.+.I M M M n J X.X.X.X.e.e.w.r.q.h @ . . g                                                                                                                                             ",
"                                                                                                            S.< . . > t.2XlXgXgXgXgXgXgXsX<X.XXX,X,X~ : O O ;                       c - @ @ * = = & e ( [.}.}.|.'.'.'.`.`.'.`.Q.`.`.`.`.`.'.'.'.'.'.'.'.'.'.|.|.}.|.'.`.`.~.6.e $ & $ % % % % 9             r O % > H c.XXoX(..XOXOXOX.Xb.e...w.q.x o o . + . . + . o ; q g k k k j k j j p p j k k k k j j j Z Z H D H L  .;.;.;.;.;.:.@.@.@.:.>.>.:.:.:.:.@.@.+.+.;.:.;.E I m m Z p : O . . , K y.k.k.a.j w 0 8 u M J T I W ;.#.#.#.&.&.&.<.:.;.I A m M R s.v.v.n.f.t O o . * t j Z n n Z Z Z D m m m n n Z Z Z Z Z Z j d j j r ; . . . o # o o o # o . . X X k ! ! ! | k. X XoX X.XOXOXOX(.>.Z Z n m +.j.6.H.1.1.1.1.1.1.4.4.4.4.4.4.4.4.4.4.4.4.4.2.<.<.<.<.<.#.V M i M m U 5.5.5.5.7.7.<.<.-.I.).].{.{.I.4.<.5.>.E m n M M U ) +.+.;.+.+.+.+.+.I M M s n J X.X.X.X.X.w.w.r.} h ; . . g                                                                                                                                             ",
"                                                                                                            k.z h p l h.OX2X2X2X2XgXgXgXsXXXc.c.n.x.x ; . o @ r.                    g ; * = 9 k I / W P.|.}.$X$X|.$X5X$X$X$X$X$X}.}.}.}.$X$X$X$X$X$X$X$X&X6X6X6X6X6X6X$X}.#X[.W m I F T F F m I N.        k.z t p d | b..X(.(..XOXOXOX.Xb.{ Q ~ c g # . . . . @ * * * * < q q q q q q q q q q q 9 q q q 0 0 t t p p g h j D D F J G R E ) ) ) ) +.) E E E ) ) ) U E E E E R F A Z j p > O . . , Q k.k.g.f.L Z Z D D n Z Z n m T E ) ) ) _ +._ ) E A n Z n L s.v.v.n.f.h O . . * t j Z n n n Z Z D Z m m m n n Z Z Z j j t 0 9 q < O . . . X # . o o + o . . . . k ~ ! ! } f.n.b.b.b.(.OXOXOX(.>.n n M M ) 2.<.<.<.2.1.2.1.1.1.4.2.4.6.6.4.4.4.1.4.4.4.4.4.4.2.2.4.<.@.Y I Y E E +.+.+.+.>.<.5.<.1.I.).{.{.).G.$.Y [ E R I I I I Y +.+.+.@.@.+.:.;.;.I M s s s J o.o.X.e...! ~ ~ ~ q.q.                                                                                                                                                  ",
"                                                                                                    p.c c ~ r.k.n.n.g.c./.(.(.(.3X2XfXfX2Xc.K h h h 1 ; . O . q v c c c c c c v c g ; O = = j k.W.~.E.[.}.}.}.}.$X9X8X9X9X9X9X8X9X9X9X9X9X8X8X8X8X7X8X7X8X7X7X7X0XqXqX7X8X8X9XE.R.W.R.W.R.W.R.R.r.~ z l z } f.k.s.s.g./..X(.(..XOXOXOX.Xc.j 9 q q , . . o . X 1 q q 9 : * * O O O O % % % O O O X O O $ % % % * * : : < 6 6 6 6 6 w s F F N N V N F F F m m m m N m N m F A A A Z Z p : O . . , ! k.c.n.c.h.h.h.s.X.D u i w i S N N N V V I I I F n n n s J s.v.v.n.f.h @ . X * y j Z a n n j Z n n n Z Z Z j j Z j j p 6 % $ O O . . . . o # . o o . o . . . . h ~ ! ! } X.s.s.s.d./.OXOXOX(.>.n M M M I ;.+.+.+.>.2.2.2.4.1.1.2.2.4.4.4.4.4.1.1.1.4.4.4.6.4.4.G.4.6.6.5.5.3.;.C N V V $.>.5.2.-.K.].{.].~.-.V C m N I E +.+.) +.;.;.+.:.@.+.;.;.;.I M a a s H o.o.e.o.Q t q q c                                                                                                                                                       ",
"                                                                                                    g , , < w.V.@X X/.b.b././.(.>X2XgXlXsXg.y ; ; ; @ o . . . o + 4 # 4 , 4 4 , @ @ O % $ $ Z n.[.{.[.}.}.$X$X}.6X8XrX8X7X7X7XqX0X7X0X0X7X0XqXqXqXqXqX0XqXrXrXrXrXrXrXrXqX8X8X[.[.[.[.[.[.[.`.Q.r.0 > & 6 K g.n.v.c.b.(.(.(..X.XOX>X>XXXg.0 % O # o . . o . O q p h g 6 % . . . . . . . . . . . . . . . X X X X O @ @ * * % $ $ % 6 p D D m N F A A Z Z Z Z m m m n n n n n m m Z j p : O . . < ! c.c.v.v.c.c.c.c.h.H 0 0 0 8 Z D D A A A I A F m n n n a J s.v.n.n.f.h @ . X * q p j a n n Z Z s n Z n s s s d j j j p : X . . X . . X . o # . . . . . . . . . k ~ Q { ..| | o.o.,.v.OXOXOX(.>.n M M M I +.E E ) :.2.<.<.<.<.&.5.5.4.1.4.4.1.1.1.1.1.1.4.1.4.6.1.1.6.6.5.j.5.[ M C C C W >.5.>.*.K.^.].].~.&.' C M m I ;.:.:.;.+.:.@.@.@.@.+.+.;.+.F i u p d H o.X.e...j : O X g                                                                                                                                                       ",
"                                                                                                    r X X % w.V.@XoXoX(./././.(.>X2XfXgX2Xh.9 O O . o o . . . . + + . + # . . o o o . % & & S v.[.}.}.}.}.}.$X}.6X8XeX8XeXeX0X0X0X0X7X0X0X0X0X0X0X0X0X0XqXqXqXqXrXrXrXrXrX8X8X'.[.[.[.[.`.`.Q.Q.w.= $ $ & J h.v.v.v.v.(.(.(..X(.>X>X>X.Xf.9 O X . o o o . . O q u k h q % . . . . . . . . . . . . . . . . . . X X X o X X O O O O : p D D n m m m Z Z Z Z Z Z Z m A A A m m m Z Z j p : O . . 1 ! c.n.v.v.v.b.v.n.g.L 0 0 w p Z D D Z A A A A A Z n n n a J s.v.b.b.f.h @ o X * q p a a n n Z Z n s Z s j s j j s j k p : X . X X X o o o o # . o o o . . . . . k ~ Q { ..| | o. .,.v.OXOXOX(.>.n M m M U +.E E E :.2.<.<.<.<.&.5.5.2.1.4.4.1.1.1.1.4.4.4.6.6.6.G.4.G.6.6.j.5.[ M M M M V >.5.>.*.K.~.^.^.~.&.V M M m R ;.:.:.:.@.:.@.@.:.@.+.;.+. .F i u u p H o.X.e...h * . X r                                                                                                                                                       ",
"                                                                                                    g . . % { Z.XX X/.b.b./.b.b.OX2XfXsX<Xy.< o o o o O O O X X . . . O . o + + o O $ 5 5 e V /.|.|.|.}.}.|.}.}.6X8XrX7XrXrX0XrX7X7X7X7X7X7X7X7X7X7XeXeXeXrXrXrXeXeXeXeXeXrX9X'.`.`.`.'.`.'.`.Q.^ 5 X O O x k.c.c.l.b./.(. X.X.XOX>XOXXXk.9 O o . . o . . . O r p j k q % X . X . X X X X X X X X . X X O X X O O O O O O O X X O : t x x j j Z Z j j j j j j j j j j j Z Z z j j z 0 $ $ X X q ..k.n.n.c.n.n.v.b.l.L w w w w Z F D D D m m m m n m M M M R s.v.b.b.f.h % X O * r g k k k j S S k j h k k k k k k h h t : O O % $ $ $ $ O O # o o + o . . . . . h } { { { w.{ ..X.X.b.OXOXOX/.5.m n s m R | R U [ +.<.<.<.<.5.<.3.5.>.5.4.*.4.1.4.1.4.6.1.4.4.-.1.4.4.4.6.j.<.+.C i i C I :.>.>.<.j._.).(._.>.N C C C Y +.:.:.:.;.@.;.:.+.+.;.;.;. .J u w t t z ..e.e...h @ . o g                                                                                                                                                       ",
"                                                                                                    g . . % Q k.c.c.d.z.n.b.b.b./.(..X XV.} ; o . o 1 g g t y 0 q 9 9 y - o o o . 6 n V C ' ;./.'.|.|.}.6X&X6X6X6XeXrX7XrXrX0XrXrX7X7X7X7X7X7X7X7X7XeXeXeXrXrXrX7X7XeXeXeXrX8X$X}.}.$X}.`.`.Q.Q.^ 5 X X o x f.c.c.l.b..X>X>X>XOX/././.b.s.9 O o o . o # . X O q p k p 0 : > * > : : : : : < : < < : : : : : < 6 < < < < : % X X O ; 1 r y q 0 w w 0 0 0 0 0 0 0 0 q w w 0 w w w q 0 6 O O O + 1 ! f.k.k.g.c.n.n.v.c.o.J J J J | R R R R R R R R R R R R R  .s.j.g.c.t.p % X O O 1 q q q w w w w y q 9 q q 9 9 q q 9 q 9 9 6 6 9 9 6 q q 9 < * . . . . . . . . . r x x z z { ..X.X.X.b.OX.XOX(.j. .E R R L L J F V Y 5.<.<.<.#.( E E E <.J.K.K.H.G.1.6.6.4.4.4.1.G.4.4.4.6.6.5.:.V V V V W Y E E [ >.<.5.5.5.+.V V V I E ;.:.` ` @.@.;.:.;.) +.E  .E Z w 0 0 0 l ..e.e...h * o o g                                                                                                                                                       ",
"                                                                                                    g X X = x e.,.X.,.d.c.b.b.n.j.d.s.s.r.x O o . @ g { ....| L H ! H H 9 O . X X j ,.R.R.P.E.[.'.'.'.}.8X9X8X8X8XrXrXeXrXrXqXrXrXrX7XqXqX7XqXqX7X7X7X7XqXqXrXrXrXrXrXrXqXrX7X9X9X9X9X6X[.`.`.Q.^ 5 X . o x f.c.c.v.(.<X2XsX2X>Xl.j.g.h...9 O o @ # o o . X O q p p p u w w q q y t t t h h h h g h h p p h k k k h h h q ; X X X O @ * * * % % = = = = % % = = % % % * % % * * * ; * X o o . , D ..e.o.e.g.c.v.n.v.g.h.g.h.h.g.h.h.h.h.h.h.h.h.h.h.h.h.g.g.h.s.s.f.o.t % O o . * * * * * > > = * * % * % % % % % * % > t k k k j k k k h g < . . . . . . . . . * 1 1 9 9 H ..e.X.X.n..X.XOX.X/.v.l.g.,.L s M M m W 5.5.<.<.( C M M N >.!.~.~.R.G.4.6.6.4.4.4.4.G.G.G.4.6.6.6.1.@.:.:.:.Y m m A N I I I I Y Y [ [ [ [ +.;.;.+.` @.+.;.:.:._ Y I I T n 7 7 9 9 k ..e.w.{ h * o # g                                                                                                                                                       ",
"                                                                                                    r o O = k | o.o.X.d.v././.b.g.X.o.o.} g O X X * x e.a.s.a. .L ^ ^ ! 0 % X X $ S W.~.`.`.[.[.'.'.'.$XqXmXrXrXrXrXrXrXrXrX7XrXrXrXrXqXqXqXqXqX7X7X7X7X7XqXqXqXrXrXrXqXqX7X7X7X7X7X8X9X`.`.Q.E.! = X . O x y.c.c.v.(.2XfXgXfX<Xj.s.a.a.{ 9 O @ o # o o . X O q p p p p k k k k k k k k j k k k j k j j j Z Z j S Z H z h < O X . X X O O O O O X X X X X + X O . X O X . X X X O O o . # . . , j ! ..! ..h.c.v.v.n.c.l.v.v.c.c.c.l.l.l.l.c.c.c.c.l.l.l.c.l.h.,.w.t...y % O O . X X X . X X X X X X X X . . . . X O X = p H S H H H z z k k 9 . . . . . . . . o X O O % * h ..w.X.o.v..X.X.X.X(.(./.(.d.F i i i m Y 5.<.<.>.Y C M i C <.~._.~.~.H.4.4.6.4.4.4.4.G.G.G.4.6.6.6.6.4.6.6.5.) M i M M M m m M m Y ;.:.+.+.+.;.;.+.@.@.@.;.:.:.) I / F J a 7 7 6 6 k | e.e.{ h * X # g                                                                                                                                                       ",
"                                                                                                    r X O % k ..o.o.X.d.b. X/.b.g.X...w.{ g * X . % h e.X.,.,. .T R T L 0 $ X X $ T W.[.`.'.'.`.'.'.'.$XrXmXrXrXrXrXrXrXrX7X7XrXrXrXeX7X7X7X7X7X7X7X7X7X7X7X7X7X0X0X0X0XqXqX7XeX7X8X8X9X`.[.E.W.! = . . O h t.c.g.l.(.2XgXgXfX>Xl.a.f.f.{ q O # o # # # X X X t p p k k p p k k k k j j j j j j j j Z Z Z Z A Z S Z H H k : X X . X O O O X X X O X X X o o . + o o o . . X X . . . . . . . . 3 j ! | | X.g.c.n.c.v.c.c.v.n.c.c.c.c.c.c.c.c.c.c.c.c.c.c.c.c.h.e.e.y.{ t % X O X . X X . . . . . . . . . . . . . . $ X $ w S S S D Z Z j k k 6 . . . . . . . . o o + X $ % k w.o.X.X.v..X.X.X(.(.(.(.(.d.F u i i m U 5.2.5.<.Y C M M m 5._._.~.~.H.4.1.6.4.4.4.4.1.G.G.4.4.6.6.H.6.6.6.j.+.M i n n n Z m m / Y :.;.;.+.+.+.+.+.+.@.@.@.@.:.) V A I F a 7 6 6 6 j ..e.o.{ h * o # g                                                                                                                                                       ",
"                                                                                                    r X O % h ..o.o.,.d.v.b.b.v.g.e.w.r.{ g * X X % k .. . . .U A F F D 6 $ X X $ A R.`.`.'.'.Q.`.'.'.$X0XqXrXrXrXrXrXrXrX7XeXrXrXrXeXeX7X7X7X7X7X7X7X7X7X7X7X7X0X0X0X0XrXqX7X7X8X8X8X9X~._._.W.~ : . . O g e.c.g.l.(.2XgXgXgX>Xg.e.f.f.{ q * # @ # # # O X O q p k p g p p p k k k k j j j j j j j j Z A A m m m m A Z p 6 $ $ O O O % O O X X X X X # + + + + . o X X X X X X X X o X X . X < D ! | ..e.k.c.c.c.c.c.c.c.c.c.c.x.x.x.x.x.x.x.x.k.x.x.x.x.c.k.e.u.u.~ t = O O X X X X . . o o . X X . . . . . . X $ $ = w Z S S Z Z Z Z j p 6 X . . X . . . . o X X O O * k w.w.X.X.n.oX.X.X(.(.(././.g.L u u i M I 3.2.5.>.Y C M M V 5._._.~.~.H.1.1.6.4.4.4.4.4.G.G.G.4.4.4.4.4.H.6.j.;.M i s Z Z A A A / Y ;.:.:.;.+.+.+.+.+.@.@.@.:.2.) I F T D a 0 7 6 0 j ..e.o.{ h * X # g                                                                                                                                                       ",
"                                                                                                    g O O * h { o.o.X.s.d.g.g.g.s.o.w.w.{ g * X X * p L R R I I m F m Z : X . X X A R.`.`.`.'.%X$X$X$X6X0XqXrXrXrXeXrXrXeXeXrXrXrXeXrXrXeXeX7XqX7X7X7X7X7X7X7X7XqX0X9X9X9X9X6X6X6X6X3X3X2.:.;.,.h * . . X g t.g.g.l./.2XfXgXgXOXe.H ! ~ z 1 @ @ @ , c q.~ ~ Q r q 9 9 9 9 9 6 q q q 0 0 0 w q w w w s S T I I W W W W I A a w 0 0 9 6 > : : : ; ; , , , @ + + # X * < < : : : : 6 : 6 : : 6 < q h z H H ~ { ..w.........{ ......{ { { { { { { { } { { { { { } Q Q Q z t q 9 1 < @ X . . @ ; , , : : ; ; ; ; , < : < 6 0 s S F F A Z Z Z Z s 0 6 : < , o . . . . X O X O * z ..o.o.X.g.n.v.v.v././.(./.g.L u w i n I >.>.>.:.W C M C V <.~._.~.~.K.1.1.4.4.1.4.4.4.4.4.4.4.4.4.G.4.H.1.6.+.i i s j J T T E E ` ;.:.:.@.+.+.+.+.+.@.&.&.2.5.+.m F F n Z j j j j H ..e.o.} h * X # g                                                                                                                                                       ",
"                                                                                                    g # @ * h } o.X.o.X.,.,.,.,.X.o.o...~ g O X X * 0 j D m m m M Z s j : . . o X Z R.`.`.`.|.5X9X9X9X7XrX0XrXrXrXrXrXrXrXrXrXeXrXrXrXrXrXeXrXqXqX7X7X7X7X7X7X7X7X9X$X'.|.|.'.|.`.[.[.W.8 e 5 5 * . . . . g r.g.g.g./.2XfXfXfX Xj : 9 q 1 @ o @ # v iXhXjXhXuXh * $ X O $ X X O O O $ $ $ $ % % $ = w J  .) ) _ _ _ @.` ) E R T ! H j p p p p t t h g r , # + + = 0 k k k j j j j p j s j j k j : 6 : : 9 6 < 9 9 : 6 6 : : 6 : : < : < < < < 1 < 1 < < < 1 1 : ; < r t h k k g : @ . . ; r g g k p h p h h h h k k k j Z S J A S Z Z Z n j j p p h r * . . . . X @ X X * z w.r.o...t.,.o. .,.h.v./.b.g.^ a w a i A ;.;.;.+.U C n M V <.~.~.~.~.K.P.1.4.G.4.4.4.6.4.4.4.4.G.G.G.4.H.1.5.+.i a d Z L  .;.;.:.:.:.;.;.@.+.+.+.+.+.@.<.<.6.6.+.M n m n L ............e.w.} g * X # g                                                                                                                                                       ",
"                                                                                                    g o @ * k ~ w.e.o.o.o.X.X.X.o.o.....~ g * X X % q k d d s s s s s l : . . . X S R.~.T.T.%X9X0X0X0X0XqXqXrXrXeXrXrXrXrXrXrXrXrXrXrXrXrXeXeX7X7X7X7X7X7X7X7X7X7X6X'.T.`.`.`.Q.`.E._.R.$ $ X X . . . . . h r.k.g.d./.2XfXfXfX/.t % * O X X @ @ @ v vXHXHXDXzXc # . . . . . . . . . . . . X O O $ $ 0 L ,.:.:.@.%.%.&.&.:.:.;.) ^ R D s s s s d j h h g < O . + 5 p S S S S S S Z Z Z S S S S w ; O O % $ % O X X X X X X X X X . . . . . . . . . . . . . O X o X X * t l H H j 9 X O X = h x k Z H j j j j j j j S Z Z S F A A A A A Z n Z s j j k h * . . . . o # o @ O z w.w...o...| | R | s.v.(.c.g.| u a a n F ;.+.;.E I m m M V 6.~.~.~.~.K.P.1.G.G.4.G.4.4.4.4.4.4.G.G.G.G.G.4.5.E M i s n R ;.,.:.:.:.:.:.@.@.@.) +.+.+.%.<.1.6.5.+.C M M n L X.t.e.e.e.e.e.w.} t * X # g                                                                                                                                                       ",
"                                                                                                    g @ @ * h { w.w.o.o.o.o.o.o. . .o...! g % X X O q h h k d j s j s j : . . . X S R.`.Q.T.%XwX0X0X0X0XqXqXrXrXeXrXeXrXrXrXrXrXrXrXrXrXeXeX7X7X7X7X7X7X7X7X7X7X7X6X'.T.`.Q.Q.`.[.[._./.$ X . . . . . . X k r.k.g.g./.<XfXfXfXb.r X O X o o # # o v vXHXHXDXzXx . . . . . . . . . . . . . . o o $ $ 7 J ,.,.>.:.@.%.&.<.:.:.;.;. .R A n i M M s s j j h : O X X 5 p S S S Z Z A A A n A A A A w : % % * @ @ O X O O X X X X X X . X . . . . o . . . . . o O o o O X > p l H H j 9 X X X = p j j Z Z n n Z Z Z S Z Z Z Z A A A m A A Z n n n n s j z k * . . o o # @ X @ O z w.w.w.....| | L | s.z./.c.g.| u a i n F ;.+.;.E I M m M V <._.^.^.~.K.P.1.G.4.4.G.G.4.4.4.4.G.G.G.G.G.1.4.5.Y i u p n G [ ;.:.:.:.@.:.@.@.@.) +.+.+.%.*.1.6.5.) M n a s L X.t.e.e.e.w.w.w.{ h * X # g                                                                                                                                                       ",
"                                                                                                    v 1 < < h { { { ........o.o. . .o...! t % X . X 2 g g h h k n Z j j : . . . X A R.`.Q.Q.$XqX0XwX0X0X0X0XqXqXrX7XeXeXeXeXrXrXeXeXrXeXeXeX7X7X7X7X7X7X0X7X7X7X7X6X'.Q.Q.Q.[.[.[.[./.v.X . . . . o X X $ z f.g.g.d.(.<XfXfXfXb.g . . . . @ * ; * c zXAXHXDXzXc 4 @ # @ @ @ @ @ @ @ ; ; , , , , < 9 p J o.,.;.+.:.:.:.:.:.;.;.;. .R A M M M M M M s j p : O X X 5 p Z Z Z Z Z Z A A m A A F A M : = * = * * = @ % O O O O O X O X X . X O O O O X X X X O O O O O O > u D D D j 9 $ X X $ p j j n n n n M M n n n n n m A A A A A A n n n n n n j j k % X . o o # # X @ * x q.w.w.{ ..| | L ! e.z.b.v.g.| s s n n J E E E E R m n M V 2._.~.~.~.H.1.1.4.4.4.G.G.4.4.G.4.4.G.G.G.4.4.4.5.Y M i a M N [ +.@.@.@.@.@.@.@.@.+.+.+.@.%.*.1.6.5.) M n i s L e.e.e.e.w.w.w.w.} h < * , v                                                                                                                                                       ",
"                                                                                                          i.q.c x x z ! ......o. . .o...! t % X o X , q q q q g Z Z Z j : X . . $ A R.`.Q.Q.$XwXwXwX0X0X0X0X0X0X7X7X7XeXeXeXeXeXeXeXeXeXeXeX7X7X7X7X7X7X0X7X7X7X8X6X'.E.E.E.E.R.j.j.a.e.X . . . , g g g k e.V.oX X(.>X2XfXfXfXb.g . . o 1 c ~ } ~ i.hXxXBXBXhXN.q.q.q.q.q.q.q.q.q.q.q.r.r.p.p.p.r.r.w.Q H ! R R I I I I F F F F A F F m m m M M n n Z p 6 O X X 5 p Z Z Z Z m Z m A m I I I I m 0 9 6 9 9 6 6 < < < < : : : : : : : : : : : : : : : : : : : < < : 6 0 s D F F j 9 X X X $ p j j M M A A m m m m m m / F A m m A Z n n n n M n n s Z j = X . o o o # X @ @ g c Q c z ! ..} ! ! e.z.b.v.c.s.^ ^  .R T I F T T F Z m M V <.!.~.~.~.H.1.4.6.4.G.G.G.G.G.G.G.4.G.4.G.4.4.4.5.E m n n C I E +.+.@.@.@.@.@.@.@.+.+.@.@.%.*.1.6.5.) M n a a L e.e.e.o.} } Q c c q.u.                                                                                                                                                            ",
"                                                                                                              g 1 : 9 k ! ...... .X.o...} t O . . . # # @ * * 9 Z Z Z j > X . X $ A R.`.Q.'.$XqX0X0X0X0X0X0X0X0X7X7X7XrX7XeXeX7XeXeXeXeXeX7X7X7X7X7X0X0X0X7X7X7X8X9X'.E.E.E.2.C i w p q . . . + x w.y.f.h.oXsXsX2X2X2XfXfXfXsXn.2 . . @ x A.uXuX,XiXhXhXxXhXhXhXvXzXzXzXzXzXzXzXzXzXvXvXvXvXvXvXvXvXuX~ 6 9 6 7 0 0 0 7 7 7 6 6 7 i F R T I A m n n Z p : O X X = p Z Z Z Z m m n m N E E E  .I Z j j j j j j k k p p p p p p p p p p k d k j j j j j j j j j j k j Z F F J D j 9 X O X = g k j n n I E W Y Y ) ) ) ) E I m n n Z Z n n n n n n j Z k = X X o o o # o o X < 1 9 1 9 x } } ! } s.z.v.v.v.c.g.g.l.h.[ M M m n s Z m M V <.!.~.~.~.H.1.1.4.4.4.G.G.G.G.G.G.4.4.4.4.4.1.4.5.+.F F F I Y +.+.+.+.@.@.@.@.@.@.@.@.@.@.*.*.1.6.5.) M i s a J X.X.X...l q 1 1 x                                                                                                                                                                 ",
"                                                                                                              2 . . O 0 H ......o.X.o...} g O . . . . . . . X : Z S Z Z 6 X X X $ A W.`.`.'.$XqX0X0X0X0X0X0X0X0X7X7X7XrX7X7X7X7XeXeXeXeXeXeX7X7X7X7X7X0X0X0X7X7X7X9X`.E.E.W.:.5 $ X O X . . . + z x.b.b./.<XfXgXgXgXgXfXfXfXfXn.2 . . O c iXhXhXdXkXkXjXhXdXhXAXDXDXDXDXDXDXDXDXDXDXDXGXGXFXFXJXLXDXdX~ % * % > = = % % $ O O O $ 7 Z ^ E R I A m n Z p : O . o 6 p Z Z Z Z Z n M m I ) ;.;.:.) T A A J S F D Z H Z Z Z Z Z S S Z Z S Z H J J J J J H H S S S J H H F F F F F j 9 O X + % g j j n M R E Y +._ +.@.;.:.;.W A n Z Z Z n n n n n Z n Z j = X X X o o # o o O O O O O % h { ..! ..f.z.v.v.v.b.b././.v.[ i i i a s S m M V <.!.~.~.~.G.1.1.G.4.4.G.4.G.G.G.4.4.4.4.4.1.1.1.6.;.I I T Y Y ) ) ) +.@.+.+.+.@.@.@.@.@.@.*.*.P.6.5.) M i s p K e.X.X.| d @ X O g                                                                                                                                                                 ",
"                                                                                                              b o . O q Q ....e.X.e.w.w.{ g @ . . . . . . . . : Z Z j j 6 X X X $ / W.[.'.'.$X8X0X0X0X0X0X0X0X0X7X0X7X7X7X7X7X7XeXeXeXeX7X7X7X7X7X7X7X0X7X7X7X7X0X6X`.E.W.R.,.& X . . . . . . # l x.n././.<XgXfXgXgXgXgXgXgXfXv.2 . . X z iXdXdXdXhXhXhXkXjXhXAXDXDXDXDXHXDXDXDXDXDXDXGXGXFXFXJXLXGXhX} * * O @ * * @ @ # # # # $ 7 j ! ^ R T A A Z Z p < O o # 6 p S Z Z Z Z m M m I ;.:.:.:.) T / / I A A A A A A A A A S S A S S S S S S A A S S S S A A S S S S A A A F F j 9 X X . @ g k k a i R  .E +._ _ @.@.;.;.W A Z A Z Z Z Z n n n Z Z H j = $ O X # # # # o O o O O O % h { ..! ..y.c.v.v.v.v.b.b./.v.[ i i i s s H m M N <.!.~.~.~.K.1.4.4.4.4.4.4.1.G.4.G.4.6.4.6.6.4.1.6.@.I U I T E E ` ) ) +.+.+.+.+.@.@.@.@.@.*.*.G.H.5.) M a s p L e.X.e.| d - o o g                                                                                                                                                                 ",
"                                                                                                              g , @ * t Q ....e.o.e.w.w.{ g # . . . . . X X X 1 j Z s j : O X X $ I W.[.'.'.6X8X0X0X0X0X0X0X0X0X0X0X7X7X7X7X7X7X7X7X7X7X7X7X7X7X7X7X0X0X7X7X7X7XqX6X`.E.R.j. .& X . . o . . . # l c.n././.3XgXgXgXgXVXVXgXgXsXc.2 . . % c iXdXdXdXkXkXkXlXkXkXBXDXDXDXHXHXHXDXDXDXDXGXGXGXJXJXJXJXGXhX} , 1 , , , , , , 4 4 4 4 & 0 j ! L T J A Z Z j p : o o # 6 p S S Z Z n m m V W ;.:.:.:.) W / I I / / A A A A A A A A A A A / A / / I I I / / / / / / A A J J T / A F F j 9 X o . o t h k a i R  .E +.+.@.@.:.:.;.W A Z A Z Z Z Z n n n Z Z H Z = $ O @ @ o @ @ o O o X O X O t { { ! { y.l.c.v.v.v.b././.v. .M i i s p j M M m >.!.~.~.~.K.4.4.G.4.4.4.4.1.G.4.4.4.4.6.6.6.6.6.6.@.I I I W W E ) ) ) ) ) +.+.+.@.@.@.@.@.*.*.P.H.5.) M a s p ! e.X.e...s - o @ g                                                                                                                                                                 ",
"                                                                                                                      c c F.q.} q.q.q.q.c r @ . . o 2 g v v v v t t t g * o . X $ / E.|.'.|.6X8X0X0X0X0X7X7X7X0XrX7X7XrX7X0XrX0X7X7X7X0X7X7XqX7X7XeXeX7X8X9X9X9X6X#Xj.^ e.e.H w 6 & 1 , . . X % J c.b.b./.<XgXgXgXgXgXkXgXfXfXv.2 X . O Q iXdXdXdXkXkXkXhXjXhXcXBXBXBXBXBXBXBXBXAXAXAXAXAXHXHXHXHXHXhXM.q.q.p.q.q.q.q.q.q.q.q.q.q.q.~ x k h g g g g g 2 * X o o < r k k j Z A m m m V $.%.&.@.@.( ( ( ( W V V V V V V V V U I V W W I I I W W Y Y W V V W W I I V V V / V I S j 9 . . . o 1 g g u u ^ E +.@.( @.%.&.@.+.Y V m m A n M n n Z S Z Z J Z w 6 6 6 6 * O X @ o o o o . O g ~ ~ } ] X.h.g.g.g.c./.v./.z.,.I J F L J u s u M >.~.~.~.~.K.G.G.H.4.4.4.G.1.G.4.4.G.4.4.4.4.4.4.6.@.I I J I Y E E E [ +.[ +.+.+.+.+.@.@.:.:.:.:.:.;.E J D D s ] t.e.t...h , o @ v                                                                                                                                                                 ",
"                                                                                                                        v , 1 2 2 1 1 1 , O . . . ;             < $ O O . # # $ $ W E.|.|.}.6X8XrX0X0X0X0X7X7XrXrX7X7X0X0X0X0X0X7X7X7X0X0X0XqX7X7XeXeX7X8X6X$X&X;X_.I e 6 q 0 j ! H c h o . X % H c.b././.<XgXnXgXgXgXgXgXfXfXv.q X . O c iXdXdXdXkXkXdXhXdXjXhXhXhXhXhXhXhXhXhXzXzXxXxXcXcXcXcXxXcXvXvXvXvXvXvXvXvXvXvXvXvXvXvXBXpXr.1 * * * * * * * @ o o . o @ , 1 : = 5 n T W W ( @.&.&.&.%.:.@.@.@.@.@._ _ +.@.+.+.+.+.+.+.+.+.;.;.+.+.+.@.@.@.@.@.;.;.;.;.+.+.) W / A Z j 6 . . . . X @ @ & 5 J E +.@._ %.@.@.@.@.+.) E E J n n n n Z A Z Z J J Z s j j j * O X # o o o . . . g } } } ! | ..X.X.,.h././././.v.l.c.c.g.,.a u u M >.~.~.`.~.K.G.1.G.4.1.4.4.G.4.4.4.G.G.4.4.4.4.4.5.+.N F A V I Y E E +.+.+.+.+.+.+.+.@.@.@.) Y W I E  . .,.X.o.e.t.t.y.w.x , # @ v                                                                                                                                                                 ",
"                                                                                                                        g o O @ @ @ # X X X o o . ,             < X X . . + . O $ W ~.|.|.}.6X8X0X0XwX7X0X0X0XrX7X7X7X0X0X7X7XwX7X7X7X7X7X7X7X7X7XeXeXeX8X$X}.}.#XW.M $ X X 6 ! ..{ { c X . . O H n. X/./.<XgXgXgXgXgXgXgXgXfXb.2 X . O c iXdXdXkXkXkXkXkXdXdXdXdXjXdXdXjXjXjXjXjXhXhXhXhXhXzXzXzXzXBXGXPXPXLXPXLXLXFXFXFXFXFXFXLXvXp.* X . . . . . . . o # # o . + X O $ $ s R E ) ;.:.<.&.<.<.2.2.2.>.>.:.:.:.:.>.>.@.@.@.@.@.:.:.:.:.>.>.>.>.:.&.&.2.2.>.>.>.>.:.;.E / A J j : X . . . . . . X $ J  .) @.@.@.@.@.@.@.:.:.;.+.R A M m m A A S S J J J H J J J * X . o X o . . . . g } Q } } ..! | | | s./.b./././.(././.b.s.u u u M >._._.^.~.K.G.1.4.4.4.4.4.G.1.4.4.4.G.G.4.H.4.4.5.+.m m m m I Y ) E +.+.+.+.+.$.+.+.@.@.@.Y I m m F  .3.g.s.h.s.f.y.y.w.h , @ ; v                                                                                                                                                                 ",
"                                                                                                                        g ; @ o o o X . . . . . . 1             ; . X . o # + * = T ~.|.|.}.6XqXrX0XwXwXwX0X0X0X0XrX0X0X0X0XwX0X7X7X0X7X0X0X7X7X7XeXeXrX8X$X}.$X#X~.M $ $ X > ! ! ! ..Q X . X * H n. X/./.<XgXnXgXgXgXgXgXgXfXb.q X . O Q iXdXdXdXkXdXkXhXdXdXdXdXdXdXdXdXjXjXjXjXhXhXhXhXhXhXzXzXzXvXDXLXLXFXFXLXLXLXFXLXFXFXFXGXvXp., X . X . . . . . o o o . @ # . O * $ j ^  .;.;.>.>.>.2.2.:.:.>.:.:.:.:.:.:.:.:.@.@.@.@.@.@.@.@.@.@.@.@.@.@.@.&.&.&.:.:.>.;.:.;.T A S J j : X . . . . . . X $ J  .) @.@.@.@.@.@.@.@.;.+.+.E A M m m A A S A S S J J H D S * X . o o o o . . . g ~ ~ } } { ....| | s././././.(./.b.n.b.s.u u u M >._.).^.~.K.G.4.4.4.4.G.G.G.4.4.4.4.4.4.4.4.6.4.5.+.m m m V I E ) +.+.+.+.+.) $.+.+.+.@.@.E I F F F  .,.s.s.h.t.t.t.y.y.x , @ @ v                                                                                                                                                                 ",
"                                                                                                                        g @ o o # # # o . X o . o ,             , X X o + 4 4 * = R ~.}.|.}.6X8XrX0X0X0XwX0X0X0XrX7X7X7X7X7X0X0X9X7X7X9X0X0X7XqXeXrXrXrX9X$X}.$X#X_.M $ $ O > ! ..| o.Q X . o @ D c././.(.<XgXgXgXgXgXgXgXgXfXv.2 X X * Q iXdXdXdXkXkXkXkXjXdXdXdXdXdXdXdXdXjXjXjXjXjXhXhXhXhXhXhXzXBXDXPXPXLXLXFXFXFXFXFXFXJXJXFXvXr.; . . X . . . # o # # @ @ # # . . X O j ..o.,.,.,.,.>.,.,.,.>.,.,.,.,.,.,.>.>.>.>.@.%.%.%.%.%.@.@.@.@.%.%.%.&.&.<.2.>.>.>.,.,.;.T A S S k : X . . o . . + X $ H  .E ;.@.@.@.@.@.@.@.@.@.@.E m M M M m A A A S A F J J H S @ o . o o . . . . . g { { { ~ { ....| o.s./././././././.b.n.s.u u u M >.!.).)._.K.G.4.4.4.4.G.4.4.4.4.4.4.4.4.4.4.6.4.5.+.m m A m I E +.+.[ ) ) ) ( ) +.+.+.+.+.R A A F F | a.s.s.s.s.k.y.y.y.z , ; ; v                                                                                                                                                                 ",
"                                                                                                                                                                        v 3 4 * = T ~.|.|.|.&X9X9X9X9X9XwXwX0X0X7X9X6X6X6X9XwXwX7X0X9X6X6X6X6X9X8X7XrXqX9X$X}.}.#X_.m $ O O : ! o.^ ..! X . o # D c.b././.OX3X3X3X3X2XfXfXfXfXv.2 X . * Q iXdXdXdXkXkXfXdXdXdXdXdXdXjXjXjXjXjXjXhXhXhXhXhXhXhXhXhXhXcXAXDXDXHXHXHXHXHXHXHXHXHXHXHXzXB.r.q.q.q.q.} } q.q.q.q.q.q.F.q.q.q.r.r.Q j H J L T J T T J I T J J J J J J F U ) :.%.%.%.*.%.%.%.%.@.&.&.&.%.%.<.<.2.&.@.+. .E R I A S S j w < ; , , . . . X X j L E ) ) _ @._ _ @.@.@.@.@.) I V I I I I m / A A S F J J J @ o . o . . . . . . g v c x z ~ | ..| ..s.b.b./.v.v.b.b.n.v.a.u u u M +.j.R.!.K.G.1.4.4.4.4.4.4.4.4.4.4.4.4.4.4.4.6.6.5.) M n m m I E E E ) ) +.( ( ) ) +.+.+.+.T n M n n R s.s.f.e.e.w.{ { w.u.r.                                                                                                                                                                      ",
"                                                                                                                                                                          g , ; = E ~.|.|.'.|.}.}.|.|.$X9X0X0X0X9X}.}.}.|.5X7XwX0X0X6X}.}.}.}.$X9X7XrXqX9X$X}.}.#XW.A $ O O : !  . .X.^ X X # @ H c.b.b.v./..X.X.X.XOXsXfXfXfXv.2 . X * Q iXdXdXdXdXfXfXdXdXdXdXdXdXdXjXjXjXjXjXjXjXjXjXjXhXhXhXhXhXhXxXcXxXxXxXzXzXzXzXzXzXzXzXzXzXvXvXvXvXvXvXvXvXvXvXvXvXvXvXvXvXvXvXvXzXk.< : 6 6 5 5 5 5 5 6 6 6 6 6 6 6 6 6 w F +.@.%.%.%.*.%.@.@.@.%.&.%.%.%.&.<.2.@.( W I F A A m A Z Z j k h k g @ + . X X j D A V V ( @.@.@.@.@.+.$._ +.) ) ) ) ) Y m m A A A A S F Z * X . o . . . . . . @ * * : < k { ..| ..s./.b.b.b.b.b.b.n.n.s.u u u i R >.<.&.*.1.*.4.G.1.1.G.1.G.G.4.4.4.4.1.6.1.4.6.5.) M n m m I E E E ) ) +.) ( ( ) ) +.+.) F a i a i L s.s.g.t.K 9 9 t Q                                                                                                                                                                           ",
"                                                                                                                                                                          g , : 5 E E.|.|.'.'.'.'.`.`.$X9X0X0X0X6X|.'.'.`.$X0X0X7X7X5X'.'.|.|.}.9X7XrX0X9X$X}.}.#XW.n $ O O 9 ! ,. .a.^ X X # # D g.n./.v.b././././..XsXlXfXsXc.2 o X * Q iXdXdXdXdXdXdXdXdXdXdXdXdXjXjXjXjXjXjXjXjXhXjXjXjXhXhXhXhXhXhXhXhXhXjXjXjXjXjXjXjXjXjXjXzXAXDXDXDXDXGXGXGXGXGXGXGXGXGXGXGXFXGXGXDXN.* * * % $ $ $ $ $ $ $ X X O X O $ $ 7 F ;.>.@.%.*.%.%.@.@.#.#.>.<.2.<.2.2.2.@.Y m F m n m m m Z Z j Z z H k * + . X O k j M C m _ @.@.@.@.@.@.@.@.+.@.>.2.>.:.) m m A / A A F F Z * X X o . . . . . . o . . X O t ! ! ! ..s./.b.b.v.b.b.b.n.n.s.u u u i I ;.@.@.@.1.1.G.G.1.4.G.4.G.G.4.4.4.4.1.6.1.1.6.5.) m m A m I E ) E ) ) ) ) ( ( ) ) ) ) E Z u u a i L s.t.t.t.z % : ; k                                                                                                                                                                           ",
"                                                                                                                                                                          v , * 5 E E.'.'.'.|.'.[.`.`.}.7X0XqX8X6X[.`.`.'.}.7XqX7XqX6X|.'.|.|.}.9X7X7XqX9X}.|.}.#XW.A $ O * 9 } a.,.e.w.$ X # # j g.b.b.v.b./.b.v./..X2XlXlXdXn.q X o @ c iXjXdXdXdXdXdXdXdXdXdXjXdXjXjXjXjXhXjXjXjXjXjXjXjXjXjXhXhXhXjXjXjXjXhXjXjXjXjXjXjXjXjXdXxXAXDXFXFXFXGXGXGXGXGXGXGXGXGXDXFXLXFXDXGXN.; * * O O X X X X X X o O o o O O = & H ,.,.2.@.<.>.>.@.@.:.:.:.>.:.2.&.2.2.:.W m m m m m m m m A S S H H z = X + X O p j n m C _ @.@.@.@._ _ @.@.@.@.@.@.>.:.Y m V m m A F F Z Z * X X . . . . . . . . . . . @ g ! ......f.n.b.v.b.b.b.n.b.n.s.u u 8 M R ;.>.@.#.4.4.G.4.G.G.4.G.G.4.4.4.6.6.6.6.1.6.6.5.) m m m F I E E E ) ) +.) ) ) ) ) ;.+.E Z p u p a L X.s.t.t.l : % ; h                                                                                                                                                                           ",
"                                                                                                                                                                          g , : 5 Y ~.|.|.|.|.|.[.[.`.}.8XqXqX7X9X}.[.[.|.}.8XqX8XqX6X|.[.|.|.}.9X7XqXqX9X}.|.|.#XW.A & O @ 1 ! a.a.e.w.% X o # j k.n.b.v.b./.v.v.b. X<XlXlXdXV.b X o ; } aXjXjXjXjXdXdXdXdXdXdXjXjXhXhXhXhXhXhXjXjXjXjXjXjXjXjXjXjXjXjXjXjXjXjXjXjXjXjXjXjXjXjXdXxXAXDXFXFXFXFXFXGXFXJXGXJXGXGXFXGXDXGXGXDXN., @ # o o o o # # . . # # # # # @ X : H e.,.,.>.>.>.>.>.>.,.,.>.>.:.2.>.:.>.:.W m m m M M m m m m A A S H j = X X . O t j n m C ) @.@.@.@._ @.@.@.@.@.@.@.&.:.( V V V m m A A A Z % X X . X . . . . . . . . . # g ! ......f.n.b.n.n.n.v.v.b.n.s.u i u M J  .;.+.@.2.6.J.G.H.G.4.G.4.G.4.4.6.6.6.6.1.6.6.5.) m m m N I E E ) ) ) ) +.) ) E E E E E j p w u p H X.s.f.y.l * O ; v                                                                                                                                                                           ",
"                                                                                                                                                                          g ; : 6 Y ~.[.'.'.`.E.R.E.L.`.$X6X6X6X}.E.E.E.L.`.6X6X$X6X[.`.E.E.E.~.}.6X6X6X$X|.|.|.#X_./ & $ @ : j j S j k O # o @ p s.g.g.g.c.b.v.v.n.b. XXXXXoXf.q X . o v C.Z.C.Z.Z.Z.Z.Z.Z.Z.Z.Z.A.A.,XaXjXjXjXjXjXjXjXjXjXjXjXhXhXhXhXjXjXjXjXjXjXjXjXjXjXjXjXdXzXcXBXAXAXAXAXBXBXAXBXAXAXAXAXAXHXAXHXHXHXiXk.i.i.i.i.i.i.i.i.i.i.D.D.N.N.N.N.N.k.} j d a a i M M i i i i s n m E ,.;.;.E Y I I I I I I I I I I I T L S = O X . O t j n m M _ @.@.@.@.@.@.@.@.@.%.@.@.&.@.+.Y W W I / A A A S 0 : < < < X . . . . . . o o @ g ~ { } { e.s.s.s.s.g.v.v.b.v.g.R R R  .R R [ E ) <.6.H.G.G.G.4.4.4.4.4.4.4.4.1.1.1.6.6.5.( M m m m I E ) +.) ) _ ) ) E I F F F F D Z D j j ! e.s.e.t.x * * ; g                                                                                                                                                                           ",
"                                                                                                                                                                          v ; ; 5 W ~.|.|.'.E.P.2.%.%.P.`.`.`.`.E.%.%.` %.K.`.[.`.[.L.P.*.P.P.P.`.[.|.|.|.'.'.|.}.~.m & = * % : 6 6 : : X O . # t ..e.e.e.g.v.n.c.n.c.h.f.f.k.{ 2 # o @ g i.i.i.y.y.y.y.y.y.y.i.y.k.i.V.pXhXhXhXjXjXjXjXjXjXjXjXjXjXjXjXjXjXdXdXjXjXjXjXjXjXjXjXjXjXhXzXzXzXzXzXzXzXzXxXxXxXxXxXzXcXcXcXcXBXBXvXvXvXvXvXvXvXvXvXvXvXvXvXvXvXvXvXHXjXr.: & & 6 5 5 5 & & & 5 5 5 7 Z R R I I T R ) ) E ) +.+.+.+.) E T ^ H = $ X # X y p a n M ) +.@.@.@.@.@.@.%.@.%.%.%.%.&.@.+.+.+.E I m A A S j p p g t * . . . . . . o o @ g ~ } ! } ....| | | s.b.b.b.b.b.g.j.d.g. .J F N V >.6.K.H.H.G.G.J.4.4.4.4.4.4.1.1.1.1.4.5.( C m m m I E +.+.+._ _ ) ) E F M a s s H ! ..| | X.e.e.y.y.x % @ @ g                                                                                                                                                                           ",
"                                                                                                                                                                          v , ; 6 E ~.[.[.`.E.` ) ) ( %.E.~.`.~.R._ _ _ _ P.`.`.`.[.P.*._ %.*.P.~.[.`.[.[.'.|.|.}.~.m 5 : : * % = > O O @ @ X @ 0 ..e.e.X.s.c.n.n.c.c.t.e.w.t.! 3 X . O r r.r.u.w.w.w.r.r.r.r.u.u.k.k.V.pXjXjXhXzXzXhXhXjXhXjXjXjXjXjXjXjXjXjXjXjXjXjXdXjXjXjXjXjXjXjXjXjXhXhXhXhXhXhXhXhXzXhXzXzXzXzXzXxXcXHXDXDXDXDXDXDXDXDXDXDXDXDXDXDXGXGXGXGXvXi.< % X O X O O O O O O $ $ 7 s Z Z A F I R E E E +.+.+.+.+.) E W R H 6 $ O # X q p a n M ) ;.;.@.@.@.@.@.%.%.%.%.%.%.%.@.@.>.>.+.I m Z A Z Z j j k k * . . . . o . . . # g Q ~ ~ } { } | | | s./.b.b.v./.v././.v.X.F F F I :.6.J.H.G.G.4.4.G.G.4.4.4.4.4.4.4.4.4.<.( C m m m I E +.+.) ( ) ) +.E F i i a d L ..e.X.o.X.X.X.o.r.x ; @ @ g                                                                                                                                                                           ",
"                                                                                                                                                                          v , * & R W.[.[.[.R.%.T W W %.E.~.~.~.H._ _ _ _ 1.`.`.[.[.P._ _ _ _ 1.~.[.[.'.|.'.|.|.}.~.m 5 $ * : * O * @ o # X X % 0 { w.e.X.f.c.n.b.b.c.t.y.y.w.Q 2 @ . o g r.r.r.w.w.r.r.u.u.u.i.u.y.u.x.iXhXhXzXhXhXjXjXjXjXjXjXjXjXjXjXjXjXjXjXjXjXjXdXjXjXjXjXjXjXjXhXhXhXhXhXhXhXhXhXhXhXhXhXzXzXhXzXzXxXHXGXGXDXDXDXDXDXDXDXDXDXDXDXDXDXGXGXFXvXi.; O X O X X X X o X X O O & u H J F F J E E E E ;.+.+.+.+.+.) R ^ H 6 % O # @ t j s n M ) ;.;.@.@.@.@.%.%.%.%.%.%.%.%.@.@.>.>.) F n Z Z Z Z S Z j k > . . . . . . . . @ g ~ } } } } { ] | ..s.b.b./.b./././././.,.F D F I +.6.J.H.H.H.4.4.G.G.4.4.4.4.4.4.4.4.4.<.( C m m m I E +.+.+.( ) +.+.E F a p s j L o.e.X.X.s.t.s.y.t.x ; @ 4 g                                                                                                                                                                           ",
"                                                                                                                                                                          v 3 , 6 R W.[.[.~.R.` R T W %.~.~.~.~.R._ _ ) _ 1.~.`.`.[.P.%.%.%.%.1.[.[.[.[.'.'.|.'.[.~./ e 6 < 9 * * * @ # 4 # O $ q { ..w.o.f.n.b.n.c.c.e.r.t.w.~ < @ . @ g q.q.r.w.w.w.w.r.u.u.i.k.i.u.N.pXzXzXhXzXhXhXhXhXhXhXhXjXjXjXdXdXdXdXdXdXdXdXdXjXjXjXjXjXjXjXhXhXhXhXhXhXhXhXhXhXhXhXhXhXhXhXzXhXxXAXGXDXDXDXDXDXDXDXDXDXDXDXDXGXGXGXGXFXvXi., @ # X o # # # # # # o X < h H H Z n D R E E  . . .+.+.+.) E R R H < O o # @ t p a n M Y ;.:.@.@.@.%.%.%.%.%.%.%.%.%.@.@.@.:.E m M Z Z Z Z Z Z j k = X X . . . . . . O r } { } ~ } { | | o.s.b.b././.b./././.v.,.F F F F :.5.H.G.G.H.H.H.G.G.4.4.4.4.4.4.4.4.4.<.( m m m N I Y +.$.+.+.+.)  .E F s p p j L X.X.X.X.X.o.X.y.r.z 1 , 3 v                                                                                                                                                                           ",
"                                                                                                                                                                                k.l.j.<._ _ _ ( J A V _ E.~.~.E.6._ Y ) _ 1.~.`.[.[.K.1.1.2.1.P.L.E.E.E.Q.`.|.|.[.[.:.T ! ~ z < O o @ @ b g g q k w.......f.c.b.n.c.k.! z z c x g g g g c i.u.i.u.u.i.i.i.k.x.x.x.x.k.N.,XiXuXuXiXuXuXuXuXuX,X,X,X,X,X,X,X,X,X,XdXdXdXdXjXjXjXjXjXjXjXjXjXhXhXhXhXhXhXhXhXhXhXhXhXhXhXhXhXxXcXAXAXAXAXAXAXAXAXAXAXAXAXAXAXAXHXHXHXvXUXp.p.r.q.p.q.p.p.p.p.p.q.q.~ z p w p a i i m A A m m m N V m m m S j : O o # X 9 0 0 8 8 W ;.:.@.@.@.%.%.%.%.%.%.%.%.%.@.@.@.:.E m n Z Z Z n A S j j 9 * ; ; @ # . o . . 1 h x x x K } } | o.s.b././.b.v././././.h. . . . .Y @.%.$.%.*.1.4.G.4.4.4.4.4.4.4.4.4.4.<.( m m m N I Y +.$.+.+.+.+.+.E F s p p k L ..X.X.X.| L L K w.k.                                                                                                                                                                                  ",
"                                                                                                                                                                                    F.g q q q q q 0 w W W.E.E.E.G.' ( ( ( 1.[.Q.`.Q.E.E.L.E.E.H.1.2.2.*.K.[.|.|.[.[.~.E.E._.j.7 % * 4 ; q.{ ! ^ ........o.s.c.b.n.n.w.y ; , , v { u.u.u.i.x.x.x.x.x.N.N.N.N.B.B.M.B.B.N.N.N.M.N.N.N.N.N.N.x.x.x.x.N.x.k.x.k.k.V.iXdXjXjXjXjXjXjXhXjXhXhXjXjXhXhXhXhXhXhXhXhXhXhXhXhXhXhXhXzXxXxXxXxXxXxXxXxXxXxXxXxXcXcXcXcXcXcXcXxXzXhXjXjXhXhXjXjXjXjXjXjXjXjX,Xv , , , , * * < < 1 1 1 1 1 9 1 1 2 2 < , # 4 4 # , * : = 5 I +.@.%.%.%.%.%.%.@.@.@.@.%.@.@.:.@.;.E A M n Z j Z n n s d a a w w 0 * . . o # @ 1 , 1 1 r { } { ..t.b./.b././././././.v.v.c.l.j. .F N m V ) 2.j.1.G.4.4.4.4.1.4.4.1.6.5.) m m m m I E ) ( ( ( _ +.+.E m u w u p H o.e.e.r.Q q 1 2 x                                                                                                                                                                                     ",
"                                                                                                                                                                                    ~ * X O * * % = 5 m R.W.E.E.H.W ( ( ( %.[.E.E.Q.`.`.`.[.[.R.%.` ` _ P.`.'.'.[.[.[.[.[.).j.8 $ O - , r.u.e.a.o.o.X.o.o.s.c.b.b.n...9 X o @ g y.x.x.x.N.N.M.N.N.N.N.M.B.C.C.C.C.A.C.N.x.x.i.i.i.i.i.i.i.i.i.u.u.i.u.u.u.r.u.x.uXdXjXjXjXjXjXjXhXjXhXhXhXhXhXhXhXhXhXhXhXhXhXhXhXhXhXhXhXhXhXhXhXhXhXhXhXhXhXhXhXzXzXzXzXzXzXzXzXcXAXHXHXHXHXHXHXHXHXHXHXHXHXHXaXc @ . . . . X X X O O O O O O O O * * @ @ # @ # # @ @ % % 5 J ;.:.%.%.%.%.%.%.@.@.@.@.%.@._ @.@.+.Y m M n Z Z Z n Z Z n j n Z j k : . o . # @ o . o O q { { { ..s.b.b./././././././././././.b.R m M M m E 2.j.4.4.4.4.4.4.4.4.6.6.6.5.+.m m m m I E ) ) ) ( ) ( +.E m u w u k J X.e.e.w.x ; @ # v                                                                                                                                                                                     ",
"                                                                                                                                                                                    c @ X X X X + X $ i j._.W.R.6.W W Y Y 2.~.~.~.~.[.[.`.[.[.R.@._ _ _ 1.~.'.|.[.[.|.[.{.[.R.8 $ O O ; r.u.e.a.e.e.X.o.o.h.c.b.b.n.o.: . . # g i.M.M.N.M.N.M.N.N.M.B.B.C.C.C.C.C.A.C.N.i.i.i.i.i.i.i.i.u.u.p.p.u.u.r.r.u.r.u.x.uXdXjXjXjXhXhXhXhXhXhXhXhXhXhXhXhXhXhXhXhXhXhXhXhXhXhXhXhXhXhXhXhXhXhXhXhXhXhXhXhXhXhXhXhXhXhXhXhXxXAXDXDXDXDXDXDXDXDXDXDXDXDXDXaXc o o . o . o . X o O O O X O X @ O o . @ 4 4 # # @ # % % 6 J ,.>.>.>.:.>.>.:.@.>.@.@.@.@._ @.@.+.Y m M n n n n n n Z Z Z Z S Z k < X . . + # o o X o 1 } } ~ { t.b.b././././././.(./././././. .m M M M Y >.5.4.4.4.4.4.4.4.H.4.6.6.6.+.m m m m I E ) +.) ) ) E E R m u 0 0 p H ..e.e.w.h * X o g                                                                                                                                                                                     ",
"                                                                                                                                                                                    c @ X X . X . X $ a a./._./.j.R R R R 2._._._._.[.[.[.[.[.K.%.@.+.@.6.[.[.|.'.'.'.`.[.[.j.e $ O O ; w.e.e.X.e.X.o...X.h.v.b.b.n.e.q X . # g i.M.M.M.M.M.M.M.M.M.B.B.B.C.C.C.C.C.C.N.i.i.i.i.i.i.i.u.u.u.p.p.u.u.u.u.u.r.u.k.pXdXhXjXjXhXhXhXhXhXhXhXhXhXhXhXhXhXhXhXhXhXhXhXhXhXhXhXhXhXhXhXhXhXhXhXhXhXhXhXhXhXhXhXhXhXhXhXhXxXAXDXDXDXDXDXDXDXDXDXDXDXDXDXaXc X . . o X . . X o o . X . O X o X @ o # # # 4 4 4 @ * % 6 D  .;.;.;.;.;.;.;.+.@.@.$.@.@.$.@._ _ Y V M M M M n n n n n Z A S S j : X . . + # . . . O q } { } { f.b.b./././.(./.(.(./.b.b.b.v. .n i i M I ,.,.2.<.2.6.4.4.4.4.4.4.6.6.+.m m m V I E E +.) E Y U R J M w 0 0 p D ..e.e.w.k * X @ g                                                                                                                                                                                     ",
"                                                                                                                                                                                                    u.e. .,.,.,.L j j j Z J ,.,.>.5.E.[.[.[.{.L.%.@.@.@.H.~.`.'.'.'.'.'.[.[.j.e $ X o - w.t.X.X.X.X.o.o.X.g.v.b.b.n.e.9 X . # g i.M.M.M.M.M.M.M.B.B.B.B.B.C.C.C.C.C.C.N.x.x.i.i.i.i.i.i.i.i.i.i.i.i.i.i.i.u.i.x.+X,XuXuX,X,X,XuX,XuXuXuXuXuXiXdXhXhXhXhXhXhXhXhXhXhXhXhXhXhXhXhXhXhXhXhXhXhXhXhXhXhXhXhXhXhXhXhXhXhXcXAXAXAXAXAXAXAXAXBXBXBXvXvXjXN.r.r.q.q.q.q.q.q.q.q.q.q.r.r.p.p.r.i.q.g @ @ # @ @ @ ; * : p j n n n n n n M m ) :.+.+.@._ @.( _ ( I m m V I m m m m m Z A S Z j 6 O o o # # . . . o < x x h x o.c.c.c.z.b.(././././.b.b.b.b.s.L L R G R R R ( Y @.6.4.4.G.4.4.4.6.6.+.m m N V I E [  .E I m N m m n j j j j L o.e.e.w.k * X o 2                                                                                                                                                                                     ",
"                                                                                                                                                                                                        ! 0 6 6 = = > = > = 7 7 8 8 _ ~.[.[.|.L.%.` @.@.H.`.`.'.'.'.'.[.[.[.j.7 X . . O { w.X.X.X.X.X.X.,.g.b.b.b.b.e.q X . @ g i.M.M.N.M.M.M.M.B.B.B.B.C.C.C.C.C.C.C.B.B.M.N.N.N.N.N.N.N.N.N.N.N.N.N.N.N.x.x.N.k.k.k.k.k.k.k.x.k.x.k.k.k.x.Z.iXhXhXhXhXhXhXhXhXhXhXhXhXhXhXhXhXhXhXhXhXhXhXhXhXhXhXhXhXhXhXhXhXhXjXhXzXhXhXhXhXxXzXzXzXzXzXzXzXzXzXzXvXvXvXvXvXvXvXvXvXvXvXvXvXvXvXvXvXzXq.3 @ 4 @ @ @ ; @ % : > 6 5 = = = = & 8 V +.+.) +.( ( _ +._ Y Y E E E M n m m m m A S S Z 6 O o o X # # o . X O ; ; ; 9 K e.e.s.,.g././././././.b.b.b.b.c.c.c.d. .n i M C Y <.4.4.G.G.G.P.4.4.+.m m N V I E  . .I M i u u a D ! | } ! | e.e.r.w.k * X # 2                                                                                                                                                                                     ",
"                                                                                                                                                                                                        k $ $ X X . X . X X O X $ 5 W _.{.}.}.E.%.` ;.` H.`.[.'.`.'.`.[.[._.j.5 X . . O { w.o.X.X.e.X.X.X.g.b./. Xb.t.9 X O @ v i.M.B.M.B.B.C.C.C.C.C.C.C.C.C.C.C.C.C.C.C.C.C.C.B.B.B.B.B.B.B.M.M.N.N.N.N.N.N.x.u.u.u.u.u.u.u.u.u.i.u.u.u.u.V.iXhXhXhXhXhXhXhXhXhXhXhXhXhXhXhXhXhXhXhXhXhXhXhXhXhXhXhXhXhXhXhXhXhXjXhXhXhXhXhXhXhXhXhXhXjXjXjXjXxXAXHXHXHXHXDXDXDXDXDXDXDXDXDXDXDXGXGXGXHXp., @ @ @ @ @ 4 @ O * = = = % % % O X 5 m  . .E ) ) ) +.+.+.+.+.;.+.;.M n m m m m A A A Z 6 O . o o o o X . X . X X O : z o.o.t.X.c.b./.b.b.b.b.b.b.b.b.b.b./.v.X.s i 8 8 I <.6.4.G.G.G.G.4.4.+.m m N V I E  . .I s 8 0 0 u H ..e.X.o.o.e.w.r.r.x * O # ,                                                                                                                                                                                     ",
"                                                                                                                                                                                                        h X X . . . . . o . O O = = I _.{.}.{.E.2.` ` ` 6.[.'.[.`.[.[.[._./.h.5 . . . O { o.X.X.X.X.X.X.X.h.b. X Xb.t.9 O o @ g i.B.C.B.B.B.C.C.C.C.C.C.C.C.C.C.C.C.C.C.C.C.C.C.C.B.B.B.B.B.B.M.N.N.M.N.N.N.N.k.u.u.r.r.y.y.u.u.u.u.u.i.i.u.x.iXhXhXhXhXhXhXhXhXhXhXhXhXhXhXhXhXhXhXhXhXzXzXzXzXhXhXhXhXhXhXhXhXhXhXhXhXhXhXhXhXhXhXhXhXhXjXjXjXzXAXHXDXDXDXDXDXDXDXDXDXDXDXDXGXGXGXFXGXDXr., , @ @ # @ @ @ - @ * * % O X X o . 5 m | R R E E E +.+.+.+.;.;.;. .m A F F F A A / T Z 6 O o X # # o # . # . . . O ; c ....e.o.g.b.b.b.b.b.b.b.b.b.b.b.b.b.v.o.i i i i U 5.6.6.G.4.G.G.4.6.+.m N N V I E  . .R s u u 0 p l } o.o.o.t.y.w.t.y.x ; O # ,                                                                                                                                                                                     ",
"                                                                                                                                                                                                        Q = * * @ @ @ @ 4 ; ; ; q 6 L ).#X#X[._.:.;.^ ` j.W.[.[.~.~._._././.f.: . . . o q...o.,.X.e.X.X.,.h.n.b. XV.w.9 O . - g D.N.B.B.M.C.C.A.A.A.C.C.C.C.C.C.C.C.C.C.C.C.C.C.C.C.M.N.C.B.M.C.M.B.B.M.N.N.N.x.r.r.u.u.u.u.u.y.u.u.u.u.r.u.B.uXhXhXhXhXhXhXhXhXhXhXhXhXhXhXhXhXhXzXhXzXhXhXzXzXhXhXhXhXhXhXhXhXjXhXhXhXhXhXhXhXhXhXhXjXjXjXhXhXxXAXDXDXDXDXDXDXDXDXDXDXDXDXDXFXDXGXJXLXHXu.2 , 3 , , 3 3 , , , , , , , 4 @ @ @ 6 D ..| ! R R  .E E E  . . . . .A Z Z F n J I A T J 9 % o # # o # o . # # @ @ ; 1 x { ....X.k.V.b.b.b.b.b.b.b.b.b.b.b.b.c. .s u i i U 3.5.4.4.G.G.G.H.6.+.m N F I U E [ | L j 0 0 y t x { ....w.w.t.w.u.w.c < < ; 2                                                                                                                                                                                     ",
"                                                                                                                                                                                                                                    k.l.l././.a.R T J T ^ 2.6.2.6.2.:.a.a.a.! * . . . @ q.w.o.a.X.X.o.X.,.h.c.n.c.x.{ 9 O o @ r q.u.i.i.i.A.A.A.A.A.A.A.A.A.A.A.A.A.A.A.A.A.A.A.B.B.B.N.M.M.B.B.N.M.M.N.N.N.N.x.i.u.y.i.i.i.i.i.i.i.i.k.i.i.N.A.uXiXiXiXiXiXiXiXpXiXpXpXpXpXpXpXpXpXdXxXcXcXcXzXhXjXjXhXhXhXhXhXhXhXhXhXhXhXhXhXjXjXjXjXjXjXjXhXxXBXAXAXAXAXAXAXHXHXAXAXHXHXHXHXHXDXDXDXAXA.i.u.p.p.p.p.p.p.q.q.q.q.q.q.q.q.F.F.Q K z x l H H D D D H J J J F F Z s p p s Z A T J Z 6 O o # # o . # # # 2 q.q.} } r.c Q K ! k.k.n.n.n.b.V./././.b.b.b.b.v.s.R L F F R [ +.+.@.*.1.4.6.1.+.V N F N F F G F D Z d p d x Q ..o.o.e.{ Q Q ~ Q r.u.                                                                                                                                                                                          ",
"                                                                                                                                                                                                                                      { s i i 0 0 9 6 6 7 w 8 8 8 8 7 7 6 6 : X . . . O q.w.o.e.e.X.X.X.X.X.X.e.e.e.K ; O o o , , 1 2 r c C.uXuXuXuXuXuXuX,XuX,X,X,X,X,X,X,X+X,X+XC.B.N.N.B.B.B.B.B.B.M.N.N.N.N.N.x.x.x.x.x.x.N.x.N.N.N.N.x.x.x.k.k.x.x.x.x.x.x.x.x.x.x.x.x.x.x.x.x.,XcXDXDXDXAXxXhXhXhXhXhXhXhXhXjXhXhXhXjXjXjXhXjXjXhXjXjXjXjXjXhXzXzXzXzXxXxXxXxXxXzXxXxXxXcXxXcXcXcXBXBXBXBXBXvXIXvXIXIXvXvXvXvXvXvXvXvXvXvX,X} ; : : > : > > > 6 6 : : : > = & > & 0 Z S T T H 6 O . o o o o o # , i.vXvXvXaXN.< ; : y { y.a.a.f.c.b.b.b.b./.b.b.b.b.c.h.h.g.d.[ N N V V $.<.4.2.<.+.N N m F m n s i s D L } } { { { ..w.{ h : : < g                                                                                                                                                                                               ",
"                                                                                                                                                                                                                                      h : & > 6 * * * % % = % $ $ $ $ X . . . . . . . O q.w.e.e.X.X.e.e.X.e.X.o.w.w.z : o O . # - - - - g C.iXuXuXuXiXiXiXuXiXiXuXuXuXuXuXuXuXuX,XC.N.M.N.N.M.N.B.B.M.N.N.N.N.N.N.N.N.N.N.N.N.M.B.N.N.N.N.N.x.i.i.i.i.i.i.i.i.i.y.y.i.i.i.i.k.k.k.k.,XAXJXLXJXHXcXhXjXhXhXjXjXhXjXjXhXhXjXjXjXjXdXdXdXjXjXjXjXhXjXjXjXjXjXjXjXhXhXhXhXhXjXhXhXhXxXxXxXzXcXDXJXPXLXJXFXJXJXFXGXGXGXGXGXDXGXDXDXDXzX} . X . . X . O O O $ O O O O % % % X & j Z J J S 6 O . o o + @ o + , M.PXFXFXHXS.@ O O 1 z r.e.X.e.c.b. XV.b./.b.b.b.b.b.v.b.b.b. .n C C C Y <.4.5.5.;.I F F G m s i u s H ..e.o.w.w...r.t.w.h ; O X q                                                                                                                                                                                               ",
"                                                                                                                                                                                                                                      g , * * * ; ; ; @ @ O o . O X X . . . . . . . . % q.w.w.e.X.e.X.e.X.X.X.e.w...x ; . O # # # O O 4 v A.aXuXiXiXiXiXuXuXuXuXuXuXuXuXuXuXuXuXA.B.M.C.M.N.N.B.B.B.B.N.N.M.N.N.x.x.N.N.N.N.N.N.N.M.M.N.B.B.N.i.i.i.i.i.i.i.i.i.i.i.i.i.i.i.i.i.i.u.+XBXJXLXLXDXcXhXjXjXjXjXjXhXhXjXjXjXjXjXhXhXjXdXdXjXhXjXjXjXhXjXjXhXhXhXhXhXhXhXhXhXhXhXhXhXhXhXzXzXcXGXJXPXLXLXPXLXLXLXLXLXFXFXGXGXGXGXGXGXhX} o o . . O . . . X X X O O O o . O ; * j H J J Z 6 O o o # # . . # 3 S.PXLXPXHXA.@ o . ; Q r.e.e.e.g.V.V.b.b.b.b.b.b.b.b.n.b.v.b.,.m N N V Y >.5.5.5.;.I J J D n s a s d H ..e.o.o...w.r.r.{ g X O * g                                                                                                                                                                                               ",
"                                                                                                                                                                                                                                      c 2 b 2 2 1 1 1 , , , 4 4 , @ @ @ # # @ o . . . O q.w...e.e.e.e.e.X.e.e.w.r.w.x ; . # # @ @ @ @ 4 v C.iXiXuXuXuXuXuXuXuXuXuXuXuXuXuXuXuXuX,XA.M.M.N.N.N.N.N.M.N.N.N.N.N.N.N.N.N.M.B.M.B.B.N.M.M.M.M.M.N.i.i.i.i.i.i.i.i.i.i.i.i.i.i.i.i.i.i.i.+XBXLXPXJXHXxXjXjXjXjXdXdXjXjXjXdXdXjXjXdXdXjXdXdXdXjXjXjXjXjXjXjXjXhXhXhXhXhXhXhXhXhXhXhXhXzXhXzXxXcXDXJXLXLXLXLXLXLXJXFXFXFXGXGXFXFXFXDXDXzXq.. o o . o o @ @ @ * 4 ; - - @ ; 4 ; ; h H S J S 9 O o . # # o # # 3 N.FXGXGXHXA.# # o @ c r.e.w.e.k.b.b.n.n.n.b.b.b.b.b.b.b.b.b.,.n M N N Y 5.5.5.>.;.I F F D s p u u d K ..X.o.w.w.w.w.w.q.x * * < r                                                                                                                                                                                               ",
"                                                                                                                                                                                                                                                                            c X . . . O { w...o.o.o.e.t.t.o.} ! { ~ k , o # . o # @ @ 4 g i.C.A.C.C.C.C.B.B.B.B.B.B.B.B.B.B.B.C.B.C.C.M.B.C.B.N.B.B.B.N.N.M.N.N.N.x.x.N.N.N.N.M.B.B.B.B.B.M.N.x.i.i.i.i.i.i.i.i.i.i.i.i.i.i.i.i.i.x.A.hXvXAXAXvXdXaXaXaXpXpXpXiXiXpXpXpXaXiXpXhXjXhXhXjXdXjXjXhXjXhXhXhXhXhXhXhXhXhXhXhXhXhXhXhXhXhXzXzXvXHXDXGXDXDXDXDXDXDXDXDXDXHXHXHXAXAXAXAXhXx.x c c c c c c c c } F.F.F.F.c q.c c } h j j s p : O o . o + # # # 3 p.jXhXaXaXM.c v v x c ~ ~ Q } f.c.c.c.c.c.b.b.b.b.b.b.b./.v.s.R G R E U >.>.:.,. .I J F l D D D D P | X.X.e.w.{ Q Q ~ q.r.                                                                                                                                                                                                      ",
"                                                                                                                                                                                                                                                                              r . . . O { { ....e.e.e.e...l 9 % > ; ; X . o # # o @ @ # @ 2 1 3 , , , , , , ; ; < < ; ; ; < < < ~ N.uXuX,X,X,X,X,X,X,X+X+X+X+XA.N.N.N.N.N.N.M.B.M.B.M.B.B.C.B.B.B.B.B.B.B.B.B.B.C.C.C.C.C.C.C.B.B.B.N.N.x.i.i.k.i.i.i.i.y.y.y.y.y.f.y.y.f.y.n.dXHXDXHXBXhXjXjXjXjXhXhXjXjXjXhXhXhXhXhXhXhXhXhXhXhXzXzXzXvXvXvXvXcXcXxXxXvXzXzXzXzXxXzXhXhXhXjXjXzXvXHXHXAXHXHXHXHXHXHXHXHXHXHXHXHXHXHXDXHXw.> $ & = O X O # # + # # # # 4 b 2 2 g M.HXDXHXvXu.1 > = 6 j } } ] | g.n.b.n.b.b.b.b./.b.b.b.b./.v.3.m m m N F m m M j K ..t.t.X.X.X.e.e.} h : % * r                                                                                                                                                                                                         ",
"                                                                                                                                                                                                                                                                              2 . . . o } q.{ ..o.o.X.t.w.h ; O o O o . o o O O o o o o # # # # # # # # o o . . + + o # # . o @ v N.uXuXuXuX,XuX,X,X,X,X,X,X,X+XB.N.N.N.B.B.B.B.B.B.B.B.B.B.B.B.C.C.C.C.C.C.C.S.C.C.C.C.C.C.C.C.C.C.N.i.u.u.u.u.u.u.u.u.u.u.u.u.u.u.u.u.u.r.i.zXDXFXGXAXzXjXjXjXhXhXjXjXjXhXhXhXhXhXhXhXhXhXhXzXzXzXzXzXzXxXcXxXxXxXxXzXzXzXhXhXhXhXhXhXjXjXjXjXzXHXGXFXFXGXGXFXFXFXFXFXFXFXFXFXJXFXFXLXDXq., . o o o o + + # # # # # # # # # # , N.PXPXPXDXB.@ X X * h Q ~ Q ! f.n.v.v.b.b.b.b.b.b./././. Xb.s.n n j s l D D j Z L X.s.s.s.t.e.t.r.{ g * . . g                                                                                                                                                                                                         ",
"                                                                                                                                                                                                                                                                              g . . . X } q.{ ..o.X.X.t.w.h ; o o o O . # o . . o o o o # # . . # # # # . . . . + + o # # . o @ v N.uXuXuXuXuXuX,X+X+X,X,X+X+XA.B.N.N.N.N.B.B.B.B.B.B.B.B.B.C.C.C.C.C.A.C.C.C.S.C.C.C.C.C.C.C.C.C.C.N.i.i.i.i.i.u.u.u.u.u.u.u.u.p.u.r.u.i.u.k.hXDXFXGXAXzXjXjXjXjXjXjXhXhXhXhXhXhXzXzXhXhXzXhXhXzXzXxXxXzXcXcXxXxXxXxXzXhXhXhXhXhXhXhXhXhXjXjXjXzXHXGXFXGXGXGXFXGXGXGXFXFXFXFXFXFXJXLXGXDXr., # o o o # # # # # # # # # # # o # 1 i.LXPXPXDXC.* X . * h Q Q H ! h.n.b.n.b.b.b.n./.b.(././. Xb.,.n n s s l D D j j ! a.s.s.e.t.t.r.r.{ g * . # g                                                                                                                                                                                                         ",
"                                                                                                                                                                                                                                                                              g . . . X } { ..o.o.X.X.y.w.x ; O o o # # o o . # o O o o o # o # o . . . . . . . + + + # # . o # v N.uXuXuXuXuXuXuX,X,X,X,X,X+X+XB.N.x.N.N.N.N.B.B.B.B.B.B.B.B.B.C.C.C.Z.C.C.C.C.C.C.C.C.C.C.C.C.C.C.N.i.u.u.u.u.u.u.u.u.u.u.u.u.r.r.r.u.u.r.x.hXGXJXGXAXzXhXhXhXhXhXhXhXhXhXzXzXhXhXzXhXhXzXzXzXzXzXzXxXzXzXxXxXxXxXzXzXzXhXhXhXhXhXhXhXhXjXjXjXzXHXFXFXFXFXFXFXGXGXFXFXGXGXGXGXFXFXLXFXDXq.O . o o o o o o # # # # # # # . . . 1 D.PXPXLXDXA.@ o . @ h Q Q z ! s.n.n.n.n.n.n.n.b.b.b.(./.(.b.s.D D D Z Z D Z j s ! e.s.t.t.t.t.y.y.w.g @ . X g                                                                                                                                                                                                         ",
"                                                                                                                                                                                                                                                                              g . . . X { w...e.X.X.e.y.t.x ; @ # # # # # # # @ % ; * * @ . . . . . . . . . . . + + o o o . o o g p.B.N.N.N.N.N.N.x.N.N.N.N.N.B.B.B.B.C.C.B.C.A.A.A.A.A.A.A.A.A.A.A.+XA.A.C.C.C.C.C.C.C.C.C.C.C.C.C.N.x.i.i.i.i.i.i.i.i.i.i.i.i.i.i.i.i.i.u.x.iXvXvXvXjXpXiXiXpXiXpXpXiXpXpXaXaXjXjXhXxXcXcXcXxXxXzXzXxXzXzXxXxXzXzXzXzXhXhXhXhXhXhXhXhXhXjXjXjXhXAXAXHXHXHXDXFXGXGXFXFXGXGXFXFXHXAXHXHXAXx.c c x x x x x c c c c c c c c c x x c N.zXvXvXjXi.O # # * g x z k z { f.f.s.h.c.b.b.b.b.b././.(.b.d.R R R L L H D H K ..t.s.s.t...Q Q Q ~ } q.c q.                                                                                                                                                                                                          ",
"                                                                                                                                                                                                                                                                              q . . . O { w.o.e.e.e.e.y.t.x < @ o # # # # # # 3 k Q z x g * # o o o . . . . o o o o o o o o o o . , 1 , , , ; , , , , , , , < g N.+X+X+X,X,XuXuXuXuXuXiXiXiXiXiXiXiXiXuXA.C.C.C.C.C.C.C.C.C.C.C.C.C.B.M.N.N.N.N.N.N.N.N.N.N.N.N.N.N.N.N.B.N.k.N.D.x.x.i.i.k.k.k.k.k.k.k.k.N.C.A.A.+XiXBXDXFXJXDXcXxXxXxXxXxXxXzXzXhXhXhXhXhXhXhXhXhXhXhXjXjXjXjXjXhXhXzXxXxXAXGXFXFXFXFXFXFXGXFXxXzXzXzXxXvXAXvXvXvXvXvXvXvXvXvXAXBXvXvXvXvXvXvXvXA.v g g g , o . . . # O ; O % 9 h l D L s.n.n.b.b././.(.(.(.b.c.c.c.c.h.s.e.e.t.s.f.f.f.o.l 9 : : x                                                                                                                                                                                                                   ",
"                                                                                                                                                                                                                                                                              r . . . O { w.X.e.e.e.e.y.t.x < @ # # # # # # @ 3 z { ~ Q g @ . . o o . . o o o o o o o o o o o o # o . . . . . . . . o . . . X r k.,XuXuXuXuXiXuXiXpXpXaXaXaXaXaXaXaXaXiX+XA.C.C.C.C.C.C.C.B.B.B.B.C.C.C.C.C.C.B.B.B.B.B.B.M.M.N.B.B.B.N.C.B.x.i.r.r.r.p.u.u.u.y.u.u.y.u.i.k.B.A.A.A.iXHXLXLXLXFXBXcXzXzXzXzXzXhXhXhXhXhXhXhXhXhXhXhXjXhXhXjXjXjXjXjXjXjXhXjXcXJXFXFXFXFXFXFXGXGXcXzXzXzXhXHXJXDXGXGXGXFXGXFXFXJXLXJXJXJXJXFXGXGXHXuX. . # # . # o o . . . . . . : y p d l e.b. Xb././././.(.(.(.b.b.b.b.c.s.s.f.f.h.t.y.f.w.h * O . g                                                                                                                                                                                                                   ",
"                                                                                                                                                                                                                                                                              g . . X * w.e.X.a.s.e.e.f.t.x : O @ @ @ @ @ # @ 2 z ~ ~ ~ g @ o . o . . . . . . . . . o o o o o o . . . . . . . . . . . . . . . g k.uXuXuXuXuXiXuXiXiXpXpXpXpXpXpXpXpXpXuX+XZ.C.C.C.C.C.C.C.C.B.B.B.B.B.B.B.M.N.N.N.N.N.N.N.N.N.N.N.B.C.N.M.N.N.k.u.u.u.i.u.u.u.u.u.u.u.i.i.k.N.A.A.A.uXHXLXPXPXGXBXxXzXzXhXhXhXhXhXhXhXhXhXhXhXjXjXhXhXhXhXjXjXjXhXhXjXhXzXzXBXJXFXFXFXFXFXFXFXFXcXhXhXxXxXHXFXFXFXGXJXJXJXJXJXJXLXLXLXLXJXJXJXGXHX,X# o # o . . . o . . . . . . : y p t j X.b.V.b./././././.b./.v.v.b.b.c.s.s.f.y.y.t.t.f.r.x ; O o g                                                                                                                                                                                                                   ",
"                                                                                                                                                                                                                                                                              g . . X * w.e.e.a.s.s.t.s.t.x : O O O # @ @ o @ 2 c q.~ c g o o . . . . . . . . . o o o o o o . o . . . . . . . . . . . . . . . g N.uXuXiXiXuXpXiXpXaXaXaXaXaXaXpXpXpXpXuX+XC.C.C.C.C.C.C.B.C.C.B.C.B.B.B.B.M.N.M.B.M.M.B.B.B.B.B.B.M.B.N.C.N.N.i.p.p.p.p.u.u.u.u.u.u.i.i.i.k.B.A.C.A.uXHXLXPXPXDXBXxXzXzXhXhXhXzXhXhXhXhXhXhXjXjXjXjXhXhXhXjXjXjXhXhXjXhXhXhXBXKXFXFXFXFXFXFXFXFXcXxXzXhXzXHXFXJXJXJXJXJXJXJXJXJXLXJXJXJXJXJXGXGXHXA.o . o o o o + . . o . . . o 1 t t t h o.V.V./. X X/. Xb.b.b.v.v.v.n.g.s.e.s.y.y.y.y.y.w.x ; o o g                                                                                                                                                                                                                   ",
"                                                                                                                                                                                                                                                                              g . * O ; y.k.s.h.s.h.h.g.f.Q 9 : : < ; o o # 4 , v x v g 1 o . . . . . . o o o o + o . . . o o o . . . . . . . . . . . . . . + , q.i.N.N.N.N.B.B.C.N.B.C.C.C.A.iXiXpXpXuX,XA.A.A.C.C.C.C.C.C.C.C.C.C.C.B.C.B.M.B.B.N.N.B.B.B.B.B.B.B.B.M.N.N.N.x.i.i.i.i.i.i.i.i.i.i.i.i.i.x.B.A.C.A.uXhXvXAXvXvXdXaXaXpXpXpXpXpXpXpXpXdXdXjXpXhXhXhXhXxXhXjXhXhXhXhXhXhXhXhXBXHXHXHXHXFXFXFXGXGXBXBXcXcXcXAXAXAXHXHXHXHXHXHXDXHXDXDXHXHXDXJXFXGXHXpXr.~ ~ } c c c c c c c c c c q.u.u.y.y.f.k.k.c.g.c.n.n.c.c.c.v.n.n.n.g.f.t.t.y.y.} w.w.} r.p.r.                                                                                                                                                                                                                      ",
"                                                                                                                                                                                                                                                                              g X @ O 9 x.@XV. X/. X XZ.b.t.z x x x r ; O o @ * ; ; , ; @ . . o . . . . o o o o o o . . . o o o . . . . . . . . . . . . . . . # , 2 r r r r g r g g v g g h r.A.pXpXpXpXuXuXuXuX,X,X,X,X,X,X,X,X,X,X,X,X,X+XA.Z.B.N.N.B.B.M.M.B.B.B.B.B.M.N.N.N.N.N.N.N.N.N.N.N.N.N.B.M.N.B.A.A.A.A.A.A.A.C.C.B.M.N.x.x.x.x.x.x.k.x.+X,X+X,X,XcXHXDXDXHXBXhXzXhXhXhXhXkXxXhXzXxXzXcXcXDXFXFXFXFXDXHXDXDXHXAXcXxXcXxXxXxXcXcXcXcXcXcXcXcXAXDXDXDXDXHXvXvXvXvXvXvXvXvXvXvXzXvXvXvXvXvXcXcXjXx.z p d d H o.X.e.e.s.c.c.n.c.g.f.e.t.w.Q r q r x                                                                                                                                                                                                                             ",
"                                                                                                                                                                                                                                                                              g o # @ q V.+XoXXXoXXXoXXX Xf.Q Q Q c g ; o o O @ o o o o o . . o . . . . o o o o . . . . . o o . . . . . . . . . . . . . . . . . . X o o # @ @ O @ @ @ @ * < c C.pXiXiXiXiXiXiXiXiXiXiXiXiXuXiXiXuXuXuX,XuXuX,X+XB.B.M.B.B.B.B.B.B.M.N.N.N.N.N.N.M.M.M.B.M.B.B.B.C.C.C.C.C.A.A.A.C.C.B.N.i.i.i.i.i.i.i.i.u.u.y.y.u.u.B.A.Z.Z.A.BXKXLXLXKXBXhXhXhXhXhXxXxXhXhXhXhXjXjXzXDXJXFXFXFXDXDXJXKXKXBXhXhXzXzXzXhXhXhXzXzXhXhXhXhXBXDXDXDXHXDXDXJXGXGXJXGXGXGXGXGXGXGXGXGXGXGXFXLXHXZ.y : 9 9 p } } } ..X.g.c.c.n.k.y.e.t.w.x : * @ g                                                                                                                                                                                                                             ",
"                                                                                                                                                                                                                                                                              g # # @ 1 Z.+X@XoXoXoXoXoXZ.y.K z z z r ; O o o o - O o o o . o o . . . . o o o o . . . . . o o . . . . . . . . . . . . . . . . . . . . . o X o o 4 @ # @ , 1 x C.iXiXiXiXiXiXiXiXuXuXuXuXuXuXiXuXuXuXuX,X,XuX,XA.B.M.N.M.B.B.B.B.B.M.N.M.N.N.N.B.M.M.B.B.B.B.B.C.C.C.C.C.C.B.B.B.C.C.C.N.i.i.i.i.i.i.i.i.i.u.u.u.u.r.N.Z.Z.Z.Z.BXFXLXLXJXAXhXhXhXhXhXxXxXhXzXzXhXhXhXzXDXJXJXFXFXKXDXJXDXKXcXhXzXhXzXzXhXzXzXhXhXhXhXhXhXBXDXDXHXDXFXGXGXFXGXFXGXGXGXGXGXGXGXGXGXFXJXDXFXHXZ.y : : : t } } } } w.k.c.x.x.k.y.r.e.r.h ; * @ g                                                                                                                                                                                                                             ",
"                                                                                                                                                                                                                                                                              c 4 @ ; q C.+X+XoXoXoX@X+XZ.y.Q z x x r ; o o o o O O o o o . o # . . . o o o o o . . . . . . . . . . . . . . . . . . . . . . . . # o # # # # # @ # # # # @ ; v C.iXiXiXiXiXiXiXiXuXuXuXuXuXuXuXuXuXuXuXuX,XuX,XA.B.N.N.N.N.N.M.B.B.N.N.N.N.N.N.N.N.B.B.B.B.C.C.C.C.C.B.B.C.C.C.C.A.C.M.i.i.i.i.i.i.i.i.i.u.u.r.r.w.w.N.C.C.B.C.cXFXJXLXFXAXzXzXzXxXzXzXxXxXxXzXhXjXjXhXHXJXJXFXJXFXFXJXDXFXcXhXhXhXzXzXhXhXhXjXhXhXhXhXhXcXHXHXHXDXDXKXFXDXDXDXFXDXDXFXFXDXDXDXDXFXLXFXJXHXZ.r ; ; 1 t Q } ~ ~ w.x.x.x.x.k.y.t.y.r.v ; o # v                                                                                                                                                                                                                             ",
"                                                                                                                                                                                                                                                                                    i.i.i.k.k.k.k.f.y.y.t.Q h g g g 1 O . X # @ : : < < * X o o o . . o . . . . . . . . . . . . . . . . . . . . . . . . . . . . o o # # # # # # # @ - # @ @ g u.x.x.x.x.x.x.N.N.N.N.N.N.N.N.N.x.x.k.N.+X,X,X,X+XC.C.C.C.C.C.C.C.C.C.C.B.C.C.B.M.N.N.M.B.B.B.B.B.C.C.B.B.B.B.C.C.B.C.B.N.k.k.x.x.k.k.k.i.i.i.i.i.u.u.x.C.N.N.B.aXzXzXzXzXdXpXpXpXaXpXpXpXdXdXhXBXxXxXcXDXJXJXFXFXFXDXFXDXFXAXcXcXBXBXcXhXzXkXhXhXhXhXhXhXcXAXAXAXAXAXHXAXHXAXAXHXAXAXAXAXAXAXAXAXDXDXDXFXDXiXi.u.u.i.q.x c k k Q w.r.r.w.w.{ } { } q.r.q.q.                                                                                                                                                                                                                              ",
"                                                                                                                                                                                                                                                                                        v g p t y t r r r 1 ; ; ; ; o . . o @ , t p h g 9 * X . o o + + . . . o . . . o o o . . . . . . . . . . . . . . . . . . . o # # # @ @ @ # # # # # # @ 2 g g g r g g g g g g g g g g g g g r } B.,XuXuXuX,X+X+X,X,X,X,X,X,X,X,X,X,X,X+XA.B.B.B.B.C.C.B.B.B.B.B.B.B.B.B.B.B.C.C.C.M.N.N.N.N.N.N.N.x.x.x.x.x.k.x.N.N.N.x.N.B.B.B.C.M.x.M.M.N.B.B.B.C.Z.aXDXAXAXAXFXFXFXFXDXFXFXJXFXFXDXDXDXDXHXBXhXkXkXhXkXhXhXhXhXzXxXxXxXxXhXxXzXxXxXxXxXcXcXcXxXxXxXxXcXHXKXJXJXGXHXvXvXvXvXA.r < ; : 1 q q q q q q q q v                                                                                                                                                                                                                                       ",
"                                                                                                                                                                                                                                                                                        ; * : % O % O X O X . X . o . . o o # 4 p k k k q * X X o o + + . . . . o o o o o o . . . . . . . . . . . . . o . . . # # # # o # @ @ # # # # # # @ # # # o X X X O O O X X X X X X X X . . h M.uXuXuXuXuXuXuXuXiXuXuXuXuXuXuXuXuXuX,XA.B.B.B.B.B.B.B.B.B.C.C.C.B.B.B.B.C.C.C.C.C.C.C.B.B.B.B.M.N.N.N.N.N.N.N.B.N.B.N.i.u.u.u.i.u.u.y.u.i.k.i.k.x.B.aXJXFXFXDXFXDXFXJXFXGXFXFXFXDXKXJXKXLXKXBXhXkXhXjXhXhXhXhXhXhXhXjXhXhXjXxXjXhXhXhXhXhXhXhXhXhXhXhXzXAXKXPXJXJXPXPXJXPXLXiX1 X X O X X X X X X O O O g                                                                                                                                                                                                                                       ",
"                                                                                                                                                                                                                                                                                        , # , # o o o o . . # . . . . o . . O : w j j j w * X X o # + o o o o o X X X X o . . . . . . . . . . . . . . o o o o o o o o o # # # # o O o o # . o # + + o o o o o o + + o o o . . . . . v B.uXuXuXuXuXuXuXuXuXuXuXuXuXuX,XuXuXuXuXA.B.B.B.B.C.C.B.B.B.B.C.C.B.B.C.C.C.C.C.C.C.C.B.B.B.B.B.B.M.N.N.N.M.N.N.N.N.B.N.k.u.u.u.u.u.u.i.i.i.i.i.x.N.N.aXFXFXGXFXFXFXGXGXFXGXDXGXGXFXGXDXJXKXLXBXjXhXhXjXhXjXhXhXhXhXhXhXhXhXhXhXhXhXhXhXhXzXzXzXzXhXhXhXxXAXJXLXJXLXPXPXPXPXLXaX, # o . + + + . . . . * O g                                                                                                                                                                                                                                       ",
"                                                                                                                                                                                                                                                                                        2 o @ # X o o o o . . . . . . X X X O : w Z j j t = X o o + + o o o . # . . . . . . . . . . . . . . . . . . . . . o X X X X X X o o # o o o o o o # o # o o o o o o o o o o . . . o . . . . v B.uXuXuXuXuXuXiXiXiXuXuXiXiXuXuXuXuXuX,X+XB.B.B.B.C.C.B.B.B.B.B.C.C.C.C.C.C.B.B.B.B.B.B.B.B.B.B.B.B.B.M.B.M.N.N.N.M.B.N.x.u.u.u.u.u.u.u.i.u.i.i.x.N.N.aXJXJXFXFXJXJXFXFXJXLXFXLXFXJXJXFXJXJXJXBXhXhXjXjXjXjXhXhXhXhXhXhXhXhXhXhXhXhXhXhXzXzXzXzXzXhXhXhXxXAXLXPXPXPXPXPXPXPXGXuX, # . o . . . . . . . X X g                                                                                                                                                                                                                                       ",
"                                                                                                                                                                                                                                                                                          q.q.p.q.q.q.q.q.g @ # o o o * * = : 9 a Z j j t * O o # # o # o o @ < < < < < ; ; ; * ; ; , , , , , , , , 1 1 1 1 1 1 1 1 1 1 1 1 1 1 , , @ o # o . . o o o o o o o o + + . . . o o . . . g p.N.N.N.N.M.M.N.N.N.N.N.N.x.N.A.uXuXuXuX+XA.A.A.A.A.A.A.A.A.A.A.A.A.A.A.A.A.A.C.B.B.B.B.B.M.M.B.B.M.B.M.B.M.N.B.B.N.B.M.N.i.i.i.i.i.i.i.i.i.k.x.x.N.N.uXBXAXAXBXvXcXvXcXcXvXvXvXvXvXAXAXAXAXAXBXcXcXcXcXzXjXjXhXhXhXhXhXhXhXhXhXhXhXhXhXzXzXzXxXzXzXhXxXxXAXDXFXDXDXFXLXLXLXGXhXi.q.q.q.v @ o . # g q.q.r.                                                                                                                                                                                                                                        ",
"                                                                                                                                                                                                                                                                                                            b . o o ; 9 q q q g a Z j j t * O o # # o # o o , g c c c z x x k h h h k k k k x x x z z z z z z z z z z z x x z z v g , o . . . . . . . o . . . . + + o o o o o o . . ; g g g g g g g g g g g g g g c N.,XuXuXuX,X,X,X,X,X,X,X,X+X,X,X,X,XuXuX,X,X,X,XA.C.B.M.B.B.N.N.N.M.M.M.M.M.N.N.B.B.M.B.B.N.N.N.N.N.N.N.N.N.N.N.N.N.C.B.A.uX,X,XA.C.B.B.B.B.N.B.B.B.C.uXpXaXdXdXBXDXDXDXHXBXhXhXhXhXhXhXhXhXhXhXhXhXhXhXhXxXzXzXhXzXzXzXzXxXcXBXBXcXcXHXFXLXLXLXDXvXvXvXvXS.@ . . ,                                                                                                                                                                                                                                                 ",
"                                                                                                                                                                                                                                                                                                            g . . O < t k k k k a Z j j t : O @ # # X # o o 1 c { } } ~ ~ ~ ~ ~ Q Q Q Q Q Q ~ ~ ~ ~ ~ } { { { { { { { } } ~ } ~ } v < . . . . o o o . . . . . . . . o o # o o o o . . # # # o o o o o o o o o . . r k.+X,XuXuXuXiXiXiXiXiXiXiXiXuXuXuXuXuXuXuXuXiXuX,XA.B.B.B.N.M.M.M.M.M.M.M.M.N.N.M.B.N.B.C.B.C.C.C.C.C.C.C.C.C.C.C.C.A.C.B.C.C.C.N.i.u.u.u.u.u.u.u.u.u.A.,XuXuXuXcXJXLXLXDXBXhXhXhXhXhXhXhXhXzXhXhXhXzXxXxXxXzXzXzXzXzXxXxXxXzXxXzXzXxXAXFXJXJXJXFXGXGXGXHXuX@ # # 2                                                                                                                                                                                                                                                 ",
"                                                                                                                                                                                                                                                                                                            g O X % : t j j j j a Z j j t * O O # # # # o o 1 c { } ~ ~ ~ ~ Q Q ~ ~ ~ ! Q ! ! ! ~ ! { { { ......{ { { { { ! ! ! c v , . . . . . . o . . . . . . . . o o o o o o o o . . o o . . o o o o . . . . . 2 k.uXuXuXuXuXuXuXuXuXuXuXuXuXiXiXiXiXuXuXuXuXiXuX,XA.B.N.N.N.N.N.M.M.N.N.M.M.N.N.M.B.N.B.C.B.B.C.C.C.C.C.C.C.C.C.C.C.C.C.B.B.B.B.x.u.r.r.u.r.r.r.r.r.r.C.,XuXuXuXBXPXPXPXJXBXhXhXzXzXhXhXhXhXxXxXxXxXxXxXxXzXzXzXzXzXzXxXxXxXzXxXhXzXxXAXJXLXLXJXLXJXJXFXHX,X@ . . ,                                                                                                                                                                                                                                                 ",
"                                                                                                                                                                                                                                                                                                            g X % % 6 p j d s s j Z j j t = O O # # # @ O O 1 x } } ~ ~ ~ ~ ~ ~ ! ! ! ! ! ! ! ! ! ! { ..........{ { { { ! ! ! Q c h < X . . . . . . . . X X X X # o # # o o + + + + o o o o . . . . . . . . . . . 2 i.uXUXuXuXuXiXiXiXiXiXiXiXuXuXuXuXuXuXuXuXuXuXuX,XZ.B.M.M.M.N.N.M.M.M.M.M.M.B.N.N.M.N.M.B.B.B.B.B.B.B.B.B.B.C.C.C.B.B.B.B.B.N.M.x.u.r.p.u.p.u.r.r.u.r.A.,XuXuXuXvXJXJXLXFXBXhXhXzXhXhXhXzXzXhXzXxXxXxXxXxXxXzXxXxXzXzXxXzXzXxXxXzXzXxXAXFXJXFXDXFXFXFXFXHXuX1 @ ; r                                                                                                                                                                                                                                                 ",
"                                                                                                                                                                                                                                                                                                            t ; : : 9 p j j s s j Z j j 0 = O O # @ @ , ; * 1 k x x x z c Q Q ~ ! ! ! ! ! ! ! ! ! ! ................{ ! ! ! Q Q c x 1 @ @ * @ * ; ; ; ; ; : < < ; 4 @ # o o + + + + . . o o . . . . . . . . . . . , p.M.N.S.S.S.A.A.A.A.S.S.S.S.S.A.S.B.C.A.+XuXuXuX,XZ.B.B.B.B.B.B.C.C.C.C.C.C.B.M.M.M.N.M.B.B.B.C.C.C.C.C.C.C.C.C.C.C.C.C.C.N.M.B.N.i.u.i.i.u.u.r.r.u.r.C.+X+X,X+XjXvXcXBXcXjXpXpXpXpXpXpXpXpXdXhXxXcXcXcXcXBXBXBXBXBXcXBXBXcXcXcXcXcXcXBXHXHXAXAXDXDXDXJXDXdXu.q.q.r.x.                                                                                                                                                                                                                                              ",
"                                                                                                                                                                                                                                                                                                    v g h r q t t u p s j Z s a a Z j j 0 = O X X @ g v x x h < ; < ; 9 z ~ Q ~ ~ ~ ! ! ! ! ! ! ! { ..{ { { { ! ! ! ! ! Q Q Q Q x z h h h h h x h x v x z z x z x , o @ # o + + + + . + # o o . . . . . . . . . . + 2 2 g g g g g v v v v g g g g g g g g c N.uXuXuX,X+X+X+X+X+X+X+XA.+X,X+X+X+X,X+XN.N.N.B.B.C.C.C.C.C.C.C.C.C.C.C.C.C.C.B.B.M.M.N.N.N.N.N.N.N.x.x.k.x.N.N.B.B.C.C.x.x.x.x.N.x.x.x.x.x.x.x.x.x.V.,XBXcXcXAXAXDXDXDXDXDXDXDXDXDXDXDXDXHXHXBXxXxXhXxXAXDXKXDXDXDXHXAXAXvXA.v g v q.                                                                                                                                                                                                                                      ",
"                                                                                                                                                                                                                                                                                                  g . . O 1 h h p p s s s Z n n a Z j j w % X + @ < z c Q Q h * . X . * k ~ Q ~ ~ ~ ! ! ! ! ! ! ! ! ........{ ! } ! ! ! ~ Q Q Q Q z z z z z z z c Q Q ~ } ~ ~ } c q @ @ o # @ 4 o # + . . o o o . . . . . . . . # o # o # # 4 4 4 4 4 4 4 4 @ @ @ @ # # @ g i.,XuXuXuX,X+X+X+X,XuXuX,X,X,XuXuXuX,X,XB.B.M.B.B.B.C.C.C.C.C.C.C.C.C.C.C.B.B.B.M.N.B.B.N.N.B.N.N.N.N.N.N.N.N.N.M.B.C.B.i.u.u.u.u.u.i.y.i.i.f.k.k.k.k.,XAXBXBXBXHXJXJXJXJXJXJXFXFXFXFXJXJXFXDXBXhXhXjXhXBXDXKXKXFXFXDXGXPXDXA.1 @ , v                                                                                                                                                                                                                                       ",
"                                                                                                                                                                                                                                                                                                  g # # . * h p j j s a s n n n j Z j j q * X + . * v ~ ~ } h % . . . * k ~ ~ ~ ~ ~ ~ ~ ~ ~ } { ! ! ......} ! ! ! ! ! Q Q K K z z H H z K Q Q Q Q Q ~ ~ } { { { z 1 O * @ # # o # @ # # o # # o . o . . . . . . o . + o # # @ @ # @ @ @ # # # # o o . . . 2 i.uXuXuX,X,X,X,X,XuX+X+X+X,X,XuXuXuXuX,XB.B.B.C.C.C.C.C.C.C.C.C.C.C.C.C.B.B.B.B.B.B.N.N.N.M.B.B.B.N.N.N.N.N.N.N.N.N.N.N.i.u.u.u.i.i.u.y.i.i.k.k.k.k.x.,XcXcXBXAXDXLXJXJXFXFXFXFXFXFXFXFXFXFXDXBXzXhXhXxXBXDXKXDXDXDXJXFXGXHXA.< * , g                                                                                                                                                                                                                                       ",
"                                                                                                                                                                                                                                                                                                  g . . O : h k s j a a a a n n j j j k 0 $ X X . * z c Q Q h X . . . * h Q Q Q ~ ~ ! ~ ~ ~ } { ..........| } } L ! L K Q K K K H H H z H K Q Q Q Q ~ ~ { { { ..z 9 O X X o # @ + + + + . # . . # @ o . # # o o # # # # @ # @ # - @ @ @ @ @ @ @ o # @ @ . q i.uXuXuX,X,X,X,X,X,XuXuXuXiXuXuXuXuXuX,XB.M.M.C.B.B.C.C.C.C.C.C.C.C.C.B.B.B.B.B.B.B.N.N.N.N.N.N.N.N.N.N.N.N.N.N.N.N.B.N.i.u.u.r.u.u.u.y.i.i.i.k.k.k.i.+XAXAXBXBXHXJXJXJXFXFXFXFXGXGXJXJXFXDXHXBXxXhXjXhXBXDXKXJXJXJXKXJXLXDX+X< , , v                                                                                                                                                                                                                                       ",
"                                                                                                                                                                                                                                                                                                  v # X O : w k p s p a a n n n j j j j 0 $ X . . * x c Q z h 9 O O % 9 k Q ! ! ! ! ! ! ! ! ! { ! ! | ..X.o.| | | | ] ] } Q Q ~ ! ! L K K ! Q H Q Q ! ! ! ! { ..z t : < < * # + # + . # o # . 2 r v v v c c c c c v , # @ @ # + # # # # # o o X o @ @ * * g u.C.A.A.A.C.C.C.A.A.A.A.A.A.C.uXuXuXuXuXC.C.C.A.C.C.C.C.C.A.A.C.C.C.A.B.N.N.B.N.N.B.B.N.M.N.N.N.N.N.N.N.N.N.N.M.N.N.N.N.i.u.u.r.p.r.y.u.i.i.i.i.i.k.x.+XzXxXcXxXAXHXHXHXHXHXHXHXHXHXHXHXDXDXAXBXxXhXhXxXBXHXDXDXKXKXJXJXLXDXuXc x v q.uX                                                                                                                                                                                                                                    ",
"                                                                                                                                                                                                                                                                                        2 , @ 2 3 o # . X : w j p s s a n n n n j j p k 0 $ X . . O h Q Q Q ! H } ~ ~ ~ ~ ! ! ! ! ! ! ! ! ! { { | ..s.g.c.g.g.h.h.h.h.s.s.y.t.y.s.s.s.s.s.f.e...K Q ! ! ! ! ! ! { ! Q { { h , # @ @ @ 4 # # ; q.                      3 # # @ , # # # # o o o X , g c ~ ~ h q * o o o o o o o o . @ * * r B.uXuXuXiX+X,X,X,XuXuXuXuXuXuXuXuXuXuX,XA.B.N.B.B.N.N.N.N.M.N.N.N.N.N.N.N.N.N.M.M.N.N.M.C.N.N.M.B.B.B.B.B.B.B.B.C.C.C.Z.B.A.C.Z.Z.A.Z.Z.Z.Z.C.C.C.A.A.uXuXuXuXpXxXHXKXDXDXDXKXKXKXJXKXJXFXFXJXJXDXJXJXHXuXr.c c                                                                                                                                                                                                                               ",
"                                                                                                                                                                                                                                                                                        # # o o # . o . X 9 h k p s a a Z Z Z j j j p k 0 $ X . X * x ~ Q Q Q H K Q Q ~ ! ! ! ^ ! ! ^ ..{ { { ..L | X.h.c.g.d.d.d.d.d.s.s.s.s.t.s.s.s.s.s.f.e.} ! ! ! ! ! ! ........! { { g ; # o @ # @ o # 4 i.                      , @ 4 # # @ @ # o o o o O < h z ~ ~ k : . . . . . . . . . . X X . , M.uXuXuXpXuXiXiXiXiXpXiXiXiXiXiXiXiXiXuXA.B.M.B.B.N.N.N.N.N.N.N.N.N.N.B.N.M.M.B.B.M.N.N.B.N.N.M.N.B.N.B.B.B.B.C.C.C.C.C.Z.A.A.Z.A.Z.Z.C.C.C.C.C.C.C.C.+X,XuXuXpXxXHXDXDXDXDXDXDXDXKXKXJXJXJXJXPXJXLXPXDXA.g , @ g                                                                                                                                                                                                                             ",
"                                                                                                                                                                                                                                                                                        , o o o # . # @ X : p k s s a a a j j j j j p k 9 $ X . . * z ~ Q Q ! H Q Q ! { ! ! ..! ^ ^ ............| | X.h.c.g.d.d.d.d.d.h.s.s.s.s.s.s.s.s.h.h.e...! ! ! ! ! ! ! ! ! ^ ! q.{ h * o o @ . # @ @ @ i.                      , 4 4 + 4 # # o o o o X O * x c Q Q h : X . . . . . . . . . . . X 2 M.uXuXuXpXiXpXiXiXiXiXpXpXpXpXpXiXiXiXuXA.M.N.N.N.N.N.N.N.N.N.N.N.N.N.B.N.M.N.B.B.B.B.N.B.N.N.B.M.B.B.B.B.B.B.C.C.C.C.C.C.C.A.C.A.C.C.C.C.C.B.B.B.B.B.+XuXuX,XuXxXDXDXDXDXDXKXDXKXJXJXKXJXLXJXPXPXLXPXGXA.2 o @ v                                                                                                                                                                                                                             ",
"                                                                                                                                                                                                                                                                                        o . O X # . o O O 6 u j p a a n n n a s a s u u 9 O . . . o v c Q Q Q Q L L ! ! ! } | | | | | | | | .... . . .d.z.z.d.d.d.d.d.d.3.3.3.3.s.d.d.d.d.d.X.| L L L ! ! ! { ! ! ! ! ~ ~ k * X + + # # @ 4 # i.                      , , @ # @ @ o # # + + # o * k c Q Q t ; . . . . . . . . . . X X O 2 S.iXuXuXuXuXiXiXiXiXuXiXiXiXiXiXiXiXiXuXA.N.N.N.N.N.N.N.N.x.N.N.N.N.N.B.N.M.B.M.B.B.M.B.B.B.B.B.B.B.B.B.B.B.B.C.C.C.A.C.C.A.A.A.A.C.C.C.C.B.B.B.B.B.C.A.,XuX,XiXvXHXDXDXGXGXGXGXGXGXFXJXFXJXLXJXLXPXJXHXC.q @ @ g uX                                                                                                                                                                                                                          ",
"                                                                                                                                                                                                                                                                                        2 X O % 4 o o X O 6 p j a a a n n n a Z a n s p q O . . . O v c Q Q Q ! ! ! ! ! } { | | | |  .o.o.o.o.o. . .,.d.d.d.d.d.d.d.d.d.d.3.d.3.d.d.d.d.d.d.3.X.| | | | ! ! ! ! ! ! ! ~ ~ k * X o o # @ # # # i.                      q.c c c , @ o # # o + o . * h z Q x t < O O O O O o O @ * ; * * ; q k.A.uX,XuXuXuXuXuXuXuXA.+X+XA.A.A.A.A.C.A.B.N.N.N.N.N.N.N.N.N.M.B.B.B.C.B.C.C.C.B.M.N.M.M.M.N.N.N.N.B.B.B.B.B.C.C.C.C.C.C.A.A.A.A.C.C.C.B.B.B.B.B.B.B.A.,X,X+XuXdXcXBXAXAXHXHXHXHXHXHXDXHXDXDXDXDXGXDXAX,X} g g q.,X                                                                                                                                                                                                                          ",
"                                                                                                                                                                                                                                                                                g g v g r g x h 1 # o X O 6 p j j j a a j Z Z Z F T J H p = . . . @ x c Q Q ! ! ! ! ! } } ......X.s.g.g.h.d.g.h.d.s.s.d.d.d.d.d.d.d.d.d.d.d.d.d.d.d.d.d.d.g.d.s.d.s.s.e...! ! ! ! ! ! ~ ~ k * # # + # @ + @ , i.                              p.@ o # + . . . . O g z Q Q z x h k x k x x x x c z c ~ { c x r 1 2 2 2 2 2 2 2 2 q 2 2 2 2 3 < , c x.A.+X+X+X+X+X+X+X+X,X,X,XuXuXuX,XuXuX,XC.B.B.B.M.M.M.M.M.B.B.B.B.C.C.C.C.C.C.C.C.C.C.C.C.C.C.C.C.B.B.B.B.B.B.B.C.C.N.N.B.C.C.M.C.C.C.A.A.A.,XiXpXiXiXpXiXiXiXaXhXBXHXBXhXN.g , 2 q.                                                                                                                                                                                                                  ",
"                                                                                                                                                                                                                                                                              g ; O * * k k k h 2 @ o X O 9 p j j j a a Z a Z Z T ^ L ! k % . . . @ x Q Q ! ! ! ! ! ! ! ........X.d.z.c.d.z.c.z.z.d.g.d.d.d.d.d.d.d.d.d.d.d.d.d.d.d.d.d.d.d.d.g.d.g.h.s.| ! ! Q ! Q Q ~ ~ k * X # # + + o # @                                 q.# . o + . . . . O g z z Q z c c z z z z c c Q Q ~ ~ { ~ Q q O * @ 4 @ @ @ 4 , , @ @ # # o . . . g k.+XuXuX+X+X+X,X,X,XuXuXuXuXuXiXuXuXiXuXA.B.B.N.M.N.N.N.N.N.N.N.M.B.C.C.C.C.C.C.C.C.C.C.C.C.C.C.B.B.B.B.B.B.B.B.C.C.B.B.N.N.N.M.C.C.C.C.C.A.+XuXiXiXiXiXiXiXaXpXzXHXHXHXvXx.1 ; @ v                                                                                                                                                                                                                   ",
"                                                                                                                                                                                                                                                                              r X . O % k h k k q @ X X $ 9 g j j j a j j j j j F R L J h $ . . . * x Q ! ! ! ! ! ! ^ ......| | X.h.z.z.d.z.z.j.d.d.d.d.d.d.d.d.d.d.d.d.d.d.d.d.d.d.d.d.d.d.d.g.g.h.h.s.| L ! ! ! H Q Q ~ k @ . . # o + # # @                                 q.o . . . . . . . * h z z H z z z Q Q Q c Q Q Q Q Q ! } ~ ~ q * * @ # @ @ @ @ @ @ @ # # # o o . . g N.A.A.A.UXuXuXUXUXuXuXuXuXuXuXuXuXuXuXuXA.N.B.M.N.M.M.M.M.M.B.B.B.B.C.C.C.C.C.C.C.C.C.C.C.C.C.B.B.B.B.B.B.B.B.B.N.N.N.N.B.B.C.M.B.C.B.C.C.A.+XuXiXiXuXiXuXuXpXaXhXAXHXHXzXi.q @ o v                                                                                                                                                                                                                   ",
"                                                                                                                                                                                                                                                                              q O . X = k j j j 2 @ X O $ 9 p j j j a a j j j j I R R L p = . . . * v Q Q ! ! ! ! ! ! ......| | s.g.z.z.z.z.z.z.d.d.d.d.d.d.d.d.d.d.d.d.d.d.d.d.d.d.d.d.d.d.d.d.g.g.h.s.| L L K Q H H Q ~ k * X . @ o @ @ # @                                 q.o . . . . . . . * h z H Q Q Q Q H H K K K Q Q ! ! ! ! ! Q 9 % % @ * * * * * @ @ # # # o o . . . g N.UXA.A.UXuXA.uXuXuXuXuXuXuXuXuXiXiXiXuXA.N.N.N.N.N.N.N.N.M.M.M.B.B.C.C.C.C.A.C.C.C.C.C.C.C.C.B.B.B.B.B.B.B.B.B.B.M.N.N.N.N.N.B.B.C.C.C.C.A.+XiXiXiXiXpXiXiXiXiXhXvXHXHXzXi.1 . X v                                                                                                                                                                                                                   ",
"                                                                                                                                                                                                                                                                              q % % = > p s s j 2 @ X O $ 9 p j j j j j j s s j m I T J p $ . . . @ v z H H J ! ! ! ! ..X.X.X.X.s.s.s.3.3.3.d.d.d.d.d.d.d.g.d.d.d.d.d.d.d.d.d.d.d.d.d.d.d.d.d.d.d.d.d.s.| L L L ! K K Q ~ k * . o X , F.p.p.                                  q.o . . . . . . . * h z H H H H H Q Q Q Q K Q Q ! ! ! ! ..! y : : * * * ; ; ; * * * * @ O X X X X g q.N.M.M.S.S.S.S.S.S.B.C.C.C.C.,XiXiXuXuXA.N.B.B.B.B.B.B.B.B.B.B.C.C.C.C.B.B.C.C.C.C.C.C.C.C.B.B.B.B.B.B.B.B.B.N.B.B.B.B.C.C.C.B.C.C.Z.A.C.C.+XuXiXiXiX+XC.C.C.A.uXiXaXaXuXN.q.q.q.                                                                                                                                                                                                                    ",
"                                                                                                                                                                                                                                                            v c c v c c v g v h h p 0 w j j s s 2 @ X O $ 9 p j j j j j j j s j m T R L p = . . . O g k k z H H ! ! | X.s.h.g.h.s.X.| |  . .3.d.d.d.d.d.d.d.d.d.d.d.d.d.d.d.d.d.d.d.d.d.d.d.d.j.d.d.g.d.O.o.X.o.! ! Q Q Q g @ . . o F.                                        q.o . . . . . . . % h z H H H Q Q H H K K K K ! ! ! ! ! ..} H Q Q Q Q ~ } { } } ~ ~ Q Q c z z z z v g , 3 3 , 3 2 2 2 2 q r r r r C.uXiXiXiX,XA.uX,X,X,X,X,X,X,XuXuXuXuXuX+XA.A.C.C.C.C.C.C.C.B.B.B.B.B.B.B.B.M.M.C.B.N.N.B.A.,XuXuXuXuXuXiXuXuXiXiXiXiXA.q.g r r 2 g 2 g g c A.                                                                                                                                                                                                                          ",
"                                                                                                                                                                                                                                                          c # # # @ @ @ * O = h k j j j j j j j 2 O X O O 9 p k j j j j j j j j I I J J p % X X . @ g x k j H H ! ! | X.d.g.c.g.s.o.| | | o.,.d.d.d.d.d.d.d.d.d.d.d.d.d.d.d.d.d.d.d.d.d.d.d.d.d.d.d.d.h.s.O.O.O...! H Q Q h O . . . q.                                        q.o . . . . . . . * t z z H Q Q Q H H Q Q ! Q ! ! ! ! ! ..! ! { } { ..w.e.t.e.w.w.{ { { { { } } ~ v , . . . . . o o X # # @ @ - @ x.iXuXuXuXuXuXuXuXuXuXuXuXuXiXiXuXiXuXuXuXC.C.B.C.C.C.C.B.B.B.M.B.B.B.B.M.B.B.B.C.N.N.B.B.A.uXuXiXiXiXiXiXiXiXuXuXuXuX+X} * @ X o o X o . g                                                                                                                                                                                                                             ",
"                                                                                                                                                                                                                                                          c # @ @ @ @ O * % > k j j j j j j Z j 2 @ X O O 9 h k j j j j j j a Z m I T J s & X O O * h x h k z Q ! L | X.d.g.g.g.s.X.| ^ ^  .s.g.d.d.d.d.d.d.d.d.d.d.d.d.d.d.d.d.d.d.d.d.d.d.d.d.d.d.d.d.s.O.O.O...! H Q Q g O . . . q.                                        q.o . . . . . . . * g z z H K K Q H H Q Q Q Q ! ! } | ! ! ! ! ..! ! | o.e.t.e.o.X.| ..} } } } ! ! v , . . . . . . # @ @ * ; ; ; ; x.pXiXuXuXuXuXuXuXuXuXuXuXuXuXuXuXuXuXuXuXC.C.C.C.C.C.C.B.B.B.B.B.B.B.B.B.B.B.B.B.M.B.B.C.A.uXuXiXiXiXiXiXiXiXuXiXuXuXA.} * X . . . # # o g                                                                                                                                                                                                                             ",
"                                                                                                                                                                                                                                                          v . o # o O O % $ > p S Z j Z Z Z n n q @ X O $ 9 h j j j a a a n a Z N I R L a & X O X ; k z x x z Q L L | O.d.g.g.g.s.o...! ! ..s.h.d.d.d.d.d.d.d.d.d.d.d.d.d.d.d.d.d.d.d.d.d.d.d.d.d.d.g.d.s.,.O.O...! H Q Q h O . . . q.                                        q.o . . . . . . . * g z z z z z Q Q Q Q ~ } } } { } ..! ! ! ! { ! L | o.e.s.e.X.X.| | | } | ] ] ! h , . . . . . X . o O O @ * ; ; i.uXiXuXuXuXuXuX,XuXuXuXuXuXuXuXuXiXuXuXuXC.B.B.B.B.B.B.B.M.N.N.N.N.N.N.B.M.B.B.N.B.M.N.B.A.uXuXuXuXuXuXuXuXuXuX,XuXuXA.q., # @ o . # # # g                                                                                                                                                                                                                             ",
"                                                                                                                                                                                                                                                          v # # . o ; ; > > 6 p Z Z Z Z Z Z Z n q @ O O $ 6 p j j a a n Z n n A I R I T n 6 & = % 9 t k x h k Q ! ! | X.3.d.h.s.e...! ! ! | s.h.d.d.d.d.d.d.d.d.d.d.d.d.d.d.d.d.d.d.d.d.d.d.d.d.d.d.g.d.s.,.O.O...! K Q ~ h O . . o q.                                        q.X . . . . . . . @ 1 g g h g g h h k x x x x z H ! ..! ! ! ! ! ! L ! ..X.X.X.o.X.| ..| ..| | | ^ h 1 * * % * ; : : < < < 1 1 1 1 i.C.A.A.A.A.A.C.C.C.C.C.A.A.A.A.A.A.B.C.C.A.C.C.C.C.C.C.B.B.B.B.B.B.B.B.B.C.C.C.C.C.B.M.B.B.B.C.A.A.A.A.A.A.C.A.S.A.A.M.p.} c c c c c c c                                                                                                                                                                                                                               ",
"                                                                                                                                                                                                                                                  q.q.p.c , o . O ; r t p p p Z Z Z Z Z Z Z j j q @ X O O 6 p j j j Z S F F F T I E I T J M a j j j 9 6 9 < r z ! ! | | o.o.o.| ..{ ! ! ! | t.h.d.d.d.d.d.d.d.d.d.d.d.d.d.d.d.d.d.d.d.d.j.j.j.j.d.d.d.s.s.,.O.O...! K Q ~ h O . . . q.                                        q.X . . . . . . . . O * * * * ; ; , , , 1 1 1 9 9 j ! ..^ ! ! ! ! L ! ! ! | ! | | ....| ..| ..| ! Q k k k h k z z Q Q Q Q Q Q Q Q v v v v v v v g g g g g v v v v v v v c p.+X+XA.A.A.A.A.A.A.A.A.A.A.A.A.A.A.A.A.A.A.A.A.A.p.x x v v v v v v v v v v v c                                                                                                                                                                                                                                                 ",
"                                                                                                                                                                                                                                                g o o o o o o o O : h k j Z j Z Z Z Z n Z Z j j 2 @ X X O 6 u j s a Z J T T T T W R I T R T R R ^ J 6 $ $ % < x ~ ! } ! ] ] ] ! ! ! ! ! ! | O.d.d.d.d.d.d.d.d.d.d.d.d.d.d.d.d.d.d.d.d.d.j.j.j.d.d.d.d.s.s.O.X.X...! H K Q h O X . . q.                                        q.o . . . . . . . . . . . . . . . . o o o o o % : h ! { ! ! ! ! ! Q ! K ! ! J ! ! ! ! ^ ^ ^ ^ ! ! { ! { ......e.e.e.e.e.e.e.e.e.t.g ; o o o . o o . . . . o X o o o o X , c uXuXuXuXuXuX,X,X+X+X+XA.A.,X,X,X,X,X,X,X,X+XuXA.} ; @ # @ @ @ @ # o o # # # g                                                                                                                                                                                                                                                 ",
"                                                                                                                                                                                                                                                g . o o . . . + O : p j j H Z Z Z Z n n Z j j j 2 X . X X : u s a a Z F T T T W W E W W E W R E ^ L 6 $ $ O < c { ~ ! ! ! ] ] } ! Q ! ! ! | O.d.d.d.d.d.d.d.d.d.d.d.d.d.d.d.d.d.d.d.d.d.j.d.j.j.d.d.d.d.s.O.X.X...! H K ~ k * X o o p.                                        q.o . . . . . . . . . . . . . . . o # # @ @ O * ; t ! ..! ! ! Q Q Q K H H H H H ! ! ! ! ^ ....^ ^ ! ! ........e.w.e.e.e.e.e.e.e.e.g @ o . . . # . . . . . o o # # # o o @ c uXuXuXuXuX,X,X,X+X+X+XUX,X,X,X,X,X,X,X,XuX+XuXA.q.4 O # @ @ @ @ # # # o # @ g                                                                                                                                                                                                                                                 ",
"                                                                                                                                                                                                                                                v . . . o o . o O : p j j S Z Z Z Z n n j j j j 2 X . X X > w s a n A I T T T W W E W E Y W E E E L 6 $ $ O < c { { ..{ ! ] ] ! ! ! ! ! L | O.3.d.d.d.d.d.d.d.d.d.d.d.d.d.d.d.d.d.d.d.d.d.j.j.j.d.d.d.d.s.O.X.O...! K Q ~ k ; O @ # p.                                        q.o . . . . . . . . . . . . . . o # # @ @ @ # * ; p ! { ! ! ! Q Q K Q H Q K H K ! ^ ^ ^ ^ ^ ^ ^ ^ ..........e.e.e.e.e.e.e.e.X.e.e.b # # o . . # . . . . . o # # # @ o # , c uXuXuXuX,X,X,X+X+X+X+XUX,X,X,X,X,X,X,X+XuX+X,XA.q., @ @ @ 4 @ @ @ @ @ @ @ # g                                                                                                                                                                                                                                                 ",
"                                                                                                                                                                                                                                                3 4 . . X @ % $ $ 6 p j Z j n Z n n n n n Z Z j 2 . . . X : p s a n A F I I I I W Y W W V ( ( ( +.Y 8 5 5 6 0 l c c c Q ~ } } ! L ! ! ! ! | e.a.e.e.s.h.d.d.3.3.3.d.d.d.g.h.s.s.s.s.s.s.s.s.s.s.s.s.s.t.X.X.o.X.{ x x x c x c q.q.p.                                          ~ * % % % % % % $ $ $ % % = * > > 5 5 > % O O - 4 g v v x h k h g h h h h h h g g x x x x x x z z v c c c c c c c Q Q Q Q Q Q Q ~ 2 o . # . . + . + # g v c x c c c c c c p.N.M.N.N.N.N.N.N.N.x.x.N.N.N.N.N.N.N.N.N.N.N.S.N.i.q.q.q.q.q.q.q.q.q.q.r.c q.                                                                                                                                                                                                                                                  ",
"                                                                                                                                                                                                                                      p.F.c c g 4 . . . @ 1 q 0 0 w p j j j n Z n n n n a Z Z a 1 . . . X : w p a n A I I I I I W W W W Y ( @.@.@.+.I m F D p w 2 1 q g z } } ! } ! ! ! L ! ! ..} ] ..s.d.d.d.d.d.d.d.d.s.X. . .| | ..| | | | | | | | | ] ! L } Q g < * < c                                           q.} q.~ g q q 9 q 9 q q q q q q q q 0 t t a p 0 : * O @ @ , , 1 < , , ; * * * * * * * * * , , , , < < < < 1 1 1 2 1 1 1 1 1 1 1 1 9 9 9 9 , # . # # # # # + ,                       v g v g g g g g g g g g g g g g g g g v v g g q.                                                                                                                                                                                                                                                                              ",
"                                                                                                                                                                                                                                      2 # . # + . . . . ; q k k j j j j j j Z n n n n a j j j j 1 . . . X : w p s a n F I I I W Y Y Y Y ( @.:.<.>.:.;.;.,. .D 6 . X X : x } } { { } } ! ! ! ! ! L L | X.d.d.d.d.d.d.d.d.s.| R L L ! ! L ! ! ! ! ! ! ! ! L K K Q x 1 O X O ~                                           @ O o * r p h p h p h p h p k k k k k j z S z g < @ O @ @ # # # . . . . . . . . . . . . . . . . . X X X X X X o o o X # . . . . . . X X X X . . o o # # # @ 2                       @ . o o o o . . . . . . . o o o o o o o # # # g                                                                                                                                                                                                                                                                               ",
"                                                                                                                                                                                                                                      q @ # + . . . . . : t k k j j s j j j n s n Z n j j j j s 1 X . . X : 0 k p s n J I W W W E E E Y ) @.:.>.>.:.>.;. . .F 5 % O O : x } ~ } ~ ~ ! ! ! ! Q ! L ! | s.d.d.d.3.d.d.d.g.h. .^ ^ ! ! ! ! ! ! ! ! ! ! ! ! ! Q Q Q x < . X O c                                         i.@ @ o O r p p p p p p p p p s s j j j j j z z h < @ @ 4 @ @ # X . . . . . . . . . . . o o o o o O O % % O % % O O O O O X X X X . X X X X X X X . . # @ # # ,                       o o . . . . . . . . . . . . . o o o o . . o @ g                                                                                                                                                                                                                                                                               ",
"                                                                                                                                                                                                                                      b X X . . . . . . > p j j p s j j j j j j j j j j j j j s 1 X . . X : y k p s Z F I I W Y Y E Y Y ( +.@.@.+.+.>.;. . .F 5 $ $ X : x { } { } } } } ~ Q Q Q ! ! | t.h.h.d.d.d.d.d.g.s...^ ! ! ! ! ! ! ! ! ! ! ! ! Q Q Q Q ~ c r O O * ~                                         i.@ . . * r p p p d s s s s s d d d j j Z Z z j p 6 % % % % % O X X X . . . . . . . . . X X O % % $ $ % % $ & = & % % $ O O X X X X X X X X X X O X X o o # @ ,                       # @ o o o o # # o o o o # # @ @ @ @ @ , @ @ , v                                                                                                                                                                                                                                                                               ",
"                                                                                                                                                                                                                                      g . + @ X X X X O 6 u j s s j j j s s a s j j j j j j j s 9 $ O O O : 9 t t t s F I I W Y U Y Y Y Y ) +.+.+.+.+.;. .;.I 8 & = & 6 h x c c x c c x x x K ~ ! ! } X.t.t.O.s.s.s.s.s.a...^ ! ! ! ! ! ! ! ! H H H z z x h x z x c { } q.                                            ; . . * r p p s d s s s s s s s s s j Z Z Z j s u 0 0 7 6 6 6 6 5 : : : < : : : : : : 6 6 6 7 7 7 0 8 w 8 w w w w 8 8 7 7 7 6 6 6 6 6 6 6 & = > : : * o @ @ <                         c c c c c c c c c c c c c } q.} q.q.q.q.q.q.                                                                                                                                                                                                                                                                                ",
"                                                                                                                                                                                                                                      g o X X O < 1 9 6 0 p s a s d d d s d j j j j j j j j j p q 6 < < < < * ; : > 0 Z I I I Y I Y Y Y Y Y ( Y ( ( +.+.+.+.[ N Z D j p q < ; , , , , ; ; q h Q ! Q ! } ..| | | | | o.o.....! ! ! ! ! ! ! ! H j p t t q < : : 9 c                                                   p., @ o ; r u p a d s s s s s a s s s n Z Z A A F T R R R I I I F F F Z D J D D D F F F L R R U Y E @.2.6.2.1.2.2.2.>.:.:.;.+.;. .E  .E  . .Z Z j H k 9 * , , 2                                                                                                                                                                                                                                                                                                                                                     ",
"                                                                                                                                                                                                                                      2 @ O X ; t g h p p a a s s p s d j j j j j j j j j j j p k g g g t 1 O X . O 6 s F I I E U E Y Y W Y W W V Y @.:.+.+.+.+. . .| D 6 O X o . o . . X : h ~ ~ Q Q ! ! Q L ! ! ! ] } } ! ! ! ! ! ! ! ! ! l g q q q < % . X O c                                                   i.@ X o ; r u p a s s s s a s s s s n Z Z Z M M I ;.>.2.>.>.:.+.+.) E R E E E [ [ [  .+.+.+.:.@.@.1.K.~.~.~.~.~.~.~.~.~.~.!.R.R.R.R.j.j.j.j. .E ^ o.! 9 O @ , ,                                                                                                                                                                                                                                                                                                                                                     ",
"                                                                                                                                                                                                                                      2 X X X < g k k s a a a a s s s j j j j j j j j j j j s j k 0 g g q < O X . O > s F I I W I R U I U Y I W W Y +.+.+.@.$.) E E  .J 6 O O X . o o . X : h ~ Q Q ~ ! ! ! ! ! } } { { { ! ~ ! ~ ! ~ ~ ! ~ z h q 9 q 1 O X X O c                                                   p.4 X X ; r s s d d d s s j s s j j j j Z Z m m W ) >.<.@.@.@.@._ ) Y Y ) ) +.+.+.$.+.+.@.@.%.%.%.*.K.~.`.~.`.`.`.~.U.U.L.L.K.L.K.H.H.H.H.K.;.E R R ! : % @ ; 2                                                                                                                                                                                                                                                                                                                                                     ",
"                                                                                                                                                                                                                                      2 o X X < t k j s a a a a s s s a j j j j j j j s j s p s p w h h t 1 X . . X : d J J F T I R I I I U I I W W $.+.+.+.( ( +.E  .F 7 $ X X X X X . X ; h ~ Q ~ ~ ~ ~ ~ Q Q ~ ! ~ ~ ~ ~ ~ ~ ~ ~ ~ ~ ~ ~ z h q q r < O . . @ c                                                   p.@ X X ; r p s s d d d j j j j j j j j j j M m I +.2.2.<.<.@.+.+.) Y ) ) ) +.+.+.+.+.@.@.@.%.%.%.*.L.`.`.`.T.T.T.U.U.L.L.L.L.L.K.K.K.K.K.K.+.Y R R ! : O @ , 2                                                                                                                                                                                                                                                                                                                                                     ",
"                                                                                                                                                                                                                                      2 o X X < p j j j a a a a s s s a j j j j j j d d j s s a s w u p t 1 X . . X : p H J J T I R I I I U I I U Y +.+.+.@.( $.+.+.+.I 8 5 = = O O O * * 1 g z c c c Q Q Q Q Q Q Q Q Q Q ~ Q Q z z z z z z k g q q q < 2 2 2 g q.                                                  p.4 X X ; r p p s d j j j j j j j j s j j j n m I E ;.:.;.;.+.E E Y W E ;.) +.+.+.+.+.@.@.@.@.%.%.*.G.E.E.~.U.U.U.U.L.L.L.K.K.K.H.H.K.K.K.K._ Y Y R L > O # @ 3                                                                                                                                                                                                                                                                                                                                                     ",
"                                                                                                                                                                                                                                      2 o X X < p j j j a a a a s s j j d d j j d j d s D D D D j w w t y < X . . . % q p d s Z I R I I I I I U U W +.+.+.@.@.&.2.2.5.>.I m j j 0 q t t t 9 : : ; ; ; ; ; : < < < < < < < < < < < < < < < < ; * * * * g x.                                                          i.@ X X ; r p p s d j j j j j j j j j j j j s n Z T R T I F m m m M M I E ) +.+.+.+.+.@.@.@.@.@.%.%.1.P.G.G.G.G.G.P.P.P.1.1.*.*.*.1.K.K.K.K._ ( W R L > O o @ ,                                                                                                                                                                                                                                                                                                                                                     ",
"                                                                                                                                                                                                                                      2 o o X : p j j j a a a a a a j j d d s s d d s s F J J J D a u u q < X . . . % < 0 0 u s I I I I I I I I I I +.+.+.@.@.<.H.J.R.j.:. . .^ H j j H k 9 % X X X X X X O O O X X X X O O O O X X . . . X X X . o @ q.                                                            i.@ X X * r p s s d s s s s s s s s s s j j s s s Z Z Z n a a i u u i F E ;.+.+.+.;.;.;.;.+.@.@.@.@.%.*.%.%.*.*.%.%.%.%.%.%.@.%.%.*.H.K.K.H._ ( Y I L > X o # ,                                                                                                                                                                                                                                                                                                                                                     ",
"                                                                                                                                                                                                                                      2 # o X < p j j j a a s s s a j j d d d d a s a s F J J J Z u u u q : X . . . * 1 q t p k A I I I I I I I I U +.+.) +.@.2.H.H.R.6.:.+. .E F j j H l q % X X X X X X X X X o o o X o o o X o o o . . X . . o # # q.                                                            i.; X X * r p p d d d d d s s s s s s j j j d j j j Z j a a d a a i s I ;.;.+.+.+.+.+.+.+.+.@.@.@.@.@.@.@.%.%.%.&.&.%.%.%.%.@.%.%.*.K.L.K.K.@.( Y I L & X . # ,                                                                                                                                                                                                                                                                                                                                                     ",
"                                                                                                                                                                                                                                      2 # o X < k j j Z a Z j d a a j j j j d d a a i a F F F F n u u u 0 < O X X X * < q 0 y p m I I I I J F I I U +.+.+._ @.2.G.G.J.6.@.) E R T Z Z H j 0 = $ o o o X X o o o o # # # # o o X . o # o o o o o o # 4 q.                                                            i.; o o ; r a a s d s s s s s s s s s s s s s j s Z Z Z j a a a i i M I ) ) +.+.+.@.+.@.@.@.@.@.@.@.@.@.@.%.@.@.@.@.@.@.@.@.&.*.*.1.K.L.K.K.@.( Y I L & X . + 4                                                                                                                                                                                                                                                                                                                                                     ",
"                                                                                                                                                                                                                                      2 o o X < j j Z Z a Z j j j j j j j j s s a a i i N F N N n u u u t 9 : ; < < < 9 9 9 9 y m V F F F F F F N I  .+.) ) +.<.1.1.4.1.( Y Y I F Z J ! H u 6 > * * * * @ @ @ @ @ @ @ @ @ # o o # @ 3 2 r g g g g g g u.                                                            i.; o o ; r s s s s s s s s s s s s s s s s d s s n a n a a j s n M m U +.+.@.@.@.@.@.@.@.@.@.@.@.+.@.@.@.%.#.#.#.#.@.&.&.&.%.*.*.P.K.L.L.K.@.( Y I L & . . + 4                                                                                                                                                                                                                                                                                                                                                     ",
"                                                                                                                                                                                                                                      2 o O $ 6 j j Z n n A F F A F F Z Z Z s p p p u s Z H Z D s s s a M m m J L L t = O # # 3 u s s d a s n n m A R R I I I V L L J F Z n n n D J R R R F m M d s s s i i M M s a p k q O X # # g                                                                                 i., o o , g j j d d Z Z s n s s s s d d d d j j j a n a a n T Y ) ) ( ( $.@.@.@.@.@.@.@.@.@.@.@.@.@.@.@.@.@.@.@.#.#.#.#.#.&.&.*.*.G.K.R.E.E.@.( E R ! = O . . -                                                                                                                                                                                                                                                                                                                                                     ",
"                                                                                                                                                                                                                                      2 o O O 6 k j a a n S J F F F F F F F n a a a u a Z D Z F D D D D F F F G L J y % X X + 4 0 u p p u p s s s M J F m I N N F F F m n s s n m F R R R R I I L L J J J J F J F F H l t ; X . . q.                                                                                i., o o , g k j d d Z Z s n s s s s s d d d d j s s s a a n E +.+.+.( +.@.@.+.@.@.@.@.@.@.@.@.@.@.@.@.@.@.@.@.@.@.#.#.#.#.#.&.&.*.1.4.H.G.1.+.Y Y R ! = X . . -                                                                                                                                                                                                                                                                                                                                                     ",
"                                                                                                                                                                                                                                      2 o O O 6 p j a a n S J F F J J F F F n a a a u i Z Z Z F D D F F F J F F L D 0 % X . X , 0 t p t t p d d s s F F A F N m m m m n M s n m D J R R R R E R R R R T T T J J J J K l t * X X o q.                                                                                i., o @ < g j j j j Z Z j Z Z n s s s s j j d d a a s a i M E ;.;.+.+.+.@.$.#.+.+.+.@.@.@.@.@.@.@.@.@.#.@.#.+.+.@.#.#.#.#.#.#.#.&.&.&.&.%.%.Y Y R R ! : X . o 4                                                                                                                                                                                                                                                                                                                                                     ",
"                                                                                                                                                                                                                                      2 o O O 6 p j a a n F I F F J J J F F n i i i i i M m m F D D F F F J J J J H 0 % X X o * y t t t t p p k j s D J F J F F F D Z m n n n m F J R T I I I I T T T I T R J J J H H H g * X * o q.                                                                                i., @ @ < g j j j j Z Z Z Z j s n s s s d j d d d p s a i M R  .+.+.$.+.@.$.#.:.#.@.+.@.+.+.:.:.+.+.+.+.+.@.+.+.+.$.#.#.#.#.#.#.#.@.@.#.@.@.E E E ^ ! 9 X . o 4                                                                                                                                                                                                                                                                                                                                                     ",
"                                                                                                                                                                                                                                      2 o O O 6 k j j a n F I J I I I I F F m M M M n M m F N I D s n n n D D Z D j w : % * * * 2 q q 1 9 9 y t t p D D D F D D D Z Z n n n n n Z F J I I I I I T T T F F J F Z j p k h g t q g g i.                                                                                i., @ @ , r 0 u t u j Z Z Z j Z j j j j j j p d p a s a i M R [ [ [ [ +.#.#.#.#.@.@.@.@.#.#.#.#.+.+.+.+.+.+.$.$.$.$.#.#.#.#.#.<.>.@.+.@.+.+.[ R R ! Q 9 . o # 4                                                                                                                                                                                                                                                                                                                                                     ",
"                                                                                                                                                                                                                                      2 o O O 6 k j j a n F T I I F I I F F F I R E R E E ) Y Y D u w u w u p p p p u 0 q q 9 < ; * @ @ * ; ; : : 9 p j j D Z Z Z n s n s n n n n D F J I I I I T T A n a n s 0 & * : < {                                                                                           i., # # @ , : > > 6 p Z Z j j a j j j j s s s d s p s a i M I U Y W Y +.@.@.@.#.@.@.#.@.@.@.@.@.@.+.+.+.+.+.+.+.+.+.@.@.#.#.@.<.:.( W W Y Y n u p t t ; X # @ -                                                                                                                                                                                                                                                                                                                                                     ",
"                                                                                                                                                                                                                                      q o O O < k j j a n F T J I I I I F N I E ;.>.;.;.:.:.@.+.J u 0 w 0 0 u w y y u p p k h 0 # o . . . X O O % > t d d j j j j j j Z j Z Z Z n Z F J F I I I T T A a a s u 9 $ % O X r.                                                                                          i., # o o @ % % % > t k j j j j j j s s p p p s s a a a a M I I W W Y _ @.@.%.%.%.%.#.#.#.#.@.@.@.+.+.+.+.+.+.+.+.+.@.@.@.:.:.2.:.W m V I N 0 & & * * @ o @ @ ,                                                                                                                                                                                                                                                                                                                                                     ",
"                                                                                                                                                                                                                                      q o O O < k j j a n F T J I F I I N N U ;.;.>.;.;.>.>.@.@.R 8 7 w 0 0 u w u u u p p j u 0 @ X . . . X O O % : t k p j j j j j j j j j j j j Z F F F J I I J J Z a u p t < X @ o o p.                                                                                            , # # o # O O O % y j j k j j j p p k p p p k p p a a a n I T E W Y @.:.:.#.%.&.&.&.#.#.#.@.@.+.+.+.+.+.+.[ +.+.+.+.@.:.:.:.2.:.I M m F F t % % * O @ # # - ,                                                                                                                                                                                                                                                                                                                                                     ",
"                                                                                                                                                                                                                                      2 o o O : p j s a n F J L I F I I J J E ;.>.;.>.:.>.:.>.@.F i 7 8 8 w w u u u u w s j p 0 O X . . X O O % % : p p p j k j j j k j k j j j j j j Z D D F F F J s u 0 9 r , @ @ @ @ q.                                                                                            2 @ # , # O o X % r k h h k h h h p g t g k g k k k p s Z T R R R R ) ;.,.#.@.#.>.#.#.#.:.+.;.;.;.+. . . .[  . . .+.+.;.;.;.,.,.I n Z D D t * * ; @ @ , @ @ 3                                                                                                                                                                                                                                                                                                                                                     ",
"                                                                                                                                                                                                                                      2 o o X : p j s s n Z F F I F F I J F U  .;.+.+.+.>.@.@.@.I M i i i i a a s a p u a j s w ; % % % % % % % % : y t t t p j k k p p p p h h p k k j j j Z Z D D p 0 6 1 2 g v c v c                                                                                               c c c c , O O . @ 1 t t t y t y y t q y q q q q t t t p p Z H J J F T R ^ U U R E R R R R R R R R R L L L J J J G G R R R R  .^ D d j j j q ; @ @ 4 g g g g c                                                                                                                                                                                                                                                                                                                                                     ",
"                                                                                                                                                                                                                                      2 o X X : p j s a s Z m D A m m F F A N I I I I W :.:.@.@. .I I I I I R R R J D s a s a u 0 9 9 9 9 9 9 9 9 9 : : < : : : : : : : : : : : : > : : 6 6 6 6 7 7 > ; O ; ; c                                                                                                               c @ . . o @ ; < : : : * * * * * * ; ; , , < < : : 9 9 9 0 0 0 0 0 0 u 0 u u w w 0 y y y 0 0 0 0 0 7 7 7 0 0 0 0 0 u p y 9 9 9 y r 1 ; @ @ 2                                                                                                                                                                                                                                                                                                                                                               ",
"                                                                                                                                                                                                                                      2 . . X : p j s a s n n m m M M n n M M M M M M m :.>.>.:.,.;.;.;.;.;.,.,.,.;.R m M s s s d d d j j j h h h t % O % O % O O O X X X X X X X X X X X O O $ % % O % o 4 ; p.                                                                                                                - o . o . X O X X X . . . . . . o o o o X X X O X O O % O % % % % % % % % % % % % % * % % O O O O X X X O O O O % O O O O O - - @ # @ @ b                                                                                                                                                                                                                                                                                                                                                               ",
"                                                                                                                                                                                                                                      2 . . X : t j s p a n s n m n n n n n M M n M M m :.>.>.:.>.;.>.>.:.:.>.:.>.;.U m a s Z Z Z Z D D D l x x h t * O * O @ O X X . . . . . . . . . . . . . . . . X o o @ @ i.                                                                                                                @ o o o . . X . . . . . . . . . o o o o o o o O O O O X O O O O X O O O O o X o O O O O O X X X . X X . . . . . . . . X o O o o # o , , g                                                                                                                                                                                                                                                                                                                                                               ",
"                                                                                                                                                                                                                                      2 . X X : t p p p a n s s n M M M s s M M M M M m ;.>.>.>.>.>.>.>.@.@.#.@.@.+.U M M s n s s n Z D D l x x h t * o ; @ @ @ @ @ O # o # # # # # # # o # # # @ # @ - ; ; ,                                                                                                                   @ o . o . X . . . . . . . . . . . X X X o o O O O X O X O X O O O O O O O X X X O O O O X X X X X X X . . . . . . . . . o o o # @ # # , g                                                                                                                                                                                                                                                                                                                                                               ",
"                                                                                                                                                                                                                                      2 . . . : t p p p a n s s d s s s s n Z Z n M m m E +.;.;.+.+.+.( ( $.@.@.@.+.Y I m Z Z j M n Z D j k p t h q @ # , , b F.c c c c c c c c c c c c c c c c c c c c } } q.                                                                                                                  @ + . X @ * O * % $ O O O @ @ @ = * * * * : : ; ; % * * * = = * * * * * * * * * * * * * * * * % = = * * @ O O o o @ O + . . X O g c c c                                                                                                                                                                                                                                                                                                                                                                 ",
"                                                                                                                                                                                                                                      2 . . . : t p p p a s s s s D D D D H F F F F J A F m I m V m V ' ' V $.$.@.@.) Y R R J H n n Z j s 0 9 : : ; ; @ @ 3 q.                                                                                                                                                                p.@ # o @ 1 q q q q q q q q q q q q t t q t g t t t q q t t q q q r y y t t t t t t t y y y y y y r r r r q q q 2 2 q 1 @ + + O O                                                                                                                                                                                                                                                                                                                                                                         ",
"                                                                                                                                                                                                                                      2 X . X : t k p p s j s s j D J U I I U I U R R L a i i i p d p p a F E :.+.@.$.$.$.+.( W M M n l p : % * @ @ # 4 @ 2                                                                                                                                                                   p.- . # O t k j s s s s s j j j j j j j j Z Z Z j Z j j j j j j j s s n s j j n n Z Z Z Z Z s s n D j s s j j j p h h g * . . . #                                                                                                                                                                                                                                                                                                                                                                         ",
"                                                                                                                                                                                                                                      2 X . X : t k p p p s a s n D J U I I W U U R R L s s i i d d d a n F E +.+.@.+.+.+.+.E I n M Z j u : % @ ; , 4 4 , 2                                                                                                                                                                   q.- . X % q k j p s s s s p s j j j j j j j Z j j Z Z n Z Z Z Z Z n n n Z Z Z Z Z n Z n Z m Z n n Z n s j s j d j k k g * . . . #                                                                                                                                                                                                                                                                                                                                                                         ",
"                                                                                                                                                                                                                                      2 X X X : w p p w p s a s n m F I V V W Y I U R I M M i i a a a a M F E ;.+.+.+.[  . .R I s s j j t : @ @ @ @ , 3 2 b                                                                                                                                                                   p.@ . X O w j s p s s s d s s j j a j s n n Z Z n n n n n n n M n s M n n n n n n n n n n n n n n n n n n n s s j p k g * . . . #                                                                                                                                                                                                                                                                                                                                                                         ",
"                                                                                                                                                                                                                                      2 X X X : w p p w s a s j n m F U I V Y W Y Y U I M M M M M M M M n A T E R R R R L L J Z a p d k y : O @ , , c v v F.                                                                                                                                                                  q.@ . X O w j s a s s s d s s j j a s s s s n n n M n M n n n M m m m m m m A N N m m m m m m m m N N N F A Z Z s s k t * . . . +                                                                                                                                                                                                                                                                                                                                                                         ",
"                                                                                                                                                                                                                                      2 o X X : w p p w a s s j n A R E ( ( +.$.+.+.+. .I I I I I I I I F n n n n s s d d j k p u t t t q * o @ , g                                                                                                                                                                           q.@ . X O w k j j s s d d d a j j s s n n n M M n F F I I I I I I I I I I I I I I U U U U U U Y Y Y Y R U R R F s s s p = . . . o                                                                                                                                                                                                                                                                                                                                                                         ",
"                                                                                                                                                                                                                                      2 o X X : t k p w a s s j M F E +.+.@.@.@.@.:.;.;.E +.+.+.+.+.+.+.E m i u u u y 0 0 q q q 0 9 9 y 1 * o @ 3 q.                                                                                                                                                                          q.- . X O q k j j j j d d s a j j s s s n s s M m U E E E E E E E E E E  . . . . .+.+.+.+.+.+.+.+.+.+.+.) +.E I M s j p = . . . o                                                                                                                                                                                                                                                                                                                                                                         ",
"                                                                                                                                                                                                                                      2 o X X : t k p p p s a s M m Y +.+.@.@.@.@.@.@.>.) :.@.+.@.@.@.>.+.F i u u u 0 0 0 0 0 q q 9 9 q 1 @ o @ @ F.                                                                                                                                                                          q.@ . X O q k j j s s s a s a s s s s s s s a M m R E [ E E +.+.+.+.+.+.+.+.+.+.+.+.+.+.+.+.+.+.+.+.+.+.+.+.E I M a d p > . . . o                                                                                                                                                                                                                                                                                                                                                                         ",
"                                                                                                                                                                                                                                      2 o X X : t k p w p s s s n m Y +.+.@.@.$.@.@.@.@.( @.@.@.@.$.@.:.E F a a p u u 0 0 0 0 0 9 1 1 q 2 @ # @ 4 q.                                                                                                                                                                          q.@ . X O q h k j j j s a s s s s s s s s s a M m R E E E Y +.+.) ( ( ( ( ) ) ) ) ) ) ( $.( ( ( ( ( ( +.( ) E I M n j p > X . . +                                                                                                                                                                                                                                                                                                                                                                         ",
"                                                                                                                                                                                                                                      2 X X X < t k p p a s s s M m Y @.@.@.%.%.@.@.@.<.+.@.$.@.%.@.@.:.+.I M n s s i i w w p 0 < , < 2 2 v v g g                                                                                                                                                                             q.@ X . * 1 g p u p j j a s s a s d d j s s s M M I E E E Y +.+.) ( ( ( ( ( ( ( ( +.+.( ( ( ( ( ( +.( ( ( ) E I M n Z k : . . . o                                                                                                                                                                                                                                                                                                                                                                         ",
"                                                                                                                                                                                                                                      2 X X X : t k p p a s s s n I +.<.<.*.1.1.1.1.1.1.@.%.%.%.@.@.@.<.:.+.E R I F N F n n n 8 @ . . ; c                                                                                                                                                                                     q.@ # . O * : : > 7 p j a a a s s j j j j s s M n I E [ E E +.+.) ( ( ( ( ( ( ( ( Y Y Y ( Y ( ( ( ( ( Y ( Y Y I n n Z k : X . . #                                                                                                                                                                                                                                                                                                                                                                         ",
"                                                                                                                                                                                                                                      2 X X . : t k p p s s s j M I :.6.6.4.H.G.G.K.H.H.%.%.%.%.%.%.%.%.>.:.:.;.:.+.[  .E E R M * . . * p.                                                                                                                                                                                    p.@ # o o O O O $ = w j Z a a a s j j d j s s n n I E  . .E +.+.) +.+.+.) ) ( ( ( ( ) ( ) E ) ) ) $.( Y ) Y E I n Z j k : . . . #                                                                                                                                                                                                                                                                                                                                                                         ",
"                                                                                                                                                                                                                                      2 o X . : t k s p s j s j M I >.6.6.G.G.G.H.K.K.H.*.%.%.*.%.*.*.%.@.@.@.@.+.+.E +. .E W M o . . X p.                                                                                                                                                                                    p., # o o # o X X > w j Z a a a s j j d s s a s M I E  .) E ) +.+.( +.+.) ( ( ( E E E E E E E E E E Y E E E R I M Z j k : . . . o                                                                                                                                                                                                                                                                                                                                                                         ",
"                                                                                                                                                                                                                                      2 . X . : p j s p s j s Z M I >.6.H.G.G.H.G.K.K.K.*.*.*.*.%.*.%.%.%.%.@.@.+.( ( ) E Y T M # . . @ p.                                                                                                                                                                                    p., # # @ @ @ * * = w j j j j s s d s a a s a n M I E E +.( ) ( +.) +.+.) ) ) E Y E E E R R R R R E E E E E E J n j j k : X . o #                                                                                                                                                                                                                                                                                                                                                                         ",
"                                                                                                                                                                                                                                      2 . . . : t j s p s j j Z m I >.6.H.G.H.K.H.K.K.K.*.*.*.P.*.*.1.1.*.*.%.@.$.$.+.+.E E R n @ . . # p.                                                                                                                                                                                      c c c c 4 o o X : w k j j j s s a a a n Z m n m I Y E ) ) ) ( ( ) ) ) ) ) E Y I I I F J J J T T I T R R T T Z a p p t * . . o #                                                                                                                                                                                                                                                                                                                                                                         ",
"                                                                                                                                                                                                                                      2 . . . < t j s p a j j Z M I >.6.K.H.K.K.K.K.K.K.G.G.G.G.K.K.K.K.G.*.%.$.$.$.( ) E E T a * . . o p.                                                                                                                                                                                              v @ # * : 0 k j j j d s a a n F T I I I Y Y E ) $.( ( ( ) ) ) Y E E Y F M M i i a a a n n n M M a a a 0 0 q q % . . o @                                                                                                                                                                                                                                                                                                                                                                         ",
"                                                                                                                                                                                                                                      2 . . . < t j s s a j Z Z M I >.j.K.H.H.K.K.K.K.L.K.L.L.L.L.K.L.E.K.*.%.$.$.+.( +.E  .^ n O . . o r.                                                                                                                                                                                              c # . * : t j j j j j d a a m R E E E E E E ( ) _ _ ( ( +.) ) Y E E I m i i i i u i a a i i i i i a u 7 0 0 q % . . # @                                                                                                                                                                                                                                                                                                                                                                         ",
"                                                                                                                                                                                                                                      3 . . . < u p a a j j j j C V <.6.G.H.K.K.K.K.K.K.L.L.L.L.K.L.L.L.K.1.@.$.$.@.( _ +.+.E M * . . * p.                                                                                                                                                                                              F.@ @ @ : 0 k j j d a a n n M I E ) ( ) ) ) +.+.+.+.+.+._ ) ) ) W E E n a a p p p p p p p p u u p p w 7 0 0 9 * . o # 4                                                                                                                                                                                                                                                                                                                                                                         ",
"                                                                                                                                                                                                                                      2 . . . : p j j p a a d j C V 2.R.J.K.K.K.K.K.K.K.L.L.L.L.K.L.K.K.K.*.@._ _ $.( _ +.+.R M * . . * p.                                                                                                                                                                                              F.@ @ O : 0 k j d d a s n n m I E E ) ) E E E E E E ) ( ) ) ) ) E E R n a a a u w w w w u u w w w w w 7 7 7 9 * X # # ,                                                                                                                                                                                                                                                                                                                                                                         ",
"                                                                                                                                                                                                                                      2 . . X : p j j s s j d j M I >.6.6.G.G.K.K.L.K.K.L.K.K.K.K.L.K.K.H.1.%.%.@.@.@.@.+.+.E M * X . ; p.                                                                                                                                                                                              c @ o O : w k j d d s s a a n F R U I U R R R R U R Y Y T T I I R T A A M M n n n n M i i i n a n M w 8 w p p > X X # @                                                                                                                                                                                                                                                                                                                                                                         ",
"                                                                                                                                                                                                                                      2 . . . : g j j j a j d j M m Y +.@.@.*.K.K.K.K.K.K.K.K.K.K.K.K.K.K.G.1.1.1.1.<.%.@.;.E M * X X , p.                                                                                                                                                                                              c @ o X * q k j d d s s s s s Z A m m m m m Z Z m n m M Z n s M m n M I E E E ) E E Y Y Y Y Y E E E I A A J Z 6 X O # @ q.                                                                                                                                                                                                                                                                                                                                                                      ",
"                                                                                                                                                                                                                                      g o X X : p k j j j j s j M n J U W ( @.H.K.K.K.K.K.K.K.K.K.K.K.K.K.K.H.K.K.H.1.%.@.;.) m < X X , u.                                                                                                                                                                                              c # o X * q k j d s s s j j j s a a a a s s d s a i i i d s a u s M M +.>.2.5.5.2.2.:.:.@.@.@.:.:.:.+.E T ^ J 9 O O @ * 3 g g g v                                                                                                                                                                                                                                                                                                                                                               ",
"                                                                                                                                                                                                                                      2 . . X * h k k j j j d d s n J U Y ( $.H.K.K.K.K.K.K.K.K.K.K.H.H.K.K.K.K.K.K.1.*.@.:.;./ < O @ < i.                                                                                                                                                                                              c # o X * q k j s s s s j j j s a a a a s d d s a p u u t p d u i i M +.<.2.5.1.2.2.2.2.>.#.:.:.:.:.;.) R E L 0 $ O O * # @ @ , 3                                                                                                                                                                                                                                                                                                                                                               ",
"                                                                                                                                                                                                                                      g o @ @ < h k k p j j d j n m T R E ( @.J.L.K.K.K.K.K.K.K.K.K.H.G.K.K.K.K.G.K.P.*.@.:.;.I < O @ 1 i.                                                                                                                                                                                              c # o X * q k j s s a s j j s s a a a a a s p p u u u u p u d i i M M ( <.2.6.6.5.2.2.2.>.>.>.>.>.>.:.;.R E L 0 $ % * = , @ # @ ,                                                                                                                                                                                                                                                                                                                                                               ",
"                                                                                                                                                                                                                                      q.v v g g t g w w p j d d s m J R E ( $.J.L.L.K.K.K.K.K.K.H.K.H.G.K.K.K.K.G.K.P.*.@.:.;.A < O * 1 i.                                                                                                                                                                                              c # o X = 0 k j d a s s d j s n M M M M n n s s s a a s j a n i M C C +.<.2.2.2.:.@.+.)  . . . .;.;.E R R R J w = > : < # @ @ , ,                                                                                                                                                                                                                                                                                                                                                               ",
"                                                                                                                                                                                                                                                g % : : 6 p j j M M T E E ( @.H.L.K.K.L.G.K.K.G.H.H.H.G.H.K.K.K.K.K.G.%.@.:.;.m 1 * * 1 i.                                                                                                                                                                                              c # . X = q k j s d s s s a M F I I I I J F F F F J I I R T R U Y Y V @.<.2.5.>.Y M M m Z n n n m m m m Z Z Z p w 0 q q , # @ * 2 c q.i.                                                                                                                                                                                                                                                                                                                                                        ",
"                                                                                                                                                                                                                                                g O % $ > t j j n M I E E ( @.H.L.K.K.L.G.K.K.G.H.H.H.G.G.H.K.K.K.K.G.*.@.:.;.A < * * 1 i.                                                                                                                                                                                              c o . X * q k j p d s s M M m I Y Y Y E E R R R R E E +.;.;.;.+.@.@.+.2.<.2.5.>.m 8 8 8 0 0 0 w w w i i a n j s p p k k 1 * * o o , , , 3 g                                                                                                                                                                                                                                                                                                                                                     ",
"                                                                                                                                                                                                                                                v o X X > u j j M M I E Y ( @.J.K.L.K.K.K.K.H.G.H.H.H.G.H.H.K.K.K.K.1.%.@.:.;.A < * * 1 i.                                                                                                                                                                                              c # . . ; q k j j d s j M M m U ) ) ) +.E E E E E +.;.:.:.:.:.@.@.#.@.<.5.>.5.,.m 8 8 w 0 0 0 w w w i i i n a a a a j Z < % * % O O o . . b                                                                                                                                                                                                                                                                                                                                                     ",
"                                                                                                                                                                                                                                                v o . X : p j j M M I E E ( @.6.K.K.K.K.K.K.H.H.H.H.H.H.H.H.H.H.K.K.1.%.@.;.;.A < * * 1 i.                                                                                                                                                                                              c # . . ; q h k j j j j M M m Y ) ) ) ) ) Y Y Y ) _ @.@.@.@.@.@.@.@.@.>.2.>.5.,.A 8 w w 0 w u u w w i i i M n n M n n n 6 % % % % O . . . b                                                                                                                                                                                                                                                                                                                                                     ",
"                                                                                                                                                                                                                                                v # . O : t j j M M I E E ( +.4.H.H.G.G.K.K.H.K.H.H.H.H.H.H.6.6.H.H.<.@.) ;.;.A < * * 2 i.                                                                                                                                                                                              c # # o * 1 t t u p j j n n N Y ) ) ( ( ) Y Y Y E ) _ @._ @.@.:.>.2.>.:.,.;.,.;.A i i i w n n m M M m m V I I I I I I I w 7 6 6 6 O . . . ,                                                                                                                                                                                                                                                                                                                                                     ",
"                                                                                                                                                                                                                                                v # . O : t j j n m R E E E ( @.@.%.%.*.K.J.H.H.H.H.H.H.6.1.<.&.&.<.@.( Y ) E m < * * 2 i.                                                                                                                                                                                              c # # o # * < : 6 0 p j n n A U E Y Y Y Y Y Y Y Y ) ( _ ( _ _ :.>.>.:.Y I I T I F A F J I ) :.>.>.<.2.5.5.6.5.2.2.>.>.:.R F J J H 6 % X O ; c i.p.                                                                                                                                                                                                                                                                                                                                              ",
"                                                                                                                                                                                                                                                v # . X : t j j n n L E E E Y ) ( ( ( _ H.H.H.H.K.H.H.H.6.2.@._ _ _ Y W W W W M < * * 1 i.                                                                                                                                                                                              c @ # # o O % = = 6 p j s n A T E Y E Y E E Y Y Y Y Y Y Y Y Y :.>.>.;.m i n M M I E ;.;.@.2.R.R.R.R.!.!.~.~.!.R.H.H.6.6.a.,.,.,.o.0 = O O X , , , 2 g                                                                                                                                                                                                                                                                                                                                           ",
"                                                                                                                                                                                                                                                v # . . : t j j s n J E  .E Y ) Y ( ( ( J.J.H.H.K.H.H.J.6.2.+.( ) _ Y W W W T M < * * 1 i.                                                                                                                                                                                              F.@ # # X @ % $ = 6 u j Z Z Z T E E E Y E E E Y Y Y Y Y Y Y E >.>.,.;.M w i 8 8 / ;.;.;.@.1.R.!.!.~.~.~.~.~.E.R.H.H.6.1.,.,.,.,. .7 & = * * , @ < , q                                                                                                                                                                                                                                                                                                                                           ",
"                                                                                                                                                                                                                                                c * * < < g k k d D L R E Y Y Y E U Y +.5.6.H.H.6.6.H.K.H.<._ _ ( ) T R J ! ! z 1 , , 2 i.                                                                                                                                                                                              c @ o # O * = $ & 6 u j M M m I R R U U U I Y Y Y Y Y ( ( ( _ :.:.>.;.M i w w w A ;.+.@.%.1.K.!.~.~.~.~.~.~.I.H.G.G.1.1.<.+.:.;. .7 $ = = : : : < : g                                                                                                                                                                                                                                                                                                                                           ",
"                                                                                                                                                                                                                                                  c x c k g q q u d D R E Y E Y E U U [ 5.6.G.G.6.6.H.J.6.<.@.` @.) I F Z S k z c c c }                                                                                                                                                                                                 F.@ @ # % : : 6 6 0 u j M M m F I I I I I I Y Y Y Y Y ) ) W ) +.+.:. .m i w w w I ) _ _ %.1.K.L.L.I.L.L.K.L.K.G.G.G.1.*.<.@.:.;. .8 5 5 6 9 6 6 0 w j                                                                                                                                                                                                                                                                                                                                           ",
"                                                                                                                                                                                                                                                          k < < > 7 j L F I I N F N N N +.+.@.@.@.%.<.<.%.@._ _ +.E n w 6 6 9 w.                                                                                                                                                                                                        F.@ @ # ; 9 t p p p s j a a M n m m n M I I U E Y Y Y Y Y I W Y Y E R m M n n M Y >.&.<.*.4.H.K.K.K.K.K.H.H.G.H.L.L.K.K.H.1.4.1.5.I m M F J F R R R R a.                                                                                                                                                                                                                                                                                                                                        ",
"                                                                                                                                                                                                                                                          c O % % = p H m m F m Z n n n I I Y Y ( ( _ _ _ _ ) ) ) E Z 6 $ O ; i.                                                                                                                                                                                                        F.@ # @ < t k j j j d j a a a a a i i M F I R E E Y W W U V V I V F F m F A F I @.6.6.H.G.H.H.H.G.G.H.H.H.G.G.K.~.~.~.~.U.L.L.K.!.1.<.@.2.2.5.j.j.5.,.I 1 < , v                                                                                                                                                                                                                                                                                                                                 ",
"                                                                                                                                                                                                                                                          c O O * > p H Z Z D n Z j j s J I I W Y Y ) ) ) ) )  .E L j & O O * i.                                                                                                                                                                                                        F.4 @ * < t k j j j d d d p s a a i i i F I R E E R I I T F F I F m N A F F I W @.1.1.H.H.H.H.G.G.H.H.H.G.1.P.K.~.~.~.~.U.U.U.L.~.K.4.1.4.H.6.R.H.j.6.C : : : g                                                                                                                                                                                                                                                                                                                                 ",
"                                                                                                                                                                                                                                                          ~ * * O : p H D Z Z j j j j j J J R R R E E E E ;. . .,...l < O @ 1 i.                                                                                                                                                                                                        } @ @ * : t k j d d a d p p p p a a a a F T R R R R T I T T I I F F F F F F I W @.1.1.H.H.H.H.J.H.G.G.G.G.1.P.K.~.~.~.~.U.U.U.E.E.K.P.*.G.G.G.4.6.6.6.' 6 & > t                                                                                                                                                                                                                                                                                                                                 ",
"                                                                                                                                                                                                                                                          p.g g g g g h p p p k t t g t j j Z H F J J L L R L J ! H z k g g v                                                                                                                                                                                                           q.@ @ * : t j j d s a s p p p p a a a n F F T T I T T T J T I F I I F F I I I W +.2.1.1.1.1.4.1.1.1.1.G.G.P.P.H.L.U.L.~.~.~.E.L.E.K.P.P.P.G.G.G.J.6.2.V 0 6 6 h                                                                                                                                                                                                                                                                                                                                 ",
"                                                                                                                                                                                                                                                                  k.k : : < : % : * ; * < : 6 9 6 0 0 0 w u u w t h q.                                                                                                                                                                                                                  } @ @ * ; q j j s s a a p p p j d s a n m F F F F I T T I R I I I I I I I I I I Y @.@.@.@.@.@.%.%.*.1.G.1.G.P.G.H.K.K.K.H.K.H.K.K.H.P.P.G.G.G.4.J.6.2.) M i j j w.                                                                                                                                                                                                                                                                                                                              ",
"                                                                                                                                                                                                                                                                    c % X X . X . . . . . . X X % % % % > > * * : 1 k.                                                                                                                                                                                                                  F.; @ @ : q k s p a p a p p p s d s a a M n n M m F T T I R I I I I I I I I I I I W W W V W V V V ( %.4.4.4.4.1.1.1.1.1.<.<.1.1.1.1.P.G.G.G.4.4.6.6.5.:.R R | ! k * ; , v                                                                                                                                                                                                                                                                                                                       ",
"                                                                                                                                                                                                                                                                    c O . X . . . . . . . . . X O O @ * * * * * * < N.                                                                                                                                                                                                                  } ; @ @ : q k k s a p a p p p s s s s s n M M n n F T T I U I I W I I I I T T T T I I I W W V V V ( @.1.4.4.1.1.1.1.1.1.<.<.1.1.1.1.1.G.4.G.4.4.6.6.<.@.Y E ^ J p $ O * g                                                                                                                                                                                                                                                                                                                       ",
"                                                                                                                                                                                                                                                                    c X . . . . . . . . . . o o o o @ @ ; * * * ; 3 N.                                                                                                                                                                                                                  F.* @ O : q p p p p p p p p p s s s s s n n M n Z J J R R R R Y I I I I I T T T T T T I I I V V V Y @.2.5.<.4.2.1.1.2.2.<.<.*.1.1.1.1.G.G.G.4.4.4.6.2.:.Y E E L p O X O g                                                                                                                                                                                                                                                                                                                       ",
"                                                                                                                                                                                                                                                                    i.v v x x c c c c c c c c c c c c c } } c c c q.                                                                                                                                                                                                                    F.@ O O * q k p p p p p p p p s s s s a a a s Z Z Z Z Z D Z I R I I I I T T T T T T T T I I I V V W +.>.>.>.<.2.2.2.>.>.&.&.*.*.*.*.1.1.*.*.&.&.<.<.<.@.( Y E R s $ O O g                                                                                                                                                                                                                                                                                                                       ",
"                                                                                                                                                                                                                                                                                                                                                                                                                                                                                                                                        c @ # o ; q p p p p p p p p p p s a a a a a s j p 0 0 9 7 0 Z T T T I T I I T T T T T I I I I I F I Y E E E E E E E E E ( ( ( ( +.+.+.$.( ( ( ( ( $.( ( W Y E L d $ X # g                                                                                                                                                                                                                                                                                                                       ",
"                                                                                                                                                                                                                                                                                                                                                                                                                                                                                                                                        c @ # o * q p p p p p p p p p p p a s s a p p p 0 6 = $ $ $ p J J R I I I I T T T T I I I I F F N m N N N m N N N N N F V V V V V W W W V V V V V W W W W I R L k O X # g                                                                                                                                                                                                                                                                                                                       ",
"                                                                                                                                                                                                                                                                                                                                                                                                                                                                                                                                        c # # X * q p p p p p p p p p p p p p p s p p k q : O X X X p J J R F I I I T T T I I I J J F F N m m m m m m m m m m A N N V I I I I I F I I I I I I I W I R L k O o @ b                                                                                                                                                                                                                                                                                                                       ",
"                                                                                                                                                                                                                                                                                                                                                                                                                                                                                                                                        c # # o * q p p p p p p k k p p p p p p p u u h t : O X O X k J J R I R T T T T I I I I J J J F F F F N N N N N F F F F N I U R R R R R R R I I I I I T V I R J p O . # b                                                                                                                                                                                                                                                                                                                       ",
"                                                                                                                                                                                                                                                                                                                                                                                                                                                                                                                                        c # . . @ , 2 r r r r r q q q r r r r r r r r r 2 * X . . O q k x x x j x j j j j j k k h k k k k k h h p p p h h k k k j x l l l z z z l l l k k j k h z z z k q O . O g                                                                                                                                                                                                                                                                                                                       ",
"                                                                                                                                                                                                                                                                                                                                                                                                                                                                                                                                        c # . . o @ , , ; ; ; ; ; , ; ; ; ; ; ; < < < < ; O X . . X ; 9 9 9 9 9 9 6 6 6 9 9 9 9 : : : : : : : : : : : : : : : 6 9 9 9 9 9 9 9 9 q 9 9 6 6 < : < < < 9 1 * X . X q                                                                                                                                                                                                                                                                                                                       ",
"                                                                                                                                                                                                                                                                                                                                                                                                                                                                                                                                        c # o o o o o o . . . . o o X X X X O O O O O O X X . . . . o O O O O % % % % % % O O O O O O X X X X X X X X O O O % % % % % % % * % % % % O O O O O O X X X X . . . . 2                                                                                                                                                                                                                                                                                                                       ",
"                                                                                                                                                                                                                                                                                                                                                                                                                                                                                                                                        c # o o o o . . . . . . . . . X X X X X X X . X . . . . # . o o X X O X O O O O O X X X O X X X X X . . . . . X X X X o O O % O O O O O O X X X . . . . . X . . . . . . 2                                                                                                                                                                                                                                                                                                                       "
};
