/* XPM */
static char *_fc71ecdaf1d4a3dcf58b4bd003c1698chZDA42OqqaE9XgF[] = {
/* columns rows colors chars-per-pixel */
"500 500 256 2 ",
"   c None",
".  c #040302",
"X  c #0B0502",
"o  c #050904",
"O  c #0C0A05",
"+  c #050609",
"@  c #0C0B0A",
"#  c #07080A",
"$  c #120501",
"%  c #130B04",
"&  c #1B0C03",
"*  c #130D0A",
"=  c #1A0B08",
"-  c #14110D",
";  c #1B130C",
":  c #191307",
">  c #0D0D11",
",  c #141312",
"<  c #1B1512",
"1  c #1C1914",
"2  c #1C1B1A",
"3  c #161717",
"4  c #0E100F",
"5  c #230C03",
"6  c #23140C",
"7  c #27170B",
"8  c #351B0B",
"9  c #241B14",
"0  c #2B1C14",
"q  c #241D1A",
"w  c #271A16",
"e  c #321E14",
"r  c #371E15",
"t  c #300D05",
"y  c #3A230D",
"u  c #2C231C",
"i  c #27221A",
"p  c #352215",
"a  c #3B2415",
"s  c #34241C",
"d  c #3A251C",
"f  c #3C2A1D",
"g  c #372A1A",
"h  c #39301A",
"j  c #2A2725",
"k  c #332621",
"l  c #342A23",
"z  c #3C2B22",
"x  c #382A25",
"c  c #3C3324",
"v  c #3C332B",
"b  c #36332A",
"n  c #3A3835",
"m  c #2E2D30",
"M  c #1E1F1F",
"N  c #422514",
"B  c #42261A",
"V  c #432B1C",
"C  c #4A2D1C",
"Z  c #462A15",
"A  c #522D1A",
"S  c #4C321D",
"D  c #47361C",
"F  c #53321D",
"G  c #57381C",
"H  c #44260D",
"J  c #432D22",
"K  c #4A2E21",
"L  c #432C27",
"P  c #443224",
"I  c #4C3224",
"U  c #44332B",
"Y  c #4B342A",
"T  c #4C3B2C",
"R  c #473B27",
"E  c #533424",
"W  c #5A3623",
"Q  c #543A25",
"!  c #5B3A25",
"~  c #533629",
"^  c #543B2B",
"/  c #5B3C2B",
"(  c #5A3629",
")  c #443B33",
"_  c #4B3D34",
"`  c #463C37",
"'  c #553D33",
"]  c #522E23",
"[  c #633C25",
"{  c #633E2A",
"}  c #693C28",
"|  c #693D2F",
" . c #5A3018",
".. c #4B412B",
"X. c #5D422C",
"o. c #564428",
"O. c #4C4135",
"+. c #4C433B",
"@. c #46433B",
"#. c #544334",
"$. c #5C4333",
"%. c #53453B",
"&. c #54493D",
"*. c #5B4B3C",
"=. c #5A4837",
"-. c #5D5139",
";. c #64422C",
":. c #6C442C",
">. c #68482A",
",. c #72452C",
"<. c #73492E",
"1. c #78482A",
"2. c #644432",
"3. c #6B4532",
"4. c #6C4A33",
"5. c #664A38",
"6. c #734B33",
"7. c #7A4D33",
"8. c #744835",
"9. c #695537",
"0. c #7D5235",
"q. c #7C543A",
"w. c #765838",
"e. c #70542C",
"r. c #7A6339",
"t. c #796230",
"y. c #5C431D",
"u. c #4A4946",
"i. c #544C43",
"p. c #5B4D42",
"a. c #544C47",
"s. c #5C5144",
"d. c #58534B",
"f. c #595754",
"g. c #4E5050",
"h. c #644E43",
"j. c #635344",
"k. c #6B5B44",
"l. c #6C5B4C",
"z. c #665649",
"x. c #775A46",
"c. c #675C54",
"v. c #735C50",
"b. c #786449",
"n. c #69625A",
"m. c #746353",
"M. c #7A6554",
"N. c #7C6B5B",
"B. c #786858",
"V. c #796D56",
"C. c #6C6A65",
"Z. c #6B6965",
"A. c #716E69",
"S. c #746C64",
"D. c #74726C",
"F. c #7B7369",
"G. c #7B7874",
"H. c #6F706A",
"J. c #5A5B61",
"K. c #3E403E",
"L. c #825434",
"P. c #82553A",
"I. c #875A3A",
"U. c #8C5337",
"Y. c #87663A",
"T. c #97663D",
"R. c #91723B",
"E. c #A65D3C",
"W. c #875A44",
"Q. c #975C45",
"!. c #8B5C50",
"~. c #A65D44",
"^. c #886746",
"/. c #976645",
"(. c #987648",
"). c #836B58",
"_. c #986755",
"`. c #887659",
"'. c #987754",
"]. c #8B7248",
"[. c #A86649",
"{. c #B46A4B",
"}. c #A57A4B",
"|. c #A86A54",
" X c #A77956",
".X c #B87656",
"XX c #B56E52",
"oX c #847363",
"OX c #8A7563",
"+X c #8D7B6B",
"@X c #897967",
"#X c #927C68",
"$X c #857D77",
"%X c #877165",
"&X c #AF7A64",
"*X c #C77956",
"=X c #C47D63",
"-X c #AA8355",
";X c #B48554",
":X c #B0834D",
">X c #96836B",
",X c #88827B",
"<X c #988676",
"1X c #938871",
"2X c #A79679",
"3X c #AC8C71",
"4X c #A9956E",
"5X c #CB845C",
"6X c #C98866",
"7X c #D9956C",
"8X c #DD9D73",
"9X c #DB9A77",
"0X c #CE8F6E",
"qX c #E29D74",
"wX c #E5986C",
"eX c #DEA176",
"rX c #E4A379",
"tX c #F1A978",
"yX c #E38D5E",
"uX c #8C8884",
"iX c #938C87",
"pX c #98938B",
"aX c #9A9793",
"sX c #A99787",
"dX c #A79D93",
"fX c #B19A88",
"gX c #B8A689",
"hX c #ADA49A",
"jX c #ABA398",
"kX c #B5A89A",
"lX c #B6AB90",
"zX c #B3ACA2",
"xX c #B7AEA5",
"cX c #B9B3A9",
"vX c #B5B4B0",
"bX c #9FA09F",
"nX c #C2AD9B",
"mX c #C8B899",
"MX c #CDB08E",
"NX c #EBAC85",
"BX c #C5B6A5",
"VX c #C5BBB1",
"CX c #D6A48D",
"ZX c #D0C29D",
"AX c #D3C5A3",
"SX c #C9C4BB",
"DX c #D0C5AE",
"FX c #F0C5A4",
"GX c #D9D4CB",
"HX c #DCDAD4",
"JX c #D0CBC4",
"KX c #E2DDD6",
"LX c #E1D8CC",
"PX c #E5E2DB",
"IX c #EAE8E4",
"UX c #BFC1BD",
/* pixels */
"                                                                                                                                                                                                                                                                                                                                                                                                                                                                                                                                                                                                                                                                                                                                                                                                                                                                                                                                                                                                                                        ",
"                                                                                                                                                                                                                                                                                                                                                                                                                                                                                                                                                                                                                                                                                                                                                                                                                                                                                                                                                                                                                                        ",
"                                                                                                                                                                                                                                                                                                                                                                                                                                                                                                                                                                                                                                                                                                                                                                                                                                                                                                                                                                                                                                        ",
"                                                                                                                                                                                                                                                                                                                                                                                                                                                                                                                                                                                                                                                                                                                                                                                                                                                                                                                                                                                                                                        ",
"                                                                                                                                                                                                                                                                                                                                                                                                                                                                                                                                                                                                                                                                                                                                                                                                                                                                                                                                                                                                                                        ",
"                                                                                                                                                                                                                                                                                                                                                                                                                                                                                                                                                                                                                                                                                                                                                                                                                                                                                                                                                                                                                                        ",
"                                                                                                                                                                                                                                                                                                                                                                                                                                                                                                                                                                                                                                                                                                                                                                                                                                                                                                                                                                                                                                        ",
"                                                                                                                                                                                                                                                                                                                                                                                                                                                                                                                                                                                                                                                                                                                                                                                                                                                                                                                                                                                                                                        ",
"                                                                                                                                                                                                                                                                                                                                                                                                                                                                                                                                                                                                                                                                                                                                                                                                                                                                                                                                                                                                                                        ",
"                                                                                                                                                                                                                                                                                                                                                                                                                                                                                                                                                                                                                                                                                                                                                                                                                                                                                                                                                                                                                                        ",
"                                                                                                                                                                                                                                                                                                                                                                                                                                                                                                                                                                                                                                                                                                                                                                                                                                                                                                                                                                                                                                        ",
"                                                                                                                                                                                                                                                                                                                                                                                                                                                                                                                                                                                                                                                                                                                                                                                                                                                                                                                                                                                                                                        ",
"                                                                                                                                                                                                                                                                                                                                                                                                                                                                                                                                                                                                                                                                                                                                                                                                                                                                                                                                                                                                                                        ",
"                                                                                                                                                                                                                                                                                                                                                                                                                                                                                                                                                                                                                                                                                                                                                                                                                                                                                                                                                                                                                                        ",
"                                                                                                                                                                                                                                                                                                                                                                                                                                                                                                                                                                                                                                                                                                                                                                                                                                                                                                                                                                                                                                        ",
"                                                                                                                                                                                                                                                                                                                                                                                                                                                                                                                                                                                                                                                                                                                                                                                                                                                                                                                                                                                                                                        ",
"                                                                                                                                                                                                                                                                                                                                                                                                                                                                                                                                                                                                                                                                                                                                                                                                                                                                                                                                                                                                                                        ",
"                                                                                                                                                                                                                                                                                                                                                                                                                                                                                                                                                                                                                                                                                                                                                                                                                                                                                                                                                                                                                                        ",
"                                                                                                                                                                                                                                                                                                                                                                                                                                                                                                                                                                                                                                                                                                                                                                                                                                                                                                                                                                                                                                        ",
"                                                                                                                                                                                                                                                                                                                                                                                                                                                                                                                                                                                                                                                                                                                                                                                                                                                                                                                                                                                                                                        ",
"                                                                                                                                                                                                                                                                                                                                                                                                                                                                                                                                                                                                                                                                                                                                                                                                                                                                                                                                                                                                                                        ",
"                                                                                                                                                                                                                                                                                                                                                                                                                                                                                                                                                                                                                                                                                                                                                                                                                                                                                                                                                                                                                                        ",
"                                                                                                                                                                                                                                                                                                                                                                                                                                                                                                                                                                                                                                                                                                                                                                                                                                                                                                                                                                                                                                        ",
"                                                                                                                                                                                                                                                                                                                                                                                                                                                                                                                                                                                                                                                                                                                                                                                                                                                                                                                                                                                                                                        ",
"                                                                                                                                                                                                                                                                                                                                                                                                                                                                                                                                                                                                                                                                                                                                                                                                                                                                                                                                                                                                                                        ",
"                                                                                                                                                                                                                                                                                                                                                                                                                                                                                                                                                                                                                                                                                                                                                                                                                                                                                                                                                                                                                                        ",
"                                                                                                                                                                                                                                                                                                                                                                                f.u.u.u.u.u.u.u.f.                                                                                                                                                                                                                      f.u.u.u.u.u.u.g.                                                                                                                                                                                                                                                                                                                                                                                                ",
"                                                                                                                                                                                                                                                                                                                                                                                i @ @ @ @ @ @ @ j                                                                                                                                                                                                                     g.3 @ @ @ O O - 2 f.                                                                                                                                                                                                                                                                                                                                                                                              ",
"                                                                                                                                                                                                                                                                                                                                                                                j @ O # O @ @ @ j                                                                                                                                                                                                                     g., @ # @ % O * 1 f.                                                                                                                                                                                                                                                                                                                                                                                              ",
"                                                                                                                                                                                                                                                                                                                                                                                j @ # @ O @ , , m                                                                                                                                                                                                                     g.3 @ o @ - ; ; 9 f.                                                                                                                                                                                                                                                                                                                                                                                              ",
"                                                                                                                                                                                                                                                                                                                                                                              G.u.n n b 3 # @ @ j                                                                                                                                                                                                                     g.3 @ # j b +.+.u.n.iX                                                                                                                                                                                                                                                                                                                                                                                            ",
"                                                                                                                                                                                                                                                                                                                                                                      f.u.u.d.D.uX,XuXH.n - # * j                                                                                                                                                                                                                     g.3 @ , n F.iXpXiXG.d.u.@.g.                                                                                                                                                                                                                                                                                                                                                                                      ",
"                                                                                                                                                                                                                                                                                                                                                                      j @ @ O n.lXlXlXgXs.O o @ j                                                                                                                                                                                                                     f.1 - , u.2XlXMXlX1XR < @ 2                                                                                                                                                                                                                                                                                                                                                                                       ",
"                                                                                                                                                                                                                                                                                                                                                                      j 4 @ O S.kXlXlXlXs.X @ > 2                                                                                                                                                                                                                     g.3 @ @ u.2XlXgXgX1XR < , 3 J.                                                                                                                                                                                                                                                                                                                                                                                    ",
"                                                                                                                                                                                                                                                                                                                                                                      j - @ O n.kXkXlXkXd.O @ # j                                                                                                                                                                                                                     g.i 3 3 u.1XlXlXgX1Xc % * 2 f.                                                                                                                                                                                                                                                                                                                                                                                    ",
"                                                                                                                                                                                                                                                                                                                                                                    A.n j u g n.<X2XpX1Xd.j m j n                                                                                                                                                                                                                       u.n @.g.F.,X1X1XV.O.s u l d.                                                                                                                                                                                                                                                                                                                                                                                    ",
"                                                                                                                                                                                                                                                                                                                                                            u.@.u.@.n.S.S.V.N.z.i.i.i.+.                                                                                                                                                                                                                                        i.b u h R l.V.V.B.n.f.f.f.                                                                                                                                                                                                                                                                                                                                                                              ",
"                                                                                                                                                                                                                                                                                                                                                            2 , % % F.kXBXkXkXz.O O O 3                                                                                                                                                                                                                                         u.< O : c @XlXlXjX@Xl X . 4 g.                                                                                                                                                                                                                                                                                                                                                                          ",
"                                                                                                                                                                                                                                                                                                                                                            1 O : % oXlXlXmXmXs.: O o 3                                                                                                                                                                                                                                         u.- O - c @XgXgXgX@Xg $ * - u.                                                                                                                                                                                                                                                                                                                                                                          ",
"                                                                                                                                                                                                                                                                                                                                                            q O O % `.lXlXmXmX-.% O o 3                                                                                                                                                                                                                                         g.3 X * c @X2XgX2X`.g % % - u.                                                                                                                                                                                                                                                                                                                                                                          ",
"                                                                                                                                                                                                                                                                                                                                                          G.b b g h >XgXMXgXmX-.% o # 3                                                                                                                                                                                                                                         u., @ @ l N.>X4X4X'.o.7 l l d.                                                                                                                                                                                                                                                                                                                                                                          ",
"                                                                                                                                                                                                                                                                                                                                                  n j b l $XaXsX2XsXgXgXMXMXlX-.: . o 3                                                                                                                                                                                                                                         g., @ O u j.M.].^.`.>X2X2X1XN.R 2 3 2                                                                                                                                                                                                                                                                                                                                                                   ",
"                                                                                                                                                                                                                                                                                                                                                  q * * X 1XcXcXmXlXlXlXgXgXxXs.: o 4 2                                                                                                                                                                                                                                         u.@ X * u *.b.b.b.].>X2X2XsX<Xh @ , <                                                                                                                                                                                                                                                                                                                                                                   ",
"                                                                                                                                                                                                                                                                                                                                                  1 % $ % >XlXmXnXMXlXlXlXlXlXs.O . @ 3                                                                                                                                                                                                                                         g., . X q p.B.N.b.`.2XgXfX2X+Xg O * O u.                                                                                                                                                                                                                                                                                                                                                                ",
"                                                                                                                                                                                                                                                                                                                                                  ; $ % & @XlXlXMXMXgXfXgXlXxXd.< @ # 3                                                                                                                                                                                                                                         u.3 X O u i.m.B.V.`.4X2X2X2X`.Z O % % @.                                                                                                                                                                                                                                                                                                                                                                ",
"                                                                                                                                                                                                                                                                                                                                                  v i 0 7 >XmXmXMXgXgXsX1X<XpXn.b n n                                                                                                                                                                                                                                             n j j n a.f.c.l.b.2X2X2X2X>X2.s s s a.                                                                                                                                                                                                                                                                                                                                                                ",
"                                                                                                                                                                                                                                                                                                                                        u.n n ` c.$X@X+X`.lXmXmXmXmXk.g 0 9 u                                                                                                                                                                                                                                                             f.j % : g `.2X2X2X2XfXjXkXjX<Xa.l b n                                                                                                                                                                                                                                                                                                                                                         ",
"                                                                                                                                                                                                                                                                                                                                        1 - - 1 a.iXpX2X2XgXZXmXmXBX-.7 % % %                                                                                                                                                                                                                                                               3 . O g `.2X2X4X2XmXBXBXDXkX&.: - 1 u.                                                                                                                                                                                                                                                                                                                                                      ",
"                                                                                                                                                                                                                                                                                                                                        3 @ * % &.<X2X2X4XMXZXZXZXBX&.; > > >                                                                                                                                                                                                                                                               2 X * g OX2X4X4X4XMXmXmXAXlXi.- 4 , u.                                                                                                                                                                                                                                                                                                                                                      ",
"                                                                                                                                                                                                                                                                                                                                        3 # @ : *.2X2X2X4XgXmXmXmXBX&.; > > >                                                                                                                                                                                                                                                               2 # * l OX2X2X4X4XMXmXmXAXjX&.- @ @ u.                                                                                                                                                                                                                                                                                                                                                      ",
"                                                                                                                                                                                                                                                                                                                                        3 # * : %.<X2X2X4XgXmXZXmXZX&.; > > >                                                                                                                                                                                                                                                               M @ * l @X2X4X4X2XMXAXAXAXkX&.- @ @ u.                                                                                                                                                                                                                                                                                                                                                      ",
"                                                                                                                                                                                                                                                                                                                                        2 @ O % %.<X2X2X4XgXZXZXZXZX&.; > > >                                                                                                                   g.g.g.g.g.g.f.f.f.g.g.g.g.g.g.g.g.g.u.g.g.                                                                                                  j @ * z @XgX4X4X2XmXZXAXAXlX&.- * @ u.                                                                                                                                                                                                                                                                                                                                                      ",
"                                                                                                                                                                                                                                                                                                                                        3 O O : &.<X2X2X>XlXmXZXmXBXi.< > > >                                                                                                                 m @ > , , , , , 3 , , , > > > > > > > > , , , M                                                                                               j @ * c +XgX4X4X2XmXZXAXAXlX&.- - - u.                                                                                                                                                                                                                                                                                                                                                      ",
"                                                                                                                                                                                                                                                                                                                                        1 O X ; #.<X2X2X>XlXmXZXmXBXi.< > > >                                                                                                                 j # # # # # # O # @ @ # + + + + + . . . X # # 1                                                                                               j @ ; c +XgX2X2X2XmXAXAXAXgX%.: % % u.                                                                                                                                                                                                                                                                                                                                                      ",
"                                                                                                                                                                                                                                                                                                                                        1 % O : =.2X2X2X2XMXZXmXmXZXp.< > > >                                                                                                                 j . . o O @ * @ @ @ * @ @ # O # # % @ % O * * q                                                                                               j * ; c >XgX2X2XgXmXAXAXAXgX&.: : % @.                                                                                                                                                                                                                                                                                                                                                      ",
"                                                                                                                                                                                                                                                                                                                                      Z.u u 0 p 9.2X2X2X2XmXZXmXmXZXp.< > > @                                                                                                                 j o o # * < 1 1 < q q u u j j j l l l b l v v n                                                                                               j > ; U 1XgX2X2XgXmXAXAXAXlXk.g u i @.                                                                                                                                                                                                                                                                                                                                                      ",
"                                                                                                                                                                                                                                                                                                                              f.u.f.u.a.d.z.k.k.>XlXmXmXmXZXZXZXZXBXi.< > > >                                                                                                         g.  g.n 3 o o O 1 n ` ) @.i.c.c.c.c.S.,X+X@X@X@X+X$X,X,Xc.d.g.g.g.g.g.g.g.                                                                            j , ; U >XgX2X2XgXmXAXAXAXlX>Xm.c.c.d.u.u.u.g.                                                                                                                                                                                                                                                                                                                                              ",
"                                                                                                                                                                                                                                                                                                                              i . @ < ) V.oX`.>X2XAXAXAXAXAXZXZXZXBXi.< > > >                                                                                             2 , - # @ # # @ > > + O O @ i u.d.d.d.B.@X,X1X+XsXkXjXkXlXkXkXkXkXhXS.* * @ @ @ > > > j                                                                           j > ; U >XgXgXgXgXmXAXAXAXmX2X>X@X+Xa.j O . @                                                                                                                                                                                                                                                                                                                                               ",
"                                                                                                                                                                                                                                                                                                                              1 @ @ - O.V.`.V.`.2XAXAXAXZXAXZXmXZXBXi.1 > > >                                                                                             1 @ O X O O X . . X @ X X O i +.d.d.d.n.oX+X+X+X2XlXlXgXlXgXlXkXkXhXc.% O X # # @ > 4 j                                                                           j > ; U >XgXgXgXgXmXAXAXZXMX2X@XOXoXd.u . . #                                                                                                                                                                                                                                                                                                                                               ",
"                                                                                                                                                                                                                                                                                                                              2 O O - ..V.`.`.>X4XZXAXAXAXAXZXmXZXBXi.< > > >                                                                                             q - O $ $ % % % X X X $ $ % u @.a.p.p.n.oX+X@X@X<XfXgXfXgXsXgXkXkXkXn.& % @ @ @ @ @ , j                                                                           m , 1 U >XgX2XgXgXmXAXZXZXlX4X`.`.N.i.9 O O #                                                                                                                                                                                                                                                                                                                                               ",
"                                                                                                                                                                                                                                                                                                                              3 o O - ..V.V.V.`.2XZXAXAXAXAXZXmXZXBX&.< > > >                                                                                             j w ; 6 = & = ; ; ; ; ; ; 6 u b ) O.O.s.n.B.m.B.).+X#X+X>X1X<X<X<X<Xc.0 9 9 1 , @ @ 4 2 f.                                                                        j , ; v 1XlXgXgXMXmXZXZXZXlX4X`.`.OXs.9 X o .                                                                                                                                                                                                                                                                                                                                               ",
"                                                                                                                                                                                                                                                                                                                              3 o @ - ..V.`.`.`.2XZXAXAXAXZXmXmXZXBX&.< > > >                                                                           g.g.g.g.g.f.d.d.u.k z d d d p p e e s s s s s 0 w 9 9 9 b &.s.s.s.s.z.z.j.k.l.m.B.m.B.z.#.+.@.` j - O @ 3 m g.f.f.g.g.g.g.f.                                                        j , < R 2XZXmXmXmXAXAXAXZXlX>X`.).`.-.1 . o .                                                                                                                                                                                                                                                                                                                                               ",
"                                                                                                                                                                                                                                                                                                                              3 # O % R V.`.`.`.2XZXAXAXAXAXZXZXZXBX&.< > > >                                                                         j @ , @ > @ * O * w z Y L K K I K K I I I Y Y L s = X X O 9 n +.+.+.+.%.%.&.=.i.i.z.z.c.c.c.c.n.f.n 1 O @ @ @ , @ @ , @ @ @ @ j                                                       j , 1 O.sXDXAXAXZXAXZXZXZXMX>X`.`.`.s.i . . .                                                                                                                                                                                                                                                                                                                                               ",
"                                                                                                                                                                                                                                                                                                                              2 o o - O.V.`.`.`.2XZXZXAXAXAXZXmXZXBX&.< > > >                                                                         3 # @ o # . # O * 6 U Y I K ] K K K I I I Y Y L s & X X O 1 n u.u.+.+.+.i.i.i.z.p.c.c.z.c.c.c.n.c.) 1 O @ @ @ @ # # # + > # # 3                                                       j , ; R sXDXAXAXZXZXAXZXZXMX>X`.).N.&.i o . .                                                                                                                                                                                                                                                                                                                                               ",
"                                                                                                                                                                                                                                                                                                                              1 # . - ..V.`.`.`.2XAXAXAXAXAXZXZXBXAX-.7 : : -                                                                         j O % X % $ X $ & 8 I E F F A A F F F F A F F S y 5 & $ $ 1 n u.u.u.i.%.&.*.p.p.l.l.v.z.l.m.n.n.n.u.< > @ O * % % & & % $ $ X q                                                       l : 6 ..sXDXAXAXZXmXZXZXZXMX>X`.`.`.p.9 X . .                                                                                                                                                                                                                                                                                                                                               ",
"                                                                                                                                                                                                                                                                                                                              3 # o - ..V.`.`.`.2XZXBXBXmXZXAXZXAXmXk.R c v n                                                                         j < < ; < ; 6 6 7 a ^ / ! W W W W W W [ { ! ! ! C 8 t 7 9 u m n n n ` &.&.p.s.z.B.N.).B.oX+X+X,X$Xd.1 > > - 9 q 0 0 7 7 e 0 w j f.                                                  F.+.O.#.l.lXAXAXAXZXmXZXZXZXMX>X`.`.`.s.9 O . .                                                                                                                                                                                                                                                                                                                                               ",
"                                                                                                                                                                                                                                                                                                                              3 # o - ..V.`.`.`.2XMXMXMXlXmXAXZXAXBX<X@XF.F.G.f.g.f.                                                g.u.u.u.u.u.u.u.` x k k s s s s f d I 2.2.3.:.:.:.:.:.:.,.q.q.q.q.3.! I I L j 1 < < 9 v i.p.p.s.c.%X@X@X+X<XjXkXzXhXF.j - * % e Y =.' / / / ^ ' ' ` u.u.g.g.                                    g.g.n.$X,X1X>X1XmXAXZXAXZXmXZXZXmXMX>X`.`.`.s.9 O . .                                                                                                                                                                                                                                                                                                                                               ",
"                                                                                                                                                                                                                                                                                                                              2 # o - ..V.`.`.>X2XgXgXgXgXmXZXmXAXmXlXlXdXjXhXd.1 - , 2                                           j , @ @ , @ # X * w l z L J J L L K K ^ 5.8.8.6.7.6.6.7.6.7.^.^.^.^.q.:.{ / T s $ X X X k i.p.i.s.c.oX+X+X#XsXBXxXcXxX$Xj @ O & s =.z.x.x.x.8.8.x.k.U ; X * * n                                 3 3 2 n $XdXjXjXgXBXAXZXZXZXmXZXmXmXMX>X`.`.`.s.u O . .                                                                                                                                                                                                                                                                                                                                               ",
"                                                                                                                                                                                                                                                                                                                              2 o o - ..V.`.`.`.2XgXgXgX2XmXZXZXZXZXmXlXgXlXxX&.: : * ,                                           M @ @ X @ O X X $ 6 z J V V C J V C C W 3.8.8.1.7.1.1.7.<.7././././.P.:.[ ! E s $ X X X k p.p.a.d.c.oXoX@X#XsXBXkXxXxX$Xu % * 6 d =.h.4.q.P.7.q.q.8.I 5 X @ @ n                                 - ; 1 v F.sXjXgXgXmXAXmXZXZXZXmXmXmXMX>X`.`.oXs.u O o o                                                                                                                                                                                                                                                                                                                                               ",
"                                                                                                                                                                                                                                                                                                                              2 @ o : ..V.`.`.`.2XgXgXgX2XmXZXZXAXAXlXgXlXlXlX-.& : % <                                           j O O O O X X $ % 7 f V V V V C C C A W 3.,.<.,.1.1.1.1.1.0.^./././.L.,.[ W E r & $ $ $ l d.d.s.z.n.oX+X+X#XsXBXBXVXcX$Xu % % & s $.h.8.8.q.7.q.q.4.E 5 $ $ * n                                 - % ; v @XsXfXsXfXmXAXZXZXZXmXmXmXmXMX>X`.`.oXs.u O o o                                                                                                                                                                                                                                                                                                                                               ",
"                                                                                                                                                                                                                                                                                                                              2 # O < O.V.`.`.`.4X2XgX2X2XmXmXZXZXAXmXlXlXlXlXV.g g l v                                           x ; ; < ; = ; & 5 e V V V V C E E W W [ :.<.,.,.1.7.L.0.0.I./.T.T.T.I.1.1.:.;.C 7 5 6 6 l ` ` ) @.s.oX+X+X>XsXnXBXBXxX<X&.v c v U Y ^ / ! [ 6.7.w.6.E 8 5 5 6 v                               +.l g l &.1XfXfXgXlXmXAXZXZXmXmXmXMXMXgX>X`.`.`.s.u O X o                                                                                                                                                                                                                                                                                                                                               ",
"                                                                                                                                                                                                                                                                                                                              2 @ O < O.V.`.`.`.4X2XgX2X2XmXmXAXZXAXmXmXmXmXBX2X`.F.F.S.f.u.n u.u.u.                u.u.u.u.u.u.U k l l z s s s s f V V V V C I { ;.3.:.:.<.<.,.,.7.I./.^.Y.T./.T.T.T.T.I.I.W.x.2.I z L v k q 1 9 9 U B.+X+X>XsXBXBXBXcXhXiXpX<X$Xd.s 5 5 5 y / :.6.:.! Q Q Q I v ) ` u.u.u.u.u.u.u.u.u.n K.u.g.n.B.F.F.@XsXmXmXmXmXmXAXZXmXmXgXgX2X2X2X>X`.`.oXs.u O X o                                                                                                                                                                                                                                                                                                                                               ",
"                                                                                                                                                                                                                                                                                                                              2 @ O ; O.V.`.`.`.2X2X2X2X2XmXAXAXZXAXAXAXAXAXAXgX2XsXsXpXa.* * # @ # - @ # @ > @ @ @ @ @ @ @ @ @ 7 z L z U U L z L J J K V V C E :.:.:.:.:.<.,.,.,.7./././././.T.T.T.T./././.^.^.8./ ^ _ ) l * X O % l m.+X1X>XsXBXBXBXBXBXcXcXcXjXB.u $ $ % e ^ 5.3.:.:.w.x.x.w.+.6 X O O # # @ @ # @ @ # @ @ n F.<X2XpXsXxXBXAXAXAXZXZXZXmXmX2X2X2X2X2X>X`.`.`.s.u O O o                                                                                                                                                                                                                                                                                                                                               ",
"                                                                                                                                                                                                                                                                                                                              2 @ O ; O.V.`.`.`.4X2XgX2X2XmXZXAXZXAXAXZXAXZXAXgX2X2XsX<Xi.% O O o . O # o # # # o X o o o O O @ 0 z P L L L P I J J V C V C K ~ :.:.:.:.:.:.,.,.<.0./././.T.T.T.T.T.T./././.^.^.6.! E T U l * @ % % l B.+X+X>XsXBXBXBXBXcXxXxXxXdXB.9 X X $ 0 ^ 5.4.:.<.0.I.W.P.%.6 X X X O O # # # @ # # @ @ n @X2X2X2XsXlXmXZXmXZXmXZXmXmXmX2X2X2X2X4X`.`.`.`.s.u O O o                                                                                                                                                                                                                                                                                                                                               ",
"                                                                                                                                                                                                                                                                                                                              2 # O ; ..V.`.`.`.2X2XgX2X2XmXZXAXZXZXAXZXAXZXZXgX2X2X2X<X&.$ X O O O O O O O # @ O O O X O X O O 7 f P P J J J J P K C K C C K E :.:.:.:.:.<.<.,.<.7././.T.T.T.T.T.T.T./././././.6.W E Y Y k * # O % l B.1X>X>XsXBXBXBXBXBXBXxXnXdXB.q X X % 0 _ 5.3.:.1.L.T.T.I.&.0 X X X O O O O O # X # @ O n oX2X<X2X2XlXmXZXAXAXZXAXmXmXmX2X2X2X2X4X`.].`.oXs.u O O o                                                                                                                                                                                                                                                                                                                                               ",
"                                                                                                                                                                                                                                                                                                                              3 @ O : ..V.`.`.`.>X2X2X2X4XgXmXmXmXmXAXAXAXZXZXMXgXgXfXsXm.c l c l u ; 1 1 1 < 1 < 1 < < i i i 9 0 0 d s p f V J I I E E W E E / :.:.:.:.:.:.:.:.:.7./././.T.T.T.T.T././././././.0.:.;.2.=.z * O O % l B.1X>X>X<XfXdXsXsXdXgXgXgXpXn.q X O % q ' 5.3.,.1.L.U.U.L.*.e $ $ O - 1 i 2 2 1 @ @ @ @ n >XsXsXsXfXlXmXAXmXmXmXmXMXMXlX4X4X>X4X>X`.`.`.oXp.u O O #                                                                                                                                                                                                                                                                                                                                               ",
"                                                                                                                                                                                                                                                                                                                              2 @ O : R V.V.].].b.`.`.`.`.4X2XgXgXgXmXZXAXAXAXmXmXmXmXBXsX1X1X1X+XS.&.+.+.+.) ) ) ) ) @.c.c.z.z.l 6 : & & e f J C I ! 2.2.2.:.3.:.:.:.:.:.:.:.:.:.7./././.T.T.T.T.T././././././.T.P.P.x.x._ : % O - l B.+X+X@X).l.v.c.v.B.@X>X>X+Xz.9 X O % e ' 5.3.,.1.1.1.1.1.*.p & & : i n @.+.@.b 1 - * - @.2XlXlXlXlXmXZXAXmXmXgXgXgXgX2X>X`.`.`.`.].V.).F.p.u O O #                                                                                                                                                                                                                                                                                                                                               ",
"                                                                                                                                                                                                                                                                                                                              2 # O : R V.V.V.].].`.`.`.`.4X2XgX2XgXmXAXAXAXAXAXmXAXZXBXlXfXfXfXdX<Xz.j.j.z.p.&.&.%.&.p.F.F.N.N.n - X X $ 0 f V V S ! 3.4.3.:.,.:.:.:.:.:.:.:.:.:.7././././.T.T.T././././.T./.T./.T./.^.).#.& $ # - l B.+X+XOXm.*.p.p.j.m.oX>X+XF.s.9 X O $ 0 ^ 2.:.,.,.,.,.<.<.=.d 5 6 ; u +.d.f.f.@.q * % - u.sXmXmXBXmXAXAXAXAXmXMXgXgXlX2X`.V.b.b.b.].`.).F.s.u @ @ #                                                                                                                                                                                                                                                                                                                                               ",
"                                                                                                                                                                                                                                                                                                                              2 @ O - U m.V.V.V.].`.`.).).>X2X2XgXgXmXAXAXAXAXAXAXAXAXAXmXlXgXgXgX<Xk.k.l.l.j.p.*.*.*.*.oXoX`.N.n @ O X $ 0 z V V F ! :.,.,.,.,.:.:.:.:.:.:.:.:.:.<./././././.T./././././.T.T.T.T.T./.^.^.^ & $ @ - l B.+X+X@Xm.*.*.p.h.m.@X>X@XG.d.9 O O O 0 ^ >.:.:.:.:.:.3.4.$.B 7 7 ; i +.d.f.f.` 1 % % % u.2XmXmXmXmXZXZXZXZXmXlXgXlXMX2X'.`.`.].].`.`.).oXs.u * @ #                                                                                                                                                                                                                                                                                                                                               ",
"                                                                                                                                                                                                                                                                                                                              i @ # - c m.V.V.b.`.`.`.`.`.>X2XgXgXgXmXAXAXAXAXAXAXAXZXZXmXgXgXgXgX2Xk.l.m.l.j.h.*.*.*.*.oXoXoXoXn @ O X X 9 f J V S W :.,.,.,.1.<.:.:.:.:.:.:.:.:.6./././././.T././././.T.T.T.T.T.T./.^.^.o.& & @ * j B.@XoXoXm.*.p.*.h.m.+X>X@XF.d.1 . O $ e Q 3.<.:.:.>.>.4.4.$.B 7 7 7 u +.d.f.f.@.1 - - - u.2XlXmXmXmXmXmXZXZXmXMXgXlXMX2X>XV.`.].`.`.`.`.@Xd.j * @ #                                                                                                                                                                                                                                                                                                                                               ",
"                                                                                                                                                                                                                                                                                                                                n K.u.u.u.d.d.s.k.`.`.`.`.>X2X2X2X2XMXmXmXmXmXZXAXAXAXZXmXgXgXgXgX2X`.`.@X`.m.*.*.=.=.j.>X>X>X#X` * X X X 9 f V V C W :.,.<.<.,.:.:.:.:.:.:.:.:.:.6.q.I.I.I.T./.T.T./././././.T.T.T.T./.^.^ = % O - j c.F.N.N.B.m.l.l.v.N.@X+X+XG.d.q X X $ 7 ^ 2.:.:.:.:.:.:.3.;.C Z N a J U +.@.@.` l u u s &.>X1X2X2X2XlXmXmXmXlX2X2X2X2X2X>X`.].`.`.m.n.n.n.d.u.n `                                                                                                                                                                                                                                                                                                                                                 ",
"                                                                                                                                                                                                                                                                                                                                        m q u i =.V.`.`.`.`.>X>X>X>X2XgXlXlXlXmXmXZXZXZXmXmXmXmXMXlXfXlXlXgX>X-.*.*.*.m.sXfXfX2X@.- O O X 9 f V V C W :.<.<.<.,.:.:.:.:.:.:.:.:.:.:.<.7.1.1.I.T.T.T./././././.T.T.T.T./.^.X.: % O * i a.n.m.B.N.@XoXoXoX+X+X1X+XG.d.q . X $ 0 ^ 5.3.:.:.:.:.:.:.;.! ;.2.$.Y s 9 i i b @.d.z.p.s.#.O.&.-.b.2XMXmXmXgX>X>X>X>X>X`.`.`.`.b.O.v v v a.                                                                                                                                                                                                                                                                                                                                                      ",
"                                                                                                                                                                                                                                                                                                                                        M O % & ..V.`.`.`.`.`.`.`.>X2XgXgXgXgXMXmXZXZXAXZXZXZXZXmXAXmXAXAXBX2X*.*.*.*.m.jXkXlXgXu., X O O 9 f V V C W :.<.<.<.,.<.<.:.:.:.:.:.:.:.:.:.:.:.,.L.Q.T.T./././././.T.T.T././.^.' = % O O q %.z.z.l.N.>X>X#X#X#X>X#X+XG.d.q . X $ 0 T 2.2.:.:.:.:.:.:.3.:.4.8.5.^ 9 O O @ j a.S.S.B.s.c s g h -.<XlXmXlX2X>X`.>X`.`.`.`.`.`.k.h ; : - u.                                                                                                                                                                                                                                                                                                                                                      ",
"                                                                                                                                                                                                                                                                                                                                        2 @ % : ..V.`.`.`.`.`.`.`.`.2XgXgXgXgXMXmXmXZXAXZXAXAXAXAXAXAXAXZXBXsX=.=.=.=.l.lXkXlXfXa.; X O $ 9 f D C C W :.:.<.<.,.<.<.:.:.:.:.:.:.:.:.:.<.,.1.L./.T.T./././././.T.T.T././.^./ & $ O O q &.c.z.l.N.+X#X#X#X>X#X+X+XG.d.9 X X $ w _ =.2.;.:.:.:.:.:.3.:.3.3.5.^ 6 O O O i d.B.S.N.s.l u u g -.1XlXlXgX2X>X`.`.`.`.`.].`.`.k.g : - - u.                                                                                                                                                                                                                                                                                                                                                      ",
"                                                                                                                                                                                                                                                                                                                                        3 O X & O.`.`.`.`.`.`.`.`.`.2XgXgXgXgXMXmXmXZXZXZXAXAXAXAXAXAXAXAXBXsX=.=.*.=.m.lXkXlXgXu., X O $ 9 f P C C W :.:.<.<.<.<.<.<.<.:.:.:.:.:.:.:.<.<.1.0.W.T././././././.T.T.T.T./.^./ 5 $ X O q +.c.z.z.N.#X>X1X#X#X#X+X+X@Xs.9 X X % w _ =.$.;.;.;.:.:.:.>.4.:.3.4.^ 6 O . @ i d.B.N.N.s.j u i u #.1XlXlXlXgX>X].`.`.`.`.`.`.`.l.g : - 4 u.                                                                                                                                                                                                                                                                                                                                                      ",
"                                                                                                                                                                                                                                                                                                                                        2 @ O : O.`.`.`.`.`.`.`.`.`.4X2X2X2X2X2XgXgXlXlXMXmXmXmXZXmXmXZXmXmX2X=.=.=.=.l.sXfXfXsXu.< O O $ 0 f P C C W :.:.<.<.<.<.<.<.<.:.:.:.:.:.:.:.:.,.<.7.I.I.I.I.I./././.T.T.T.T./.^.;.7 5 < ; q v +.+.=.B.+X#X#X#X+X+X#X+XoXm.O.b b v v v U L I E { :.:.:.>.:.<.3.4.^ 6 O . @ i a.n.m.B.#.j 9 9 i O.@XsXgX2X2X'.`.`.`.`.`.`.`.@Xl.g : - @ u.                                                                                                                                                                                                                                                                                                                                                      ",
"                                                                                                                                                                                                                                                                                                                                        M @ X % O.`.`.`.`.`.`.`.`.`.>X>X>X>X>X>X>X>X>X>X2XgXMXlXMXMXMXMXMXgX2X=.#.=.=.j.>X1X1X>Xu.- O O $ i z V C C W :.:.:.<.<.<.<.<.<.:.:.:.:.:.:.:.:.:.,.<.7.1.1.1.L.^././.T.T./././.^.4.N a l k u q 9 0 z z.+X+X#X#X#X#X+X@X+X1X1X,X,X$Xd.l ; 6 7 N ! 3.<.:.>.<.:.:.4.^ 7 % O @ q ` d.z.j.R 3 * % : l k.OX+X`.`.`.`.`.`.`.`.'.`.@Xv.l - - , g.                                                                                                                                                                                                                                                                                                                                                      ",
"                                                                                                                                                                                                                                                                                                                                        3 @ X % O.N.OX`.`.`.`.`.`.`.`.`.`.`.`.`.`.`.`.`.4XgXgXgX2XgXMXgXMXgX<X$.#.=.=.j.oXoX@XoX` * O O $ i z V C C W :.:.<.<.<.<.<.<.<.:.:.:.:.:.:.:.:.<.:.,.:.:.} ,.0.I./././.T././././.8.E I ) v k = X X 9 p.+X+X#X#X#X#X#XOX+X2XkXkXzXjXC.q X X & e ! 4.<.:.:.,.,.:.4.^ 7 % O @ q ) %.&.=.R 3 # O % u -.V.).`.`.`.`.`.`.`.`.`.`.@Xl.l - , , g.                                                                                                                                                                                                                                                                                                                                                      ",
"                                                                                                                                                                                                                                                                                                                                        2 O X - O.oXoX`.`.`.`.`.`.`.`.`.`.`.'.'.`.`.`.'.4XgXgXgX2XgXMXMXgXgX1X=.=.=.=.j.oXoX@X`.n - X X $ 0 f V C C W ;.4.3.:.:.<.<.,.,.:.:.:.:.:.:.:.:.:.:.:.:.,.,.1.L.^././././.T./././.6.W ] Y ) s % X $ 6 p.+X+X#X#X#X#XOXOX#X2XlXkXzXjXA.i X X $ e ^ 3.:.,.,.:.,.<.8.^ 7 % % O q ) %.p.&.P 3 # X O u -.V.V.V.`.`.`.`.`.`.`.`.`.+Xc.l - @ , g.                                                                                                                                                                                                                                                                                                                                                      ",
"                                                                                                                                                                                                                                                                                                                                        i @ * ; &.F.oXOX`.`.`.`.`.`.`.`.`.`.'.'.`.'.'.'.4X2XgXgXgX2X2XgXgXgX1X=.=.=.=.5.oX@X@XoXn - X X O 0 f J V C W ;.3.3.3.4.<.<.<.<.:.:.:.:.:.:.:.:.:.:.:.:.,.,.1.0.W././././.T./././.7.! W Y Y s % X % 9 p.@X#X#XOX#X#X#X#XOX2XgXkXzXjXA.j X X $ e ^ 3.:.,.>.:.,.<.8.! 7 & % % q ) i.a.&.v , # O O i -.b.V.V.`.].].`.`.`.`.).`.@Xc.b 3 3 M g.                                                                                                                                                                                                                                                                                                                                                      ",
"                                                                                                                                                                                                                                                                                                                                          ` n ) f.n.n.m.b.V.`.`.`.`.`.`.`.`.`.`.`.`.'.'.>X2X2X2X2X2X2X2XgXgX>X=.=.=.*.j.@X@X@X`.n , O X O 9 z J V K E / { { ;.2.<.1.<.<.<.<.:.:.:.:.:.:.:.:.:.:.,.,.<.7.I.I.I.I.I.I.I.I.I.<.W W Y Y s % X O 9 s.@X+XOXOX#X>X>X>X<X2XsXfXjXpXZ.j X X % e ^ 5.:.,.<.,.1.1.8./ y 7 6 ; q b ) ) v u @ . . O i -.b.V.V.].`.`.`.`.V.k.v.m.n.f.g.u.n u.                                                                                                                                                                                                                                                                                                                                                        ",
"                                                                                                                                                                                                                                                                                                                                                  v s p g l.`.`.`.`.`.`.`.`.`.`.`.`.'.'.>X>X>X>X>X>X>X4X>X<X`.$.=.*.*.j.@XOXOX`.@.- O X X 9 z J J C C E E E E / <.<.<.<.6.<.<.<.:.:.:.:.:.:.:.:.<.,.1.<.7.0.L.L.L.L.L.L.7.:.W ! ~ Y s % X O 1 s.@X+XOX#X3XfXfXgXfX2X<X<X<X,Xc.i O X % p ^ 5.:.,.<.,.1.1.8.;.V p g u q q w q 1 - # . . X 9 *.m.M.b.V.`.`.).V.k.D s s l d.                                                                                                                                                                                                                                                                                                                                                                ",
"                                                                                                                                                                                                                                                                                                                                                  q $ % % j.oX`.`.`.`.`.`.`.`.`.`.`.`.`.`.`.'.`.'.'.`.`.`.`.M.=.=.*.*.j.@XoXOX`.@.- O X X 9 z J J V C C C C S E <.<.6.<.<.<.<.<.<.<.<.<.<.<.,.,.<.<.<.,.1.1.1.1.1.1.1.<.<.[ W W ^ Y s $ X O 1 s.+X@XOX>X2XgXnXnXgX2X+X@X+X@Xd.q O X % p ^ 3.<.,.:.<.1.1.8.:.S P P z u < $ X X . + . . X 9 &.m.M.V.V.V.V.V.N.k.7 O O - g.                                                                                                                                                                                                                                                                                                                                                                ",
"                                                                                                                                                                                                                                                                                                                                                  < O % O s.oXoX`.`.`.`.`.`.`.'.`.`.`.`.`.`.`.`.`.'.`.'.'.`.M.*.=.*.*.j.@XOXOX`.` - O X X 9 z L J V V V V V K ~ <.6.6.6.<.<.<.<.<.<.<.<.<.<.<.<.<.6.<.<.1.1.1.1.1.1.<.<.<.[ W W ^ Y s $ O O 1 s.+X+XOX#X2XlXnXnXnXfX>XOX+X@Xd.q X X % p ^ 3.<.,.:.<.1.,.<.:.F I P c s ; X . . . . . . X 9 *.m.N.V.V.).).N.`.k.7 O O @ g.                                                                                                                                                                                                                                                                                                                                                                ",
"                                                                                                                                                                                                                                                                                                                                                  j , - % d.oX@X`.`.`.`.`.`.`.`.`.`.`.`.`.`.`.`.`.'.`.`.`.`.b.*.*.*.*.j.@XOXOX`.` - O X X 9 z L J J V K V V I Y :.:.6.6.<.:.<.<.1.1.<.<.<.,.,.,.,.,.<.<.<.<.1.1.1.1.<.6.<.[ W W Q E s % O O 1 a.@X+XOX>X2XlXnXnXlX2X>X+X1X@Xd.9 X X % p ^ 4.<.,.4.4.<.,.<.} F I V P s ; X X o . . . . X 9 =.v.m.b.b.b.V.B.B.s.p @ - ,                                                                                                                                                                                                                                                                                                                                                                   ",
"                                                                                                                                                                                                                                                                                                                                                    n n b n.n.n.b.b.b.b.b.b.].`.`.`.`.`.`.`.`.`.`.`.b.x.b.b.l.5.*.*.*.j.oX`.`.).` - O X O 9 z L J J V J V V J I [ :.:.:.:.:.:.<.<.<.1.<.<.,.,.,.,.,.<.<.1.1.1.1.1.1.1.<.:.[ G G E E s % O O 1 a.+X+X#X#X<X2XsXsX2X<X+X@X+XoXs.9 X X $ e ^ 4.<.,.3.3.,.<.<.} F I D P s = X X . . . . . . ; _ -.9.9.9.9.9.j.j.*.U n n                                                                                                                                                                                                                                                                                                                                                                     ",
"                                                                                                                                                                                                                                                                                                                                                            @.m b l b b n b v l.V.`.].].`.].`.`.oXm.V I Y T #.*.p.p.*.h.v.l.v.z.j * X X X w z L V V V V V V C K E ~ / E / 4.6.<.1.1.1.<.<.<.1.<.<.1.<.<.<.<.1.1.<.<.<.6.:.{ W E E I p $ X O 9 i.@X@X#XOXoXN.B.S.m.).OX@X+X@Xs.i X X % 0 ^ 3.1.1.1.1.<.<.6.{ E E I P u - o . . o . o . . # 3 2 i i i j j j j n                                                                                                                                                                                                                                                                                                                                                                           ",
"                                                                                                                                                                                                                                                                                                                                                            j # O O O O O % : R V.`.`.`.'.`.`.`.oXl.7 7 7 e U h.p.h.p.p.z.*.j.*.j O X X $ 0 z L J J V V V J J J K K I F W 3.,.,.1.1.1.<.<.<.,.,.<.<.<.<.<.<.<.<.<.<.:.:.;.! W A I I s % X O 1 &.+X+X#X`.M.j.i.p.5.m.`.+X1X@Xs.9 X X % s ^ 3.,.,.<.<.<.<.8.{ E I I U s - X . . . . o . . . . . . . . . . . X n                                                                                                                                                                                                                                                                                                                                                                           ",
"                                                                                                                                                                                                                                                                                                                                                            1 @ O O O @ @ * % O.V.`.`.`.`.`.`.`.oXl.5 0 e e J *.*.h.p.p.j.i.p.*.j @ X X % q x z z L J J J J J J C C C C W 3.8.8.6.6.<.1.<.<.<.,.,.,.,.<.6.<.<.<.<.:.:.3.;.! E F I P s % X O 1 i.@X@XOX`.b.5.*.p.*.l.oX+X+XoXs.i X X % s ' 3.:.1.,.<.6.8.8.{ E I I L u : O . . o . . . . . . . . . . . o . . n                                                                                                                                                                                                                                                                                                                                                                           ",
"                                                                                                                                                                                                                                                                                                                                                            j , O @ @ , @ @ * @.B.N.`.`.`.`.OXOX+Xv.6 e p p P p.p.p.p.p.z.d.d.i.j @ # X * q l v z z L L L L z z J V I I / 5.8.8.6.8.4.,.3.3.3.3.3.3.4.4.4.4.4.4.3.3.2.2.2./ E E Y P u % X X < i.@X@XOX`.b.5.=.*.5.m.OX+X+XoXs.u X X * j #.5.4.4.4.4.4.8.4.;.E I P J u : O . . . . . . . . o o o X o . O # @                                                                                                                                                                                                                                                                                                                                                                             ",
"                                                                                                                                                                                                                                                                                                                                                              n K.K.n n n n ` u.c.z.l.l.l.l.c.c.n.z.s g f z T p.p.*.p.&._ O.` ) 2 @ + o @ 9 j k k k s s s s s s d s d f P ^ ^ / / / / ! ^ ^ ^ ^ ~ ^ ^ ^ Q Q Q Q E ~ E Y I P J f z l q O X X < i.+X@XOXOXN.k.5.j.k.m.OX+X+X@Xs.9 O X @ q U T E ^ ^ ^ ^ ^ ^ ~ J J z z 0 - O o . . o . . o , m n m n n n n n                                                                                                                                                                                                                                                                                                                                                                               ",
"                                                                                                                                                                                                                                                                                                                                                                                b u u u u u u k u U O.+.%.O.%.*.*.p.p.) 9 9 1 1 , # + o X * * ; ; ; ; ; = = : ; : : ; : 6 0 0 0 0 0 0 0 0 0 7 0 0 0 7 0 0 7 7 7 7 6 6 6 6 6 : = : ; * X o X - u.@X@XOXOXOX`.`.`.N.oX@X+X+XoXs.i O O O - 9 w 6 7 7 0 0 0 e 0 9 w w 9 ; O O o . . . . . @ n                                                                                                                                                                                                                                                                                                                                                                                               ",
"                                                                                                                                                                                                                                                                                                                                                                                q O O O O O X O O i +.&.&.%.i.p.*.p.s.v O X . O @ # # o . X . . . X X X X X X X X X O O O % $ $ $ $ $ $ X X X X X X O X X X X X X X . . . . . . . X X . o X - +.@X@XOXOXOX@X@X@X#X#X#X+X@X@Xj.u X O o o O $ X X $ % $ % % % % * O @ O o + # + + o o . @ u.                                                                                                                                                                                                                                                                                                                                                                                              ",
"                                                                                                                                                                                                                                                                                                                                                                                j O O O O O . # O 1 a.i.s.i.i.&.p.p.s.v O O O # o o # o . X . X X X X X X X O X # # @ # O * O * * % % % O O O O O # # O O O X X . . . . . . . . X X X . X . - +.@X@XOXOXOXOX#X#X+X+X#X#X+X@Xj.0 X O O X O O X O @ * @ @ * * @ * # @ # # # # + + o o o # u.                                                                                                                                                                                                                                                                                                                                                                                              ",
"                                                                                                                                                                                                                                                                                                                                                                                j @ @ O @ @ . + o q u.a.i.s.i.p.&.p.s.v O X O # O O O O . X X O X X X X X O X O # # # O O * - * - % O @ @ O O O O O X . O O X X X . . . . . . . . X . . . . : @.@X@XOXOXOXOXOX#X#X+X#X+X#X+Xj.0 X O O O O O O O @ O O O @ * * * O O O O @ o # o # . # > u.                                                                                                                                                                                                                                                                                                                                                                                              ",
"                                                                                                                                                                                                                                                                                                                                                                                    u.n 2 # . @ . 3 n n n ) ) ) ) ) ) b 1 < , 1 - - ; ; ; ; ; ; ; ; 1 9 9 9 ; i j j j l u 9 9 9 i u u u u u u u i i i u l b b b b l l b j i 2 M u i q < < - 9 %.@X@XOXOX#X#X#X#X#X+X#X+X#X@Xz.z ; 9 1 1 q q 1 1 i l b v v v l u u u u q u q q < > o @ , u.                                                                                                                                                                                                                                                                                                                                                                                              ",
"                                                                                                                                                                                                                                                                                                                                                                                          @ . o . @ < 1 < < 1 9 1 9 9 l b b n n v v v n n ) ) ) ) ) +.i.a.s.i.c.@X+X$X@XB.%.*.&.p.j.l.l.z.z.l.z.z.z.z.n.@X+X+X1X+X+X+X+XF.n.z.z.c.c.i.) v v ) z.+X+X+X#X#XOXOXOX#X#X@X#X#X+Xm.%.) ) @.+.a.d.d.d.z.S.+X+X+X+XF.l.-.-.-.*.p.&.&.U 3 # @ , u.                                                                                                                                                                                                                                                                                                                                                                                              ",
"                                                                                                                                                                                                                                                                                                                                                                                          4 # . o . . . . . O X . X X l a.a.d.a.i.i.i.s.s.s.s.s.d.s.c.B.F.F.F.1XxXBXkXkXsXm.N.B.B.oX+X+X@X@X@X@X@X@X+X<XgXkXkXkXkXkXkXkXkX<X+X@X+X@Xn.i.&.%.&.m.+X+X+X#X#XOXOXOX#X#X#X#X#X+XS.c.s.d.d.c.S.F.F.F.+XsXkXkXkXnXfX+XB.B.V.m.m.m.m.=.2 @ > , u.                                                                                                                                                                                                                                                                                                                                                                                              ",
"                                                                                                                                                                                                                                                                                                                                                                                          4 # . . . . O X . . . X X X k d.s.p.p.p.s.s.s.s.s.s.s.z.j.n.S.oXoX@X<XBXBXBXBXfXm.N.N.B.OX>X>X+X+X#X#X@XOX#X2XkXBXnXnXnXnXnXnXlX2X+X@X+X+XB.*.*.*.*.m.+X+X+X>X#X#X#X#X#X#X#X>X>X+XF.c.j.j.j.l.N.oXoXoX>XgXnXnXnXmXfX+XN.M.V.m.m.M.M.*.M * * 3 u.                                                                                                                                                                                                                                                                                                                                                                                              ",
"                                                                                                                                                                                                                                                                                                                                                                                          @ # . . . . . . . . . . X X j a.p.p.p.s.s.s.j.j.j.s.j.z.z.m.oX@X+X+X<XVXVXBXBXfXN.M.M.B.oX#X>X+X+X#X#X#X#X>X2XnXBXmXmXnXBXnXnXkXsX>X+X+X+XB.*.*.*.5.m.+X+X+X+X+X#X#X#X#X#X+X>X1X+XF.c.j.j.j.l.N.oXoXoX<XfXnXnXnXnXfX>X).N.B.m.m.M.M.*.M * * < g.                                                                                                                                                                                                                                                                                                                                                                                              ",
"                                                                                                                                                                                                                                                                                                                                                                                          > # X X X , - @ , , 3 , * 1 l i.p.h.j.p.p.p.h.j.h.j.j.j.j.v.B.).).oX#XkXkXjXdX<XB.m.m.B.N.`.oXoX`.`.`.`.`.`.>XsXfXsXfXfXkXlXlXgX2X+X>X@X@XB.*.$.*.5.m.+X+X@X+X>X>X<X<X>X>X>X>X<X1XF.c.j.j.5.l.N.oXOXOX+X<XsXsXsXsX1X`.B.m.m.m.m.B.m.=.q * > 3 g.                                                                                                                                                                                                                                                                                                                                                                                              ",
"                                                                                                                                                                                                                                                                                                                                                                                          > . . X * j b m n m m m m v ) p.h.p.*.h.p.h.h.h.j.j.j.z.j.l.v.m.m.v.N.@XoXoX@XN.c.l.n.m.m.m.B.B.m.m.m.m.m.l.m.B.M.m.B.+X<X<X<X2X1X@X1X+X+XV.5.=.5.5.b.+X@X@X+X<X2XfXfXfX2X<X1X1X1XF.c.j.j.j.x.).`.`.`.oXoX@X@XoXN.m.j.j.j.z.v.m.m.B.*.M * , 3 g.                                                                                                                                                                                                                                                                                                                                                                                              ",
"                                                                                                                                                                                                                                                                                                                                                                                          , o o X - u.u.+.+.&.%.%.&.i.i.p.p.h.h.h.h.p.s.s.s.s.5.j.j.j.k.k.z.z.l.k.k.9.9.k.l.l.k.l.l.l.l.l.l.l.l.k.k.k.j.*.=.=.*.m.+X<X+X1X1X+X+X#X#X).5.5.5.5.M.+X@X+X@X<XlXkXkXkXfX<X1X<X>XN.v.j.j.j.l.B.oX`.`.`.).M.M.M.k.=.#.#.*.5.v.v.m.N.=.2 > , 2 g.                                                                                                                                                                                                                                                                                                                                                                                              ",
"                                                                                                                                                                                                                                                                                                                                                                                          , o o X < a.a.a.i.p.i.p.p.p.p.p.p.p.p.h.h.p.p.s.s.s.s.j.j.j.j.j.j.z.z.j.j.*.*.j.l.l.l.k.k.l.l.k.k.z.j.k.k.k.j.=.O.O.=.l.+X<X1X1X1X+X+X+X#XN.5.*.*.5.m.#X@X@X@X<XkXkXkXkXfX<X1X<X1XN.l.p.p.p.l.B.oXoX`.).).B.B.B.j.=.T _ =.p.v.m.m.B.=.2 , , 3 g.                                                                                                                                                                                                                                                                                                                                                                                              ",
"                                                                                                                                                                                                                                                                                                                                                                                          @ o o X 9 i.s.d.p.s.p.p.p.s.p.p.p.p.p.p.p.p.p.a.s.s.s.d.z.z.z.z.z.z.d.d.d.i.i.s.z.c.l.z.z.z.z.z.z.k.j.j.z.z.j.#.T _ #.l.@X<X1X1X1X1X1X1X1XF.j.*.p.j.m.+X+X+X#X2XkXkXnXnXlX<X1X1X1XoXz.d.p.d.c.S.@XoXoXoXS.N.N.B.z.%._ _ %.s.n.n.n.m.&.2 , , 3 g.                                                                                                                                                                                                                                                                                                                                                                                              ",
"                                                                                                                                                                                                                                                                                                                                                                                          @ o o X ; ) @.@.) +.` +.+.O.O.` @.@.@._ ` ` ` ` @.@.@.+.+.+.%.+.+.+.+.u.@.` ` @.i.i.i.i.&.&.&.=.=.=.=.#.=.=.O.U c c U i.n.S.B.B.B.B.B.B.S.c.+.O._ +.l.+X+X+X#X<X2XsXsXsXsX<X1X1X1XS.p.+.+.u.a.c.n.c.c.c.c.c.c.d.&.U v v ) @.a.d.d.d.O.3 , , 3 g.                                                                                                                                                                                                                                                                                                                                                                                              ",
"                                                                                                                                                                                                                                                                                                                                                                                          @ . o . @ i i i q u u i i i i i i j j j q q q q i i j j j j k j j j j j j i 2 i j j j j u u u u u u u e e u q 9 ; 1 9 u b v b v b v v n n b j i 9 u i.+X+X+X+XoXN.M.M.B.oX1X<X<X1Xn.v u j j j b v v b b b b l j j 1 1 1 1 i j j l l i , @ @ 3 g.                                                                                                                                                                                                                                                                                                                                                                                              ",
"                                                                                                                                                                                                                                                                                                                                                                                          # . . . o # # O O @ O @ O O o o o o o @ @ O @ O # @ @ @ * * - - - - @ @ @ # O # # # @ X X X X X X O O % X % O X X . X O @ @ @ O @ @ - - - * @ @ X < +.+X+X+X+XM.5.*.=.*.m.+X<X<X+Xd.u O @ @ @ * * * * * * @ @ @ O . . . . O O O @ - @ # @ @ 3 g.                                                                                                                                                                                                                                                                                                                                                                                              ",
"                                                                                                                                                                                                                                                                                                                                                                                          # . . . . . . . . . . . . . . . . . . . . . . . o o o # X % * % % O O X X . . . . . . . . . . . . . o o . . o o o . . o . o o . . o o X X X . O . , @.$X$X+X+XM.*.=.#.*.m.+X<X1X+Xd.9 X o o . o X X X . o . . . . . . . . . . . . o O # @ @ 3 g.                                                                                                                                                                                                                                                                                                                                                                                              ",
"                                                                                                                                                                                                                                                                                                                                                                                          # . . . . . . . . . . . . . . . . . . . . . . o + # + # @ % = & $ $ O X X . . . . . . . . . . . . . o o . . o o o . . o . o o . . X X $ $ O X X . - ` $X$X+X+XM.*.#...*.m.+X<X<X,Xz.9 X . . . . X X X . X . . . . . . . . . . . . . # # @ @ 3 g.                                                                                                                                                                                                                                                                                                                                                                                              ",
"                                                                                                                                                                                                                                                                                                                                                                                          # . . . . . . . . . . . . . . . . X X . o . . o o # # @ @ = e 8 t 7 5 O X . o o . . . . . # @ 4 - O @ 4 4 @ @ - - - - - - - - ; 6 6 w 0 w 6 X . . - ) F.F.oXoXB.l.s.s.j.B.1X<X<X$Xz.9 X . . o @ - % : - - - - % % % % O - O . . # . 3 j n n u.                                                                                                                                                                                                                                                                                                                                                                                                ",
"                                                                                                                                                                                                                                                                                                                                                                                          # . . . . . . . . . . . . . . . X X X o o o O o o # # @ ; r ' | | / C @ X . o o . . . . O M j j j u l u u g g j s u j u u g l c _ =.5.*.' L = X . * v c.c.m.m.B.N.F.F.oX+X<XsXsX<Xc.q X X O - i j s g g s g g g l u u k j < O X # @ m                                                                                                                                                                                                                                                                                                                                                                                                         ",
"                                                                                                                                                                                                                                                                                                                                                                                          # o . . + . . . . . . . . . @ . # # + o . . O . o o o % 6 ] W.!.!.!.,., @ . . . . . . . O b v c R P R v c c R P P P P R P R R ^ 5.x.!.M.v.' 6 X X % b c.z.z.l.N.+X1X1X+X<X2XsXsX<Xc.q X . O 1 l v v v v U R R R U U v ) v 9 O X . * g.                                                                                                                                                                                                                                                                                                                                                                                                        ",
"                                                                                                                                                                                                                                                                                                                                                                                          . . . . . . . . . X . X o . + . + + + o o O O O @ 4 @ % 6 ( !.|.|._.1.< @ X X . . . . . $ v U R R R P R R R R R R P R R P R R ^ 5.!.!.!.x.' = X X - b c.c.l.l.N.+X1X+X<X<XsXsXsXiXc.q X X O 1 l v c c U R R R R R R ) U v 9 O X . O g.                                                                                                                                                                                                                                                                                                                                                                                                        ",
"                                                                                                                                                                                                                                                                                                                                                                                          o . o + . . X X X $ $ $ $ X # # # + > o o X % % * @ @ % 7 { Q.|.|.[.L.5 $ $ $ $ X X X X % U _ R R R T c c R R P P P P P c P P T 5.).!.).v.' 6 X O * l c.c.l.l.N.+X1X1X#X<X2XsXsX<Xc.u X X O 1 b ) U U v U R R R R U U U n u O O o # g.                                                                                                                                                                                                                                                                                                                                                                                                        ",
"                                                                                                                                                                                                                                                                                                                                                                                          @ . . . O w 7 8 t t t t t 7 9 X . + > O - < < < * o O $ 7 [ Q.|.[.[.U.8 t 5 5 5 & $ $ % 6 c U c c c c c v v v v v c c c l c c P =.x.x.v.h.U ; O O * b c.c.l.l.M.+X1X1X+X<XsXsXsXpXc.u X X O < j b c c v v v v v v v v l l q X O # #                                                                                                                                                                                                                                                                                                                                                                                                           ",
"                                                                                                                                                                                                                                                                                                                                                                                      g.m X . o $ a M.x.W.W.U.Q.U.W.x.x.& $ . o 1 l v v b q @ @ O 7 [ Q.|.~.[.E.8.8.| | | ' ~ _ v b 9 i 1 1 1 1 , , < < < < - - , - - - ; w s s J r w * @ # * b c.c.l.l.M.oX+X@X+X<XfXkXkXdXS.j . o . @ < < ; 6 < < - ; ; ; ; ; 1 < - . o # @                                                                                                                                                                                                                                                                                                                                                                                                           ",
"                                                                                                                                                                                                                                                                                                                                                                                j 3 @ @ # # # o $ E 3X&X&X.XXXXXXXXX&X&X5 $ O o 9 ) %._ ` q o O O t W Q.{.~.~.E.Q.Q.!.!.!.v.v.v.c.u.% O . @ o o # # # # X X o o o o o o O O X $ $ $ % O @ # @ b c.z.z.z.v.).oXoX`.<XgXkXBXkXF.j . . . . X X X X X X X X X X X X X X O . O # #                                                                                                                                                                                                                                                                                                                                                                                                           ",
"                                                                                                                                                                                                                                                                                                                                                                                j @ O @ # @ + + & ! 0X*X*X*X*X*X*X{.{.|.5 % o # i ) O.O.R 9 $ $ & 5 W Q.[.{.E.E.E.E.E.E.E.Q.Q.Q.!.x.$ $ X . + + . . X o . o . . . o o . O # O O % % O X - O % l z.z.j.j.v.%X%X%X`.>XgXnXxXkXF.k . o . . o o . # X X . + + o . X O O # @ @ o O                                                                                                                                                                                                                                                                                                                                                                                                           ",
"                                                                                                                                                                                                                                                                                                                                                                                i * O @ O # + @ & ! 0X*X*X*X*X*X*X{.XX|.5 % # > u R O.O.T 0 $ $ & t W Q.[.{.E.~.E.E.E.~.~.~.Q.Q._.x.& $ X X X X . . % O . X # # o @ @ O @ @ * * % % * O O X = b z.j.p.z.v.S.oX%XB.>XkXxXxXzXF.l . . o . . . X O X X # # # o O $ X X O @ @ o O u.                                                                                                                                                                                                                                                                                                                                                                                                        ",
"                                                                                                                                                                                                                                                                                                                                                                                l 1 1 1 O . . o 5 ! 0X*X*X*X*X{.{.{.|.!.5 % # > i R ..#.R 9 $ % % 5 W Q.[.{.E.{.[.[.E.~.~.E.Q.Q.!.8.8 t 7 6 9 s l u u < @ O X X , j j b l q ; 6 % : 6 6 6 6 0 x d.a.a.a.d.c.c.c.B.@XiXsXdXdXS.` j q 9 , @ @ @ X - j j j j q 6 6 6 6 ; * @ # O u.                                                                                                                                                                                                                                                                                                                                                                                                        ",
"                                                                                                                                                                                                                                                                                                                                                                              d.+.R R v i O o o 5 / 0X*X*X*X{.U.U.U.U.[ 5 % @ > i R ....R 9 O O % 5 ( Q.[.{.~.{.*X*X*X*XXX~.~.~._./.W.x.!.).+XsXdXjXaXn.i X X 1 f.iXjXhXdXS.U L z J ^ 2.5.h.=._ w 9 3 2 M i i i u l v ) ` ` f.$XdXaXiXn.j O * * n ,XzXvXxXiXj.' ' ~ k ; @ o O u.                                                                                                                                                                                                                                                                                                                                                                                                        ",
"                                                                                                                                                                                                                                                                                                                                                                      m 2 1 9 ) d.-.-.&.g % O o 5 { 0X*X*X*XE.L.} | | A & * > > 0 R R ..R 6 X X O 5 E !.[.[.~.{.yX7X7X7X*X{.[.[.~.|.&X&X3X3XnXFXGXLXJX,Xj . X i C.VXGXGXGXpX' ' ^ ^ 4.!._.).x.( $ . . . . . . . . . o o X * u.hXJXJXSXuXb O - 1 i.vXIXIXIXVX_.x.x.x.Y 6 * # # u.                                                                                                                                                                                                                                                                                                                                                                                                        ",
"                                                                                                                                                                                                                                                                                                                                                                      j 1 < ; R -.&.#.O.u O O o 5 { 0X*X*X*XE.L.7.7.8.] & % @ > i R R ..U 6 . X O = E !.[.[.~.{.*XyXyX5X*XE.E.~.[.{..X.X&X3XgXFXLXLXSX$Xl X O 9 n.VXSXDXDX<X^ 2./ { 7.Q.Q.!.W.( $ X . . . . . . # # # o O < u.dXSXSXVX<XU : ; ; &.cXIXPXIXVX_.W.W.x.~ 6 * @ # u.                                                                                                                                                                                                                                                                                                                                                                                                        ",
"                                                                                                                                                                                                                                                                                                                                                                      j - % & c =.=.#.O.u % % O 5 { 0X*X*X*X[.L.8.8.8.] $ $ @ > 0 R R ..U 6 . X O = E !.~.~.~.*XyXyXyXyX*XE.E.[.{.{.XX=X&X3XCXFXLXLXDX1Xf $ $ 7 B.BXDXLXFX3X/ / [ } 1.U.U.Q.W.( $ $ X . . . X X . X % X $ 6 =.sXVXDXBX<XP & % & R kXPXIXIXFX XL.L.q.] 6 * # # u.                                                                                                                                                                                                                                                                                                                                                                                                        ",
"                                                                                                                                                                                                                                                                                                                                                                      b 9 : 7 R =.$.#...u O O o 5 { 0X*X*X*X{.U.U.P.8.( 5 $ % O 0 c R ..U ; . X X & E !.~.~.E.*XyXyXyXyX*XE.E.E.{.{.{.*X.X.X0XNXBXFXmX#X/ 8 N F ^.gXMXFXCX&X} } } } L.E.Q.Q.Q.} H 8 7 0 0 8 8 e d d d V I I 5.<XfXgXfXOX/ N V D 5.sXDXFXFXCX XQ.Q.W./ 7 * # o u.                                                                                                                                                                                                                                                                                                                                                                                                        ",
"                                                                                                                                                                                                                                                                                                                                          g.g.g.g.g.g.f.g.f.f.f.f.g.u.) l U c ..=.=.#.R u % O O 5 { 0X5X5X*XXXQ.Q.Q.!.| 5 $ % @ i c R R v ; . . X & ( W.Q.~.E.*XwXwXwXwX7X7X6X6X6X*X{.{.XX.X.X6X0X0X3X XQ.W.W.Q.&X6X0X0X0X&X[.Q.~.[.~.U.E.U.Q.Q.!.!.W.W.^._._._._._.|. X&X&X_./._._._.!.W.q.q.q.!._.3X3X3X;X6X6X6X3Xx.r = @ @ u.                                                                                                                                                                                                                                                                                                                                                                                                        ",
"                                                                                                                                                                                                                                                                                                                                        M @ @ 4 @ # @ @ @ 4 4 4 - ; l ) O.#...=.#.#.#.R u % O O 5 Q 6X*X*X*XXX~.[.[._.8.t $ X O i c ..U U ; . . X & E W.Q.E.E.*XwXtXtXtXrXrXrXtXqX7X*X{.XXXX|.XXXX.X.XXX|.|.XX.XXX=X=X=X6X=X=X=X=X=XXX~.E.U.Q.[.;X&X&X&X6X0X9X9X9X9X9X9XCX9X&X[.U.U.W.Q.Q.Q./.Q.[.|.|._./..X0X9X9X0X^.d 6 * # u.                                                                                                                                                                                                                                                                                                                                                                                                        ",
"                                                                                                                                                                                                                                                                                                                                        4 . . . . . . . . . o o . O s R O.O...#.#.#.....s % O O & E 3X.X*X*X{.~.~.[.[.q.t & X O i v ..R U ; . . X & ~ !.Q.[.[..XwXwXtXtXrXrXtXtXtX7X{.{.XXXXXXXXXXXXXX.XXXXX.X.X*X*X*X*X=X=X=X=X6X6X.XE.U.U.E.[.6X*X*X=X6X7XqXqXqXqXqXqXNX9X&XQ.U.U.U.Q.[.[.[.[.~.~.[.[.E..X7X8XeX9X^.a 6 % O u.                                                                                                                                                                                                                                                                                                                                                                                                        ",
"                                                                                                                                                                                                                                                                                                                                        3 . . . . . . . . . . . % $ s U O.R ....#.....R s % % * 5 ^ 3X X&X.XXX~.~.~.~.q.5 & O O i v ..R U ; . . . % I !./././..XqXtXtXtXrXrXtXtXtX7X{.{.{.XXXXXX*XXX{.{.XXXXXXXX*X*X*X*X=X&X&X3X6X6XXXQ.U.U.E.{.5X5X*X*X5XwXqXqX7XqXwXqXqX8X;X/.P.W.W.Q.[.[.[.E.[.~.[.[.E.XX7XqX8X0XW.8 5 $ % @.                                                                                                                                                                                                                                                                                                                                                                                                        ",
"                                                                                                                                                                                                                                                                                                                                        2 * * - O * * O - O * * $ % s v O.U R ......R T f 6 ; ; 7 T `.^._._.[.[.{.{.|.W.5 % O O i v ..R P ; . . . % d 5.q.x.W.'.wXwXrXrXrXtXtXtXtXwX*X.X.X*X*X*X*X*X*X*X*X5X5X5X*X*X5X6X6X3X X X X|.|.Q.~.E.E.{.5X5X*X5XyXwXtXtXrXrXrXrXrXeX-Xq.{ | 3.W._.XX{.{.{.{.XX{.[.*X7XwX8X0X^.H 7 : - n                                                                                                                                                                                                                                                                                                                                                                                                         ",
"                                                                                                                                                                                                                                                                                                                                    g.u.n ` ) n b ) ) ) ) j l l k k s l l s g c ....R ..R g c l f J ^ ^ / { W.;X*X*X.X^.5 * O @ i v R R P ; . . . . = e a B C x.5X5X7X7XwXqXtXqXrXrX7X7X7X8X7XwXqXqX8X8X8X8X8X7XqXwXqX9X0X X:.! / | 7.[.{.{.{.*XyX5X5X6XwXNXNXNXNXNXNXNXNXNX3X{ r r B 3. X6X5X5X5X6X7X7X7X7X7X7X7X0X/.A a 0 i b u.                                                                                                                                                                                                                                                                                                                                                                                                      ",
"                                                                                                                                                                                                                                                                                                          n 2 3 3 3 3 3 3 3 , , - @ - b f.n.c.d.c.n.n.n.n.+.@.` %.@.k 9 9 i u c ............O.O.' z 5 6 7 e q.0X5X6X6X_.6 * O @ i c R P c ; . . . . . X $ $ & _ *X5X5X5X7XwXtXtXtXtXrXtXtXtXtXtXtXtXNXNXNXNXtXtXtXtXNXNXCX_.8 5 5 t } |.=X*X*X*XyX5X6X7XrXNXNXNXNXNXNXNXFXNX&XK 5 & 5 / &X9XwXwXrXtXNXrXrXwXyXwXyX6X/.G D g g u , - @ M                                                                                                                                                                                                                                                                                                                                                                                                 ",
"                                                                                                                                                                                                                                                                                                          m 3 @ @ @ # # # # # o O . O i d.n.n.c.z.n.B.S.F.+.+.+.i.i.l q 9 9 9 g R ..R ....O.%.O.#.U % : & 8 q.6X5X6X0X'.6 * * @ i c R P c ; . . . + . . X X X ` .X*X5X5XyXwXtXtXrXtXrXtXtXtXtXtXNXNXtXtXtXtXtXtXtXtXNXNXCX_.t $ $ 5 A |.*X*X*X*XyX6X6X7XrXNXNXNXFXNXFXFXFXFX&XK & $ & ~ &X9XwXwX8XtXNXNXtXwXyXyXyX6X/.W P c b i @ O O 1                                                                                                                                                                                                                                                                                                                                                                                                 ",
"                                                                                                                                                                                                                                                                                                          b : % $ $ O O O O O X o . X u z.n.c.c.z.n.n.B.B.=.o./ #.#.g 0 9 9 6 l ) ) ) O.O.O.O.#.@.b % $ & 7 h.fX3XgX2X'.5 & X % y P R c c ; . . . . . . . . X n 3X3X6X0X7XqXwXtXtXNXNXNXNXrXtXtXtXtXtXNXNXNXNXNXNXNXNXCXMX).5 $ $ & I #X3X3X=X6X6X6X5X7XrXNXFXFXNXNXFXFXFXFX>Xf % $ : ^ #XCX9X8XeXNXNXNXtXqX7X0X0X3X).=.z c P p O O o 4                                                                                                                                                                                                                                                                                                                                                                                                 ",
"                                                                                                                                                                                                                                                                                                          v q 6 ; ; ; : ; ; ; ; % - % u @.a.i.i.i.z.c.n.m.5.5.5.s.s.c u u s u l v v v R R R ..R n l - % : 6 ' OX#X#X#Xb.8 7 & : p P R P c i O O @ O O . . . o j !.)._./..XrXqXwXtXNXNXNXNXtXtXtXtXtXtXtXrXNXNXNX9X9XCXCXfXm.= X X $ d v.)._.[..X6X6X5X7XqXNXNXNXNXNXNXNXNXMX#XP $ X & P ).3X3X3X6XrXNXNXtX7X.X5X.X Xx.^ f c P p 4 O o 4 u.                                                                                                                                                                                                                                                                                                                                                                                              ",
"                                                                                                                                                                                                                                                                                                        a.) U l l l s s s s s s u u 9 9 u u u k ) d.d.p.j.m.N.oXoX@Xs._ _ +.@.b u u u u u u u u j q * * - = s $.X.X.;.X.B V s s g P P P c s i i j j 2 . . X . , s f V A 1.0X7X7XwXqXNXtXtXtXtXtXtXtXtXrX7X7X7X6X XW.^.M.v.` * o X X : s J E [ Q.=X=X*X5X7XqXqX9XqXrXqXeXeX0X).f $ X * q #.k.8.q.T.7XNXNXtX5XU.U.I.q.2.I f c c p @ o O @ j f.                                                                                                                                                                                                                                                                                                                                                                                            ",
"                                                                                                                                                                                                                                                                                      m j j i i i 2 q q v ` #.T T T T U U U Y Y U U l ; $ X O % v d.d.i.*.@X<X<X<XsXB.z.z.c.c.b - % % % : - : : - - O * - * : 0 7 7 7 a I ' T T R R R c c c c c b b i . . . . o O O % 5 F 3X6X7X7XwXtXtXtXtXtXtXtXtXtXwX5X5X6X;XL.H 8 7 6 , o + . . O O % 5 t 7.=X*X*X*X6X0X0X0XyXyX7X6X6X3Xx.a $ X X @ ; 0 7 8 ,.3XNXNXNX.X1.[ [ ! S D V c c i @ o O O @ 1 2 2 i i i 2 2 j f.                                                                                                                                                                                                                                                                                                                                                                          ",
"                                                                                                                                                                                                                                                                                      3 @ @ @ O - * * = z _ ' ' ^ ^ ^ ^ ~ I E E Y Y z ; X . X % x d.h.i.%.+XiXpXsXsXN.l.c.c.n.v * O X O O O O O * * @ @ , * @ - : % & 0 O.#._ T R U R R c c c c c l i O . X . O o o O : E 3X6X6X6X7XNXtXtXtXtXtXtXtXtXqX5X5X6X.X6.t $ $ O # o . . o o o X X 5 3.&X=X*X*X=X6X0X0X5X6X6X5X;X3Xx.a $ X o o O % % = W 3XNXNXCX X} [ E I V D D P c u 4 o # @ O O O O O o . # # @ K.                                                                                                                                                                                                                                                                                                                                                                          ",
"                                                                                                                                                                                                                                                                                    f.< % % % % % $ & = z T ^ ^ ~ ^ ^ E E E ] ] I I f 7 X . X X x i.h.p.%.@XiXiXsXsXN.l.c.c.n.v % O O O O # @ @ * @ @ @ @ 4 @ 4 - % % 9 O.O.T T R R R R c c P c c c i % X X O O o o o % Y sXfX0X0X7XNXtXrXtXtXtXNXNXNX9X6X6X6X&Xq.8 & % O O O o . . . o . X 5 2.3X;X=X=X6X6X0X0X6X0X6X6X3X3Xx.p $ X O X O % % : ! 3XCXCXCX X;.Q ^ Y D D D c c i 4 o # # X O X O . O o @ o # K.                                                                                                                                                                                                                                                                                                                                                                          ",
"                                                                                                                                                                                                                                                                                    d.u w : 6 6 6 6 7 7 V ^ ~ / Q Q E E E E E W W E I p 6 ; ; ; v ` i.` ` S.$X,X<X+XN.m.B.m.B.) 6 6 < < * # # @ * @ , > > > > 4 @ @ O 9 R R R R v R R R R R R R R R g 7 : : ; - - : : 6 Y %X#X&X X6XNXqX9XrX9X6X3X3X3X3X X X X'.8.C 8 0 9 9 ; : : ; * - - ; 0 ^ _._._._._._.'.OX_.#X_._._.).5.f ; % - ; : 9 7 7 / ).3X3X&Xx.E I P P V V V P c u - @ O O @ 2 i i i 2 @ # # @ K.                                                                                                                                                                                                                                                                                                                                                                          ",
"                                                                                                                                                                                                                                                                            f.g.u.d.) U T P I I R I Y V I / E ! ! ! Q E E E ! { { / / ~ P U U v l k k 0 0 i.c.C.B.B.B.oX+X@X@Xp.U U v b q @ # > @ @ 3 3 3 3 > 4 @ @ O i U U R R R R R c R ..$.-.-.-...P h c v l g g s s z ' ~ ( [ U.6X6X6X6X_.<.^ ^ / 2.5.6.6.6.9.4.5.9.5.=.P g k z l b l z c Y V C C C C C V V J I J J V f P P v g c c R #.#.#.T ^ S S Q V p f f f V P R R R g 3 - @ * i +.f.n.c.u.1 @ @ @ M g.                                                                                                                                                                                                                                                                                                                                                                        ",
"                                                                                                                                                                                                                                                                  j 3 3 , , , * * 6 U #.$.2.X.2.2.2.2.2./ ! ! ! ! ! Q E E ! ;.5.:.:.;.;.2.$.=.' x $ X $ X ) d.z.j.*.B.sXsXfXsXv.=.p.d.u.j @ + > O 3 j j j j 3 @ # @ O 1 R R R D c v c R R o.9.9.9.b.9.o.......R R R R Y z ; & 5 t  .;X.X&X&XW.8 ; & : u P ..^ o.4.b.^.^.].9.o.R _ _ _ T ..T T f & & & & & & & & - * = = & = u T O.....=.9.9.9.9.o.7 & : % : p f f h P R R R T D 2 , - - l n.,X,X,Xn.j @ @ # , 3 M j M M j j M 2 j 3 2 < 2                                                                                                                                                                                                                                                                                                                                               ",
"                                                                                                                                                                                                                                                                  3 o o O O % $ % 6 P $.X.;.;.:.4.4.4.3.;.! W [ W ! ! ! E ! { 3.:.:.:.:.3.3.2.$.d $ X X X v i.p.*.=.oXsXfXlXjXN.*.j.d.%.j @ o + o , M j j j 3 @ O @ O < v c c c R R P R R o.9.w.w.r.9.o.o.o.#...R I T Y l - % % 5 G &X.X&X&Xx.t X X % 9 c R ..o.4.^.].].].w.o.o.#.#...T o.T T g O O O O O O % % # # . X X O 9 c ....o.=.9.9.9.9.o.7 % % O - i c h c c R R ..o.D i < - - l n.,X,X,Xn.j O * # @ , @ 4 4 4 , , - - @ O @ O @                                                                                                                                                                                                                                                                                                                                               ",
"                                                                                                                                                                                                                                                                  3 . . X X X $ $ 5 V / ;.:.:.4.4.4.6.:.[ W G [ ! G F E W ! { 3.>.:.,.,.,.3.2./ r $ X . X l i.p.&.=.+XsXfXkXgXN.*.j.j.%.j * # # o 4 3 2 i M < O # O X ; c c c h c R D D D o.9.r.r.r.e.o.y.D o.R Q T T ) l @ o O & Q 3X&X&X&Xx.t X X O 1 b ....o.>.r.].].].w.o.o.#.o.o.Q o.R T p O X o o O O O $ # # . X X $ 9 c ..R o.o.9.9.9.9...7 O O o - u c c c c ......o.D 9 - % : c B.,X<X,XS.u O * O X # # @ @ # @ O $ $ % $ X . X g.                                                                                                                                                                                                                                                                                                                                            ",
"                                                                                                                                                                                                                                                                g.q * * % % & & 5 8 C ! ;.;.;.:.;.>.:.;.[ W [ [ W W G G W [ :.,.,.1.1.1.1.<.:.;.N 5 & % & k ` +.O.O.+XsXfXgXfX).5.j.j.i.u X O # o @ 4 - - * * X X O X - c c c h D ..R D Q o.w.r.r.r.e.>.y.o.o.y.Q R T ) b 4 o O : Y #X#X&X_.k.8 $ $ % i c ....o.>.r.].].].w.o.o.o.o.o.y.o.o.o.c % @ @ @ @ - % % @ @ O O O % 7 c ..o.o.X.9.9.9.e.o.7 % O 4 3 i g g g h ..#.o.o.D i : : 6 c n.@X+X+Xm.c : ; 9 q < @ 4 @ * ; 6 : = = & $ X % u.                                                                                                                                                                                                                                                                                                                                            ",
"                                                                                                                                                                                                                                                              u.v j u s p d P E E E F W ! ! ! W G G G ! [ :.:.:.:.:.:.:.:.<.7.P.L.L.I.I.I.I.P.q.[ V V P z u 9 q u u n.<X<X<X<X`.).oXoXS.) O X O o o O O X X X . . o . - l c P D Q -.9.9.e.e.w.r.r.r.w.r.t.t.r.e.T R R ) b @ O O O 7 T I E K B r 0 0 0 c =.9.9.e.w.Y.].].].r.e.e.9.9.9.o.>.9.9.R s u j j j k s s u u u u s g P #.=.X.-.e.w.r.r.r.9.V p u i i 1 ; : 7 g $.9.9.9.y.l u i u h =.z.z.j.j.m.B.C.n.a.u 4 * * < s P I V B d e 0 0 v d.                                                                                                                                                                                                                                                                                                                                          ",
"                                                                                                                                                                                                                                                        j , , 1 g v U Y I 2.x.x.x.8.! F F F F F F F F ! ;.6.6.6.7.7.7.7.7.L.I.Q.T.T.T.T././.^.W.q.{ $.5.#.0 $ X X % d.F.N.).`.#X2XsXsXiXs.* O X . o O X . . . . . . . - l c P P o.r.b.b.r.r.r.t.t.t.Y.].(.(.].t...R ....l O O $ % X : % & & 0 J P P P =.k.b.b.r.r.^.^.^.].Y.Y.Y.r.r.r.e.w.9.9.$.c c c b v v v v c c c c c P ..9.9.9.w.w.r.^.].].x.o.R R R l < % % : g 9.b.b.r.9.R c c h c ..#.#.#.*.oX<X<X,XC.l - * = 0 T 5.5.5.5.2./ Y U z u * @ @ - - - , i u.                                                                                                                                                                                                                                                                                                                        ",
"                                                                                                                                                                                                                                                        3 . . , p P I K E 4.W.^.^.x.! F E K E E Q E E ! ;.8.6.6.7.7.7.1.1.L.U././././././././.^.P.:.;.5.#.0 O O X * d.S.N.N.).<XsXfXsXsXp.% O . . o o . . . . . . . . @ b c P P y.r.].^.^.r.r.t.t.t.Y.(.(.(.(.Y.o.......h & % % $ X o . o o 6 U U P R =.b.^.^.Y.Y.Y.Y.Y.R.R.R.R.Y.].^.w.w.w.x.=.I I U U R R R R c R c c P R #.9.9.w.e.t.Y.Y.].].b.X.Q #.#.v 1 O % : h 9.b.b.r.9...c U c P ..#.#...5.+XsXiXiXB.k * * & 0 ^ h.q.8.8.3./ ^ T z 9 X . . . . . . - @.                                                                                                                                                                                                                                                                                                                        ",
"                                                                                                                                                                                                                                                        3 . . @ p I C C E 8.W.^.^.x.W F E K I I E E E W ;.8.6.6.7.7.7.1.1.L.U.[.[./.T.T.T./.T./.L.<.:.5.*.u % o X * d.n.N.N.M.<XsXfXsXiXp.: - O + . . . . . . . . . . @ b v P P y.r.^.b.^.r.t.t.t.t.Y.(.(.(.(.Y.Q D ....h & & & % @ o o o o 9 v v P R ;.w.Y.Y.Y.Y.Y.Y.^.R.R.T.R.Y.R.Y.w.w.w.k.=.I I P P R U R v R R c h c R $.9.9.w.e.t.Y.R.].R.x.;.Q o.#.v 1 @ % : h 9.^.r.r.9...c c R P ..#.=...j.@X<X<XiXn.k * % & 0 ~ 8.q.7.6.,./ E ~ f 6 X . . o . O . @ n                                                                                                                                                                                                                                                                                                                         ",
"                                                                                                                                                                                                                                                        6 X & 5 N C C C ! 8.^.^.^.x.! C I E I T G F G G ;.:.<.<.<.1.7.1.1.1.U.T./././.T.T.T.T.T.L.:.>.4.2.e & & & & &.B.B.n.B.+XsXsXsX<Xp.5 & & * X . . . . . . . . X % g c c P ..9.b.b.r.r.t.t.t.t.Y.R.(.:XR.Y.o.R ..R g 5 5 & & $ O @ o O : h D D D X.w.b.].^.^.r.Y.].^.].].b.^.^.^.w.9.x.k.=.R U U U c c c c P z c c v U #.5.w.w.w.w.b.].^.].w.>.y.o.X.S 7 - - ; c k.b.b.r.w.y.D D D R R @.@.n %.oX2X<X<Xn.k @ O % 9 I 2.5.5.5.5.$.^ Y B t 5 $ & & & 5 % : b                                                                                                                                                                                                                                                                                                                         ",
"                                                                                                                                                                                                                                                    @.v z z L L S E ! E E { :.3.4.:.E C I I Y / :.:.:.:.:.6.6.<.7.L.I.I.I.I.T./././.T.T.T./.T.T.U.1.:.3.2.V p s z 0 s s u u g n.sXsXsXsXoXj.z.j.u.j X . . . O q i u u u c c c P R o.o.o.o.r.].].(.R.R.(.(.(.R.Y.o.......o.#.=.5.=.v - # o % g 9.r.w.9.w.9.w.e.e.>.y.y.>.>.>.X.o.o.o.D y 8 p p i 9 9 6 6 6 ; 6 ; 6 : : ; < 9 g P Q G G y.>.e.e.e.w.w.Y.^.^.9.u % - - s #.9.>.>.o.e.9.w.9...g i q 9 l l.oXoXoXd.q @ O X ; d K E E E I V V V S S C E $.^ Y ^ ' O.&.` u.u.                                                                                                                                                                                                                                                                                                                  ",
"                                                                                                                                                                                                                                              2 @ O ; k U Y Y Y Q / { / Q F A C F F C C E S E 2.6.4.4.4.<.6.<.<.7.I././././.[.[./.[././.[.[././.I.1.<.:.5.Q I T Y L 6 $ $ $ % z.sXsXsXsX@Xm.B.n.n.b . . . . , n b b c v c c P R R R D D y.r.-X-X(.R.R.(.R.(.(.Y.o.R T ..-.V.V.M.l.&.O # O - c m.].Y.Y.r.w.e.e.e.>.o.G Q Q T Y I R R g 6 & : : * * * @ @ O @ O O O o . . . o 1 g V D D G >.e.e.e.r.].'.'.'.w.g : % - i D Q G o.o.b.b.].b...9 O O X 6 =.v.l.v.+.1 # O X & r B B B V V B B V Q 2.5.4.x.8.2.2.k.h.' 6 ; * < u.                                                                                                                                                                                                                                                                                                              ",
"                                                                                                                                                                                                                                              3 . X % e L T ^ ' / / X.;./ F Z Z Z C C S S C E 2.4.6.6.6.7.7.7.7.1.I./././.[.[.T././.T.T.T./.T.T.L.1.6.6.4.Q Y ^ P U 6 $ O O X z.<XsXsXsX@XB.N.B.n.n . . . . - b b b l U c R P P P ....o.y.r.-X-X:X(.(.(.R.:X(.Y.o.Q R o.=.V.b.9.m.s.X O O % z B.R.Y.Y.t.e.e.e.9.o.o.R T T T Y ^ v U l : % % % O * @ @ # O X X . . . . o . . - u v P P o.9.e.e.e.t.].(.(.].9.g : - ; i h D G o.9.r.r.b.k...7 O @ X ; #.l.k.z.@.< o . X = p V B B B V V B V E 2.q.x.q.8.8.6.x.9.' 0 & % * n                                                                                                                                                                                                                                                                                                               ",
"                                                                                                                                                                                                                                              < X X & 0 U ' ^ I / / $.2./ E C C C C C C C Z F ;.6.6.6.6.<.<.1.1.1.I././././.[.[.[.[.[./././././.L.7.6.6.8.E C E J L = % X X O z.<XsXfX2XoXv.v.m.c.n . . . . - n n v c U c P c D c R R D G r.(.(.(.R.(.(.(.(.(.Y.o.Q D D o.b.b.b.l.s.% O % & P b.].].^.r.e.e.9.9.-.#...T R I I E ) ) l : % * ; ; = * * * % $ O X % X X X . . 1 b n v R #.9.9.t.t.t.].(.(.].w.g : : - 9 g D D G X.9.9.9.9...9 O O X ; _ z.j.z.+.9 . . X & e B B B N N V V C ! 4.q.q.6.6.7.6.6.4./ 8 & % * n                                                                                                                                                                                                                                                                                                               ",
"                                                                                                                                                                                                                                              < X X & p P I I I Q ^ / $.^ I C V C C F E F F W ;.<.<.<.<.<.1.1.1.1.U././.T.T.[.[.[.[.[./././././.L.7.6.6.6.W F ! Y I = % . # - d.sX2X2X>X`.m.v.m.c.n . . . . , l l l l c c c D D R ..D D y.t.(.(.(.(.(.(.].(.(.^.>.>.o.o.o.-.9.9.-...; O $ 5 Q ^.].].^.Y.w.w.w.9.-.O.R R P R Q Q T T z e 7 7 5 5 5 5 5 5 5 5 & & & $ $ & & : i l b b v ..9.w.r.t.t.R.(.(.(.w.p & % % 0 P o.o.o.X.9.9.9.9.R ; O @ X ; _ j.j.z.@.1 # o X & 0 d B B B V V C S ! 2.4.6.6.7.<.<.0.w.;.t & & - n                                                                                                                                                                                                                                                                                                               ",
"                                                                                                                                                                                                                                        g.u.) l l k z P I K K I I I E ~ Y I C K K E / ;.;.[ :.:.6.<.<.7.0.P.I.L.I.U.T./.T.T.T.[.E.E.T.T.I.U.U.L.7.7.6.6.6.:.{ :.2.$.7 % X o O +.B.M.M.x.x.M.N.S.Z.) . . . . . @ @ - : 9 c P P R ..-.-.9.e.Y.(.(.(.(.Y.e.e.>.>.e.t.r.r.9.o.7 7 7 i c s.-.9.9.w.Y.^.^.Y.w.>.>.X.$.c i ; 9 0 I 5.4.4.4.W.#X3X3X3X3X3X3X3X3X3X3X3X3X-X-X X X X).=.g < 1 1 s ..-.>.y.e.Y.(.(.(.9.p & - : g *.x.b.r.w.o.o.o...f ; O > @ < _ z.j.z.` < # o X * e f V V V V V V C S F E G W [ :.1.7.7.<.G Q T v n u.g.g.g.g.g.g.g.g.g.g.g.g.  g.g.g.g.g.g.g.g.g.g.g.g.g.g.g.u.u.g.g.g.g.g.g.g.g.g.g.g.g.g.g.g.g.g.g.g.g.g.g.g.g.g.g.g.g.                                                                                                                                                                                        ",
"                                                                                                                                                                                                                                    3 , < * u U U U I J K I I C I K K C V V K I C E 2.4.4.:.<.:.<.<.<.7.P.I.T././.T.T./.T.T.T.[.[.[./.U.L.1.1.7.7.7.7.6.7.<.6.6.4.5.0 % @ # O ` v.v.x.5.x.).S.S.Z.n . . . . . . . . . % c R R P o.9.b.r.w.Y.].(.(.(.w.y.G G y.e.Y.Y.^.b.#.$ $ X $ u B.V.b.].Y.Y.Y.Y.Y.w.>.>.o.#.c : O O & I x.q.L.1./.0XCXCXCXNXNXNXNXNXNXCXeXeXeXeX9X7X9X3Xx.p O O % 9 P $.o.o.>.Y.(.].].9.p & % % f k.).].b.9.o...T R f ; O + # < _ z.h.z.` 1 + o X * 0 f V V B V V C C C C C F F G <.7.7.0.7.4.5.*.i.) 1 4 , - - , , , , , - 4 - - - - - - - @ @ 4 @ @ @ @ @ @ @ @ # @ @ @ @ * * * - - - - , , , , , , , , , , * @ @ # # @ @ j                                                                                                                                                                                       ",
"                                                                                                                                                                                                                                    * * O % s L U P I I I K C C K I I I I I I I C E ;.4.4.<.:.,.<.6.<.7.I./././.T.T.T./././././.T.[./.U.L.L.7.7.7.7.7.6.6.7.7.6.4.5.0 % * # O ` c.v.x.x.x.N.S.S.n.) . . o . . . . . . % c R P R o.w.b.r.r.Y.Y.].].(.t.y.G G o.-.Y.R.^.b.^ $ X X X z V.V.^.].R.Y.Y.Y.Y.t.>.>.=.#.c - % = & K x.8.L.L.[.7XeXrXeXNXrXrXrXrXrXrXeXeX9X8X8X8X0X3XW.8 $ $ % 6 c ....o.>.r.].].].9.p % O % p 9.b.^.b.e.o.R R T g ; O @ @ < ` h.h.d.@.< + o X ; u z f f V V V V V C S S C E { 6.q.P.0.0.q.5.5.*.U ; O O O O X X O O @ @ # # # @ # @ # # # # # X o o o . . . o . o X # # O X O O O O O @ @ @ O O O O O O O X . X . . . X j                                                                                                                                                                                       ",
"                                                                                                                                                                                                                                    * * % & s U U I I I I I I I K K I I K K K K C E ;.4.6.6.<.<.<.6.<.7.I./././.T.T.T./././././.[.[./.I.L.7.7.7.7.7.7.7.7.7.7.7.8.2.7 $ X X O ) c.v.v.k.x.N.N.B.n.) . . . . . + . . . % v R P T o.w.r.r.r.Y.].(.(.(.r.y.D D R -.Y.].^.b.^ X X . X h M.].].].R.R.Y.Y.Y.r.e.9.-.#.U ; $ & 5 ] W.q.L.L.[.7XrXrXeXeXeXeXeXeXeXeXeXeX9X9X8X7X7X6XI.t $ $ & 0 T *.o...>.r.].].].9.0 $ O % p 9.b.^.r.e.o.R R R g ; O @ @ < ` z.j.z.@.1 # X X - u v c L L L L L P J P P I ~ / 4.q.q.q.q.8.5.5.*.P : $ $ O X X X X O O O O O O O O O O O @ @ @ O O X X X X X X X X X @ @ % $ $ % % % O % % % % % O O O X O X X X . . . X i                                                                                                                                                                                       ",
"                                                                                                                                                                                                                                  n.< * & 5 s Y Y Y Y I E E I I I I I I K I I E E ! 3.8.7.6.<.<.<.6.1.7.I././././.T.I.T././././././.Q.I.L.7.7.7.7.7.7.7.7.7.7.7.q.2.8 5 % % ; b d.i.*.*.l.oXoXN.n.) X . X . . . . . . - v U R R >.w.r.r.r.r.r.^.].].r.X.G D R $.Y.^.^.b.T X . . O h b.^.Y.].Y.Y.r.Y.b.w.-.$.#.O.f 0 5 5 t W W.P.L.U.[.0X0X9X9X9X0X0X0X0X0X0X0X0X0X0X0X0X0X3X/.A t t e d T #.R ..X.r.].].^.9.i % O % p 9.b.Y.r.e.o.R R R s ; # @ @ < #.j.j.z.@.9 + o X - i l l l z z z z z z f f z L Y $.2.5.2.5./ ' =.#.z 0 6 & ; ; ; ; ; ; ; ; ; < < < < < < < < < < ; ; ; ; * * * * * * ; < < : & & : : : & : : : : : : % % % % % $ $ $ X O O u                                                                                                                                                                                       ",
"                                                                                                                                                                                                                                  +.l k z z J I Y E E E E E E I I I I I I ^ / 2.;.2.4.6.6.6.<.<.<.6.1.7.I././././.I.L.L.L.L.L.L.L.P.L.7.1.7.7.7.7.7.7.7.7.7.7.7.q.4.C B p u u u u q 0 s *.oXoXoXB.i.q u j M , . . . . - v R R R y.w.r.r.r.w.>.>.>.9.9.9.9.9.9.9.Y.^.^.x.T X . . O g r.r.r.Y.w.e.>.e.9.o.h p p p P $.5.3.7.W.|.|.[./././.I.W.q.w.4.4.2.$.X.X.;.;.2.8.W.^.W././.q.x.x.x.$.P s p g D 9.r.w.w.#.9 % O % p 5.r.r.r.e.o.R R R s ; # @ @ < #.j.j.z.+.9 + o o O ; 1 ; ; 6 6 6 6 6 6 6 6 9 9 0 s d d a d d p u u z d.B.S.S.S.C.C.C.C.B.S.S.S.S.S.S.F.F.F.S.S.S.S.S.C.C.C.C.C.C.C.C.S.S.F.&.=.%.%.=.%.%.%.%.%.%.O.O.O.O.O._ _ _ _ ) ) ) ) n a.                                                                                                                                                                                    ",
"                                                                                                                                                                                                                          m i i 9 v ) _ Y Y ~ I ~ E E ~ ~ ~ Y Y I I I I E / 3.4.4.8.6.7.6.<.<.<.<.6.1.7.I././././.L.1.1.1.1.<.<.1.7.7.6.1.6.7.7.7.7.7.6.6.7.7.7.8.q.! E I Y v 9 X . X * _ S.oXoXF.z.v ) ` n M . . . . - v ..R R >.w.r.w.w.e.o.G D y.X.9.b.b.b.b.Y.^.^.x.R X . . O g 9.w.w.w.4.o.Q o...c 6 $ % & C x._./.[.|..X.X;X.X_.6.W ! I p 5 : : & & & & & 5 d ' 4.4.w./. X&X3X#X9.a & % ; y o.9.9.9...7 O O % p -.r.r.t.>.o.R R R s - # @ @ < #.z.j.z.+.9 + # o o O O O O % O O O X O % % O O % - : : : : : - % % u $XhXkXkXkXjXjXjXjXjXjXjXhXjXkXkXkXkXkXkXkXkXkXkXkXkXkXkXhXjXjXhXkXkXkXB.m.m.m.m.m.m.m.m.m.m.m.m.v.c.c.c.c.l.c.c.l.z.c.d.9 ; 1 1 1 2 2 2 3 2 2 2 3 j g.                                                                                                                                                        ",
"                                                                                                                                                                                                                          2 , 3 6 z _ T Y I E ~ E ~ ~ ~ ^ ~ Y Y Y I I K E / 5.6.6.6.6.6.6.6.6.6.<.<.1.7.I././././.L.1.1.6.6.6.8.6.6.6.6.6.6.7.7.7.<.6.6.6.6.8.7.8.q.{ W I ^ _ 6 X . . O @.@XoXOXN.l.R ) ` n j . . . . - R ..R R >.w.w.w.w.9.o.D G G o.9.r.r.r.r.Y.Y.^.x.R X . . O g 9.w.w.r.9.o.Q ..O.c < O % 5 C W.|.[.[.XX.X=X.X X_.:.F Q P 9 O O O . . X X X & s #.5.5.6.^. X.X X X6.y $ X % y o.9.9.9...7 O O O p =.w.r.r.>.o.R R R s - # @ @ < %.z.j.z.+.w # @ # o o . . O O O X X X X O O @ @ @ - @ O * - @ @ - O i $XkXhXkXkXkXkXkXkXkXkXkXkXkXkXkXnXnXnXnXnXnXBXBXnXnXnXnXkXkXkXkXkXnXxX).).N.N.).).N.N.M.M.M.B.m.m.m.m.v.v.v.m.m.m.m.n.d.; % - * @ , @ , @ - - , @ 1 u.                                                                                                                                                        ",
"                                                                                                                                                                                                                          3 @ @ = d _ ' ^ ^ ~ E E E ~ ^ ^ ~ Y Y Y Y I K E / 3.4.6.<.<.<.<.6.6.6.<.,.<.1.I.W././.W.L.,.,.<.6.8.8.8.8.6.8.7.7.<.<.<.<.6.6.6.6.6.8.8.8.! W F Y T 6 X . . # @.@X).oXoXl.T _ ) n j . . . . - R ..R ..X.9.w.w.k.9.o.R D D o.e.r.r.r.r.t.Y.Y.x.T X . . O g k.w.w.r.9.o.R o...b 1 O % 5 C I.[.[.[.XX.X=X;X;X(.:.F Q P 9 O o o . . o X . $ 0 O.5.9.w./..X.X.X Xw.y % O * y o.9.9.9.R ; O O O p =.w.r.r.e.o.R R R g ; # @ @ < #.z.j.z.%.q @ @ # o o o o O O # # # # # @ @ @ * - - * - , , > @ , @ q $XkXcXkXkXkXkXlXlXlXlXkXkXkXkXkXnXnXnXnXnXBXBXBXBXnXnXBXnXnXnXnXnXnXnX).).M.M.).M.M.M.M.M.M.M.m.m.v.l.v.v.l.v.m.m.m.m.z.9 : % O @ , , - @ , @ , - , n                                                                                                                                                         ",
"                                                                                                                                                                                                                          1 , @ 6 L ' ' Y ^ ^ E E E ^ ^ ^ ^ T T Y ~ Y I E { 3.6.<.<.:.:.<.<.:.:.<.<.:.1.P.I././.W.L.1.1.7.8.6.8.8.8.8.8.6.6.<.<.<.<.6.6.6.6.8.8.8.8.[ W E I T w X . + @ u.$XoXOX`.l.R _ ) ) j . . . . : R O.R ..X.9.w.k.k.-.T D D D o.w.r.t.w.t.Y.Y.Y.b.T X . + o l k.w.w.w.9.o.o.....v q - : 7 F /..X.XXX*X=X6X;X.X/.>.F I P 9 O o o . o o . . $ s O.-.9.0.T.XX.X.X X7.y % * 3 y o.9.9.-.R : O O O i =.w.r.q.e.o.R R R g ; # @ @ < #.z.j.z.%.q @ @ o . o o . o # @ > , , , , , < 1 1 2 2 2 2 2 2 3 3 2 j $XdXjXgXgXgXfXfXfXfXfXfXfXfXgXgXgXlXlXkXkXnXnXnXnXnXnXnXnXnXnXnXnXnXkX).).M.).).).M.M.M.M.M.M.M.m.v.l.v.v.v.v.m.m.B.B.z.u ; - 1 2 , 3 1 1 3 , 1 2 3 n                                                                                                                                                         ",
"                                                                                                                                                                                                                        K., > > ; i j b j l j j l s z Y ^ E W W ^ ^ ~ E ! ;.4.:.:.<.<.:.,.,.,.7.0.P.P.q.0.0.q.q.q.7.6.6.6.6.7.7.1.7.6.:.{ { | { 3.:.} :.:.;.{ 2.;./ / W E ~ T 0 X . . O +.+X%XOXoXv.R O.) n j . . . O - i j l j P #.*.=.#.o.o.R ..R #.=.9.5.-.9.Y.Y.^.x...X . . $ u %.*.=.*.U l j l l g h g p a ^ 9.^.^.^.^.^.).^.^.9.o.T I P c p p y p y y p p p f R #.X.=.9.l.b.b.k.=.V p p p D Q o.#.#.c < O X $ 0 o.w.r.r.4.Q S R T s ; @ # # 3 j n n n j 1 @ # @ # # o o . 1 u.n.n.n.n.B.B.B.B.B.S.S.F.S.n.z.z.s.&.z.@XiXiX<X<X<X<X<X<X<X<X<X<X<X<X<X<X2X2X2XsXsXsXsX2X2X2X2X2X2X2X2X2X2X2X).M.M.M.M.M.M.M.B.B.m.m.m.m.v.j.h.h.*.5.l.M.b.b.x.5.^ ^ ..^ ..#.#.#...o.$.$.*.i.n.                                                                                                                                                      ",
"                                                                                                                                                                                                                m , , 3 , @ > > O * - - - - - - % % 7 V ^ ! W W / / / / / :.4.3.:.<.<.:.:.<.<.P.^././.W.7.<.<.<.6.<.<.6.7.7.6.7.1.7.6.} W W ( W W W W [ W W ! ! ! E ! E E ~ T u O . . * +.+X+XOXoXv._ O.@.) j . . . . O @ - * % 7 f R R D R T R R R R T o.Q G X.Y.Y.^.b...X X X X ; P P c P 0 : % - ; i c R T ^ S o.X./ ! [ [ [ G o.Q S R R P R -.-.-.-.-.-.*.5.=.o.I S S S I T Q Q T T I R R R S I D R R s ; X X $ 0 #.w.r.w.4.o.R R R s : @ @ # > 4 4 , - * X # @ # # # o o X n $XzXcXcXxXBXBXBXBXVXVXVXVXBXxXiX<X1X+X+X+X+XoXoXoX`.).`.).).oXoX%XoXoX`.`.OXOX+X+X+X#X#X#X#X#X#X#X#X#X#X#X#X#X).M.b.M.M.m.m.m.m.m.m.m.v.m.l.*.T ' ^ =.k.b.M.M.).M.m.V.N.N.N.N.N.N.N.).).N.B.n.j < 4 > > @ @ @ 2 n                                                                                                                                     ",
"                                                                                                                                                                                                                j O . O O @ @ @ - - - * * - - * % $ : f T ^ E E / / / { ;.;.:.:.:.3.:.:.3.:.3.W./._._.^.7.:.:.:.:.:.<.6.7.7.7.7.7.7.6.{ W W E W W W [ [ W ! W E E E E E / ^ ' s % . . % %.+X+X#XoXv._ +.@.` j . O O # O O O X . 7 f P P P R ..R ..R R R R D G X.Y.Y.^.b.#.X X . X 7 c c c c 9 $ O O & i c ..R T ^ ^ Q Q Q Q F F D S D I R P P ..9.9.9.9.9.9.9.9.9.o.D D S D S S S S S I R T R P Y I D D P s ; O X $ 0 #.9.b.r.9.o.R T U s ; * 4 , 4 4 @ O O O O X X o o . . . X l $XzXcXcXxXBXBXBXBXBXBXBXVXBXkXpX<X<X<X>X+X@XoXoX@XoX).`.).).%X).oXoXoX`.`.OXOX+X+X+X#X+X#X#X#X#X#X#X#X#X#X#X+X).M.M.m.m.m.m.m.m.m.m.m.m.m.l.*.' #.#.*.l.M.b.M.b.b.M.N.).N.N.N.B.N.N.N.N.M.m.c.j O . . . . . X @ j                                                                                                                                     ",
"                                                                                                                                                                                                                i X % % O - @ , % * % % % * * % ; % 6 g T T T ^ / / { ;.;.{ ;.3.3.3.3.:.3.;.;.x.^.^./.W.6.:.<.<.<.<.<.<.6.6.7.7.7.7.8.{ W ~ / / ( W { W W W / E E E ! W / ^ ' s % . . * &.1X#X#X@Xv.O.+.@.@.b . o o O O O . X X 7 c P P P R T R ..R ..R R D G >.Y.R.^.b.#.O X . X 6 c U U c 0 % O % & 0 c ..R R I I S D Q Q S S D D D S S D D T 9.9.9.9.9.9.9.w.9.X.G S D D D D D I I S D D D P I I D R R h w % X $ 0 =.k.r.w.9...T T _ l ; O O @ 4 @ @ O % O O O O O X O O O X v ,XhXkXxXxXnXnXBXBXBXBXBXVXBXkXsX<X>X1X+X+X+X+XoX@XoX`.oXoX%X%XoXoXoXoXoXoXOX@X+X#X#X#X#X#X#X#X#X#X#X#X+X#X#X+XN.M.m.m.m.m.v.m.m.m.m.m.m.m.l.*.' =.=.*.l.M.b.M.M.M.).N.N.N.N.N.B.N.M.M.M.M.m.z.u X . . . . . . > m                                                                                                                                     ",
"                                                                                                                                                                                                                b ; 6 : : 9 ; < ; 9 9 9 9 9 9 9 9 9 i z U U U Y ^ ^ ^ / / / ;.3.:.:.3.3.3.;.;.x.^.^.^.q.<.:.:.<.6.6.6.6.6.6.6.6.6.6.4./ E E E E W { ;.{ ;.W / / E E ! ! / / ' s % . X % &.1X+X#X@Xm._ +.+.@.b X o o o o . . . . : g c c P P U c c c U R R D G X.Y.R.].b.=.O X . . < l c l g i : : ; 6 u R ....T R o.o.o.o.o.Q o.T R R R D D D Q 9.9.9.9.e.e.e.e.w.e.>.G G y.o.o.G G Q Q R R Q o.D I D D P c u & $ & p #.9.w.x.9.#.T U U k 9 1 1 1 i u u i 9 q q 9 9 9 9 1 9 9 6 _ ,XkXkXkXkXkXkXlXnXnXnXnXBXkXfX<X<X>X>X+X+X@XoXoXoXN.N.).).M.M.m.m.m.B.B.B.N.).%X%XoXOXOXOXOXOX`.OXOXOXoXoX).).M.m.m.v.l.l.z.z.l.z.z.l.l.l.z.*.T =.#.*.l.M.M.M.M.M.M.M.M.M.).N.M.N.M.b.b.M.v.z.s % X @ @ O . X # j                                                                                                                                     ",
"                                                                                                                                                                                                              C.a.O.+.O.O.%.@.+.+.%.%.&.+.%.&.i.&.i.+.v s u u u p p p p a V E / W W { ;.;.[ [ 6.q.0.0.6.:.:.<.<.<.<.6.6.6.6.:.:.:.3.;.E C B C C { !.).^.).;.E E E E ! ! ! / ^ s % X X * i.1X#X#X@Xm._ +.+.u.b X # # # o o . . . : l c c c s 9 9 9 i g P R I D >.Y.R.].^.=.$ X . o * 1 q 9 9 u l g c c P T ..T T o.=.-.=.-.-.X.-.9.5.9.9.9.9.9.>.9.9.9.4.e.Y.Y.Y.Y.r.w.w.r.r.9.9.9.9.>.5.9.>.-.o.T I D D R R c 0 9 0 g o.-.9.9.X.l u 0 u s v +.i.a.c.n.C.B.n.n.n.n.n.n.n.n.n.n.n.B.1XpXsX2X2X2X2X2X2XsXfXsXfXfX2X<X<X>X>X#X>X#X@X+X).v.k.x.x.5.=.=.&.&.&.*.*.5.h.h.h.j.k.k.k.k.k.k.k.k.k.k.j.j.j.*.*.*.=.#.' T T ' T _ ' _ #.#.T P T T #.k.M.M.b.M.b.b.b.M.M.N.M.M.M.M.b.M.M.v.l.U x l b l 9 X X , m                                                                                                                                     ",
"                                                                                                                                                                                                      j , 1 j u.C.S.F.oXoXF.F.@X@X@X@X@XoXoX@X@X+X@Xn.U 6 & : * % * % & & e B K C C ! { [ [ [ >.:.:.:.:.:.:.6.<.<.6.6.6.6.6.:.{ ! { ! C r r N N x.fXgXnXnXx./ Q W E ! ! / / #.s % X X - i.<X#X#X@Xm._ %.+.u.b X o o + o . . . . : l c c l ; X X X $ 9 h R D D >.Y.T.].^.*.$ X + . + X O O : u v R R R R #.#.o.o.=.9.r.w.w.w.r.r.w.9.b.].].].].r.e.9.4.w.r.].(.(.(.(.(.(.'.].^.w.w.w.9.w.w.w.9.9.$.T D R R R R P U R R o.o.o.T a ; % X % u i.S.oXiXdXzXBXBXcXcXxXxXxXxXzXxXzXkXkXsX<X+X+X+X@X+XOXOX@X+X>X1X1X>X#X>X>X>X#X#X#X#XOX@XM.5.^ ^ / K d p s s d d f f f J K K K K I I I I I I I I I I K P z z f d p e e p p p p p s s s p d f P j.M.M.M.b.b.x.b.b.b.b.M.M.m.m.m.b.M.v.v.m.v.n.n.c.v * X # j                                                                                                                                     ",
"                                                                                                                                                                                                      3 . @ - @.C.B.B.N.N.N.S.S.oXoXoXoX@XoXoXoXoX@Xm.c : % * O O @ O X % w z J C Z ! ;.[ [ >.[ :.:.:.:.:.<.6.<.6.6.6.6.8.8.:.[ / ;./ C 8 8 r a x.gXgXnXnX5.Q ^ ! W ! ! / / $.f & X O - i.<X#X#X+Xm.O.%.i.u.b X o # # + . . . . ; l l v b ; . . X X 6 c ..R D >.Y./.].^.*.% O X # + . X X O u ) ........o.o.o.o.o.9.r.r.w.w.w.w.b.w.r.].].].].r.e.e.e.w.Y.].(.(.(.(.(.(.(.(.].r.w.w.w.w.w.w.w.w.5.I D o.R R T T T R T o.o.o.o.f , O X % u p.S.@X<XsXkXBXBXBXcXcXcXBXcXxXxXkXkXkXfX<X@X#X#XOX@XOXOXOX+X1X1X<X<X<X<X>X>X>X>X#X#X#X#XN.5.^ / / I a p d d d z z f V C K K K K K I K I I I I I I I I P P z f f p p p e e p p p p g s f J V I j.M.M.v.b.x.x.x.x.x.M.).M.M.v.v.v.v.v.v.m.m.n.n.c.v % X > j                                                                                                                                     ",
"                                                                                                                                                                                                      2 o X < ) n.B.N.N.N.N.N.N.`.oXoXoXoXoX`.`.N.+Xl.g : % $ $ @ X * * $ w z L K C / { ;.[ ;.[ :.:.:.:.:.<.,.<.6.7.6.8.4.4.;.! / / ( C 8 8 8 a x.fXnXkXlXk.Q E W ! ! / / X.#.f : O O : p.<X1X#X+Xm.#.&.i.u.b X o o o . . . . . ; j b b b < . . . X 9 c R R D X.Y./.].^.5.& X X X . X X X $ i U ........o.o.o.o.o.w.r.t.w.w.t.t.e.w.t.R.(.].Y.Y.e.e.e.e.Y.].-X(.(.}.(.(.(.(.R.r.r.w.w.w.w.w.w.9.-.I D Q Q R T I T ..R R o.o.T f , # X O u i.B.oX<XsXkXBXBXBXcXBXBXBXxXxXxXkXkXkXsX<X#X@X#X#X#X#XOX+X+X#X1X<X<X<X<X<X<X>X>X#X#X#X#XoX2./ / / I a p d d d d d B V C C C K K K K K C C C I C C I C P z J f d f p r p p p p p s d s f f B I j.M.b.v.x.x.v.v.v.m.M.M.M.M.v.M.v.v.v.M.M.M.B.B.c.v % X > j                                                                                                                                     ",
"                                                                                                                                                                                                      3 o X < ) c.n.B.M.M.M.B.B.B.N.).).).).`.`.`.oXl.P u 0 9 i 9 < q w 9 s z L z J ' / ^ ! / ;.;.:.:.3.:.6.6.6.6.6.4.4.4.3.;.{ / / E C r 8 8 y k.<X2X2X2Xh.Q E / ! W ! ! ;.$.f % $ % ; p.<X<X<X+XB.#.&.%.+.b X . o o . . . . . ; j l j j - . . . X 9 c R T R >.Y./.].b.>.5 & % % % % % % : p R ......o.o.o.y.y.>.w.r.t.t.t.t.t.t.w.Y.R.(.(.R.Y.e.e.e.w.Y.].(.(.(.}.}.(.(.(.R.t.w.w.w.w.9.9.9.9.X.Q D G G G o.o.T o.o.........z , # O % u i.m.N.oX<XkXBXBXBXxXxXkXkXkXkXkXkXlXlX2X<X#XOX#X#X#X#X@X#X+X@X+X+X+X+X+X+X#X+X@XOXOXOX).).5.$./ / K N a a d B B B V V C C C C C C C C C C C F F C F Z P z J f f V f a a p p p a d d a p f f I 5.x.v.v.x.x.x.k.k.l.x.v.l.k.j.v.M.M.M.x.M.M.N.B.c.v % X > m                                                                                                                                     ",
"                                                                                                                                                                                                    f.3 o . - b i.p.j.j.j.j.j.j.k.l.l.l.k.x.b.).N.`.`.N.N.S.F.S.S.m.B.B.c.#.z s e s s e 0 e p Y { :.3.3.:.3.<.<.6.:.{ ;.;.;.{ / / / ~ E E F I I V ~ Y Y ^ I I ^ / Q ! ;./ X.$.f : $ O ; s.<X<X<X#XN.*.i.&.+.b X . o . . . . . . O - , < , O . o . . 1 c R ..o.-.t.Y.w.w.w.o.o.....R R R R R R R ..o.o.o.9.9.>.e.e.Y.R.Y.Y.Y.Y.Y.Y.Y.Y.R.R.(.R.R.Y.Y.Y.Y.Y.Y.R.R.R.R.(.(.(.(.R.Y.Y.Y.r.w.X.o.o.o.o.4.9.e.w.9.e.9.9.9.-.o.R R R g > o o X 9 ) s.z.l.N.fXBXnXnXkXsX2X<X<X<X<X<X<X<X<X#XOXOXOXOXOX@X+X+XN.j.=.=.=.=.#.=.=.=.=.$.$.$.^ 2./ ;.;.{ / W E E ~ ^ ~ ^ / / / / / / / { / / / { { 3.4.3.3.[ f d f f B Y Q E Q Y I I Y Y I V B D V D T ^ ^ ^ ^ ^ ^ ^ ^ T T Y I P P 5.x.M.M.x.M.).N.B.c.U O O > m                                                                                                                                     ",
"                                                                                                                                                                                                    f.3 o . O l _ #.=.=.=.=.=.&.*.*.*.*.=.5.l.B.B.N.>XfXkXxXBXkXfXsXsXsX1Xp.9 & & & $ $ $ $ = U ;.3.4.3.6.6.6.6.6.{ W W ! ! ! ! / / / / ;.2.2.2.V 8 t 7 7 V E $.E E / ;.! / ' d : $ $ ; p.<X#X#X#XN.*.p.i.i.b . . . . . . . . . . . . . . . . o o O 9 c ..T R X.e.t.e.e.t.Y.].].].b.b.b.b.r.9.Q D o.o.-.9.r.r.w.Y.].(.(.(.(.(.(.(.R.R.(.(.(.(.(.(.(.(.(.R.Y.Y.Y.Y.R.(.(.(.(.(.(.].(.].w.o.Z D D ;.b.].].].^.r.w.b.b.9.o.h h z u 4 # O X 1 U *.j.j.M.fXBXBXBXkXsX1X1X#X#X+X#X#X@X#XOXOXOXOXOXOX@X+X@Xl.T s s d d f f f f f f f d a K / ;.2.{ { / { 2.2.2.2.2.3.2.3.3.3.3.3.3.3.3.3.3.4.q.W.W.P.6.V a a a V / 2.5.4.X./ / / / Q I V D V V V J V V V V B f B d p e y p f *.v.M.M.).).).).N.c.U % X > m                                                                                                                                     ",
"                                                                                                                                                                                                    f.3 o . O j ) _ #.=.=.&.&.&.=.=.=.=.=.*.z.m.M.m.@XfXkXnXnXkXfX2X<XsX1Xp.; $ X X . O X X $ v { 3.3.3.6.6.6.6.6.:.W W ! W ! / / ( W { 3.4.5.2.K 8 7 8 7 K I E ^ ^ / / W 2.$.d % $ % 6 j.<X<X3X#X).*.*.p.i.b X . . . . . . . . . . . . . . . . o O 9 c ....Q o.e.w.e.e.t.].(.].].].b.b.b.r.e.G o.o.o.X.w.r.w.w.Y.].(.(.(.(.(.(.(.(.(.(.(.(.(.(.}.}.}.(.R.Y.Y.Y.Y.R.(.}.(.(.(.(.(.(.].w.o.Z D R ;.b.].].(.].r.r.w.b.9.o.g p l q @ # O O 9 ) p.z.z.B.fXBXBXBXkX2X<X<X1X#X#X#X#XOXOXoXoXoXOXOX@XOX@X@Xv.Y s d d d a a a a d d d d r C { 3.3.:.{ { { { 2.2.3.3.:.:.3.3.3.3.3.3.;.:.:.3.6.q.P.P.P.7.I V B N C X.5.4.4.2.;./ X.X.^ I V V V V V J V V J V f f f f s s p p f *.v.M.M.M.).).).N.v.U % X > m                                                                                                                                     ",
"                                                                                                                                                                                                    f.3 o o # j ) O.#.#.&.i.i.i.&.&.i.i.*.p.z.m.B.m.@XsXnXnXnXnXgXsXsXsX1Xi.: X O O X O O X * ) 3.3.4.4.,.6.6.<.6.:.W W ! ! ! / / E W { :.3.4.2.V 7 7 0 7 I E ^ ^ / / / { 2.$.s : % % 6 z.<X<X#X<X`.5.j.p.i.b X . . . . . . . . . . . . . . . . o O 9 c ..o.Q o.9.w.w.e.Y.(.(.R.R.Y.Y.r.^.r.4.G o.o.o.X.9.w.w.w.Y.].(.(.(.(.R.R.R.R.(.(.(.(.(.}.}.}.}.(.R.Y.Y.Y.Y.R.(.(.(.(.(.(.(.(.].w.Q V D P G w.^.Y.].^.t.w.w.r.9.o.h g l q # . . X < ) i.z.z.B.fXBXnXBXkX2X<X1X1X#X>X#X#X#X#XOXOXOXOXOXOX@X+XOXv.Y p e p p a a d B B V V d r B / ;.:.| :.:.} ;.:.:.:.:.:.:.:.:.:.:.;.:.;.;.:.:.<.0.P.P.I.L.S Z Z N C ;.4.4.6.4.;./ ;.;./ E P V V D V V V d f d d d d s s s p p d *.v.N.M.b.M.).).M.c.v O X > m                                                                                                                                     ",
"                                                                                                                                                                                                    f.3 o o # j ) _ _ ` +.%.%.%.%.#.%.%.%.i.z.n.m.m.@XsXnXBXmXnXfXsXiX<X$Xi.1 O X X O X $ X ; U 3.3.3.3.8.8.8.6.3.{ W W ! ! ! / / W W { :.3.2.2.I r 0 7 7 J E ^ ~ / Q / / / ~ z & $ % 9 z.sX<X3X>X).j.j.p.i.b X . . . . . . . . . . . . . . . . . O i c ....R o.9.w.w.w.t.].R.R.(.Y.Y.r.^.b.4.Q R R o.-.9.w.w.w.Y.].].].(.].(.(.R.R.(.(.(.(.(.}.}.}.}.}.R.Y.Y.Y.Y.].(.(.(.(.(.(.(.(.].w.o.D V P G w.Y.R.(.Y.w.w.r.r.9.o.h g j 1 @ o O O < U i.z.l.N.sXBXnXBXkXsX<X<X<X<X<X#X#X#XOXOXOX@XOXOX@X@X+X@Xl.I p r p p p a B V B d d d B Z 2.3.3.:.:.[ } :.:.:.:.:.:.:.:.:.;.;.;.;.;.:.[ >.:.7.0.L.I.L.Z B Z N A :.w.6.6.4.;.[ ;.;.! F V a V V B V J f d d f f f s s s f f f h.m.N.).).M.).).N.m.U % O > m                                                                                                                                     ",
"                                                                                                                                                                                                    f.3 . . o q b b v v U U ) v U U U v v ) i.c.c.v.N.1XsXfX2X2X<X<X<X<X,XC.u.@.n n ` b ) v z U F W W ! { 3.,.:.:.} W W ! ! / ! / W W ! [ [ { X.K d d d f Y ^ ~ Y ^ I C Z N V T i.a.a._ z.oX).%X).M.5.j.p.i.b X . . . . . . . . . . . . . . . o O O i c ..T I o.=.5.>.e.w.].].(.(.Y.e.e.e.4.;.G R R o.-.9.w.w.w.e.w.t.t.Y.Y.Y.].R.R.R.Y.Y.Y.Y.R.}.}.:X}.R.R.Y.Y.Y.].(.(.(.(.R.R.(.(.].b.;.Q T R >.w.^.R.R.Y.w.w.w.w.X.D p i i - O . . X < v i.z.z.N.sXBXnXBXkX2X<X<X<X+X@X).).).M.M.M.M.m.M.m.m.m.M.j.Y J J V V Y ^ ^ ^ I V d d N Z 3.8.q.8.6.<.:.:.:.:.<.<.,.1.<.:.:.:.:.:.:.:.:.:.,.7.L.L.L.L.C C C Z F 6.q.q.q.w.:.;.;.:.X.E T I Y Y V f V d f J P U U z s s p p f =.h.z.k.x.M.).).N.v.) % O > m                                                                                                                                     ",
"                                                                                                                                                                                                      , . o . . . . o . o # o @ @ @ # X X < b a.i.i.p.j.j.z.z.z.m.N.).`.oX>XsXfXfXfX+X+X+X$X$Xx = % = & d Y ^ E E ~ / / / ~ ^ / / ~ ~ ~ T ~ Q E W ( ( { W / / / ^ ^ 0 ; O * - a.+X1X#XOXb.k.z.z.x.j.j.s.s.i.v X O X . . . . . . . . . . . . . X . O i U ....T D R R Q G >.].(.(.].Y.G o.o.T R R ....o.o.e.w.9.9.-.o.R D G e.^.].R.].Y.w.w.e.e.Y.(.(.:X:XR.Y.Y.Y.Y.R.(.(.(.R.R.(.R.(.].^.e.9.9.9.e.Y.^.^.].^.w.w.w.w.#.i O # # + o o o X < v i.s.z.B.fXBXnXBXjX<X1X<X<X+X=.J d d f f f f s s s s p s d L I ] E [ q.q.q.q.4.C a a H F ^./.[.[.T.I.L.q.q.q.q.0.L.L.0.0.0.0.7.7.7.7.7.0.0.0.L.P.L.0.! G [ [ ,.I./././.Q.7.1.<.<.6.,.3.3.3.$.I f B B V / 2.2.$.Q a e p p s s s s d I k.).N.B.m.U % % , m                                                                                                                                     ",
"                                                                                                                                                                                                      , . . . . . . o . o + . o . + # # X * k +.%.&.i.p.j.j.z.l.l.M.N.).oX>XfXgXgXgX<X#X+X+X$Xz % $ & & p I Y E I E E E ~ / / / / / ^ ^ Q Q Q Q / ( ( ( E E E ~ ^ ^ 7 $ X X O d.+X<X<X#XM.k.l.l.k.j.j.p.d.a.) X . . . . . . . . . . . . o . . o @ * i v T R ..R ..R Q y.>.].].].].r.G o.o...R R R ..o.o.9.w.9.9.=...D D D >.Y.].R.R.r.t.e.e.e.Y.(.(.:X:XR.Y.Y.Y.Y.].(.(.(.(.R.R.(.(.(.Y.w.e.9.9.e.Y.^.].].Y.r.r.w.9.#.i O O # + o o . X < v i.s.z.B.fXBXnXnXgX<X1X<X<XoX$.J d d a p p p p e e e 0 e d J I ] A [ q.q.x.x.8.C a a H F ^.}.[.[./.I.L.q.q.q.0.0.L.L.0.0.0.0.0.7.7.7.0.0.0.0.L.P.L.0.! ! [ [ ,.I./././.Q.L.1.7.6.6.6.3.3.5.$.I f B B V / 2.2.2.^ B p a a d d d d d I j.M.N.B.m.v % O , m                                                                                                                                     ",
"                                                                                                                                                                                                      , X o . o . . . . . o . . o + o . . * l i.i.i.p.p.p.h.z.l.m.B.N.).`.<XgXlXgXfX<X#X+X1X+Xz % X X $ e U Y I ~ ~ E E ( / / E Q Q Q Q Q Q Q Q / Q / / ^ ^ ^ #.Y T 0 % % X X i.+X<X>X#XM.h.j.j.j.j.j.s.z.d.) X O O O . . . . . . . . o o . o O . O 9 v R T R R R P D G >.(.(.(.'.Y.y.o.o...T R R R R o.9.w.e.9.o.R D D D e.^.'.].].Y.w.w.e.w.Y.(.-X-X:XR.Y.t.Y.Y.R.(.(.(.(.(.(.(.(.].Y.w.e.9.9.e.r.^.].].Y.w.w.r.k.#.i O . o . . o . X ; v i.s.j.B.fXBXnXnXfX<X1X1X1X%X#.V d d f a p p p p p e e r d K E E F [ q.q.P.q.4.C a p y F /.|.|.[./.U.L.P.0.q.0.L.L.L.0.0.0.0.q.q.q.q.q.q.0.0.0.0.0.0.X.[ ;.[ ,.I././././.L.1.7.6.6.6.4.3.5.2.I B B B C / 2.2.2.^ N 8 p p d d d d d I k.).).).B.U % O , m                                                                                                                                     ",
"                                                                                                                                                                                                      , . X # . o . . . . o . + + + o . . * j @.u.u.i.d.z.c.c.c.m.S.S.oXoX<XgXlXnXfX<X#X+X+X@Xd X X $ : s U Y T Y ~ ^ ~ E W W E Q Q Q Q Q Q Q Q Q Q ^ ^ #.R R T #._ 0 $ $ $ = =.+X<X<X#XM.l.l.l.l.l.z.z.f.d.` - X . . . . . . . o . . o o o o + X - u ) O._ T T R R R o.>.].(.'.].r.o.o.R R R R R R R o.9.9.e.9.o.R D D D >.^.].].].r.w.w.w.w.r.-X-X-X-X].Y.Y.Y.Y.Y.].'.'.(.(.(.(.(.(.Y.w.e.9.9.w.b.^.].].^.r.r.r.k.=.u : O # # . o . X ; v i.s.j.B.fXnXnXnXfX<X1X1X1X).' V d f N N a p y r r r p a B C E F F [ q.q.P.q.6.C a a H F /.}.}.[./.I.L.P.q.0.L.L.L.L.q.q.0.0.q.q.q.q.q.q.0.0.0.P.0.0.X.! [ [ ,.T./././.Q.L.1.7.6.6.3.4.3.5.2.I f B B C / 2.2.2.! Z a a a d p d d V I k.M.N.N.n.U : % , m                                                                                                                                     ",
"                                                                                                                                                                                                                @ . . . . + + + . . . . . . * 9 w w j v ) ) ) ) _ &.i.p.j.m.@X>X<X>X<XfXgXgXfXN.d.c.c.p.v w 0 e e V Y ~ E E W W G G G Q G Q Q Q Q ^ ^ ^ T p 9 7 6 e ` p.z.z.j.z.l.v.v.v.k.h.j.j.j.=.z s j j i @ @ # O * i i i i * . . o o + + o o O * 1 9 9 9 u P R D D G >.e.e.e.e.G R R R D R D R D o.9.w.9.9.o.R D D D o.9.w.w.w.w.e.e.w.w.w.e.w.w.w.t.r.Y.Y.Y.t.>.y.y.>.I.].(.(.(.Y.w.e.9.9.4.4.>.e.e.e.o.o.o.$.P 7 X . . . . o . X ; v i.s.j.B.fXnXkXnXfX<X>X1X1XoX' V B B E Q / / Q ! / / / / / ! / ! [ } P.P.I.W.q.F C C Z [ _.|.[.[.[.U.L.P.0.0.L.L.L.L.P.P.q.q.q.q.q.q.q.q.q.q.q.0.0.0.! ! [ [ ,.T./././.T.L.1.7.6.7.6.3.:.4.$.S a f B V / 3.;.;.{ ! E ^ ^ I V d V V Y 5.k.l.l.s.l * O , m                                                                                                                                     ",
"                                                                                                                                                                                                                3 . . . . . . . . . . . . . . . X X * 9 k l j j l U U _ T *.v.M.M.N.<XgXlXfXgX#XF.$XF.n.v & $ & & e I ^ E E E E G G G Q Q Q Q Q Q ^ ^ T T 6 % X $ ; d.oX@X+XoXl.*.5.*.h.*.5.j.j.s.U : % % * @ @ # X X * b v b c < X . . . o # . + o o X O O % 6 P T T o.G o.y.o.o.o.R R T R D D D D D o.9.9.9.9.o.R D D D o.-.9.>.e.e.e.w.t.e.e.y.y.o.o.e.t.Y.Y.r.>.y.G G G e.Y.(.(.R.Y.w.w.9.9.>.o.D G Q o.o.o.o.#.c 6 O X o o . . . X ; v i.s.j.B.sXnXkXnXfX<X+X#X+XoX#.V B V Q ;.4.4.3.4.q.q.x.x.8.3.3.:.:.,.P.P.I.W.q.W E E G :._.|.[.[.T.U.L.L.P.P.L.L.L.L.P.P.P.q.0.q.q.q.q.q.q.q.q.q.0.7.! ! [ [ 1.T././.T.T.L.1.7.6.6.,.:.:.2.X.S a a a Z / 3.;.2.2.;.2.2.2.' K B V V Y $.5.5.h.&.k * O , m                                                                                                                                     ",
"                                                                                                                                                                                                                3 . . . . . . . o . . . . . . . X X @ 1 i j j j b ) ) ) T =.k.l.x.M.<XgXgXfXfX#X@XoXS.n.v = % $ $ 0 Y ^ Y Y E I E Q E E Q E E ~ E ^ ^ ' ' 6 $ X . X p.S.@X#X>XM.5.*.*.p.p.p.j.j.p.U = % @ @ @ @ # X O * z z z z 1 X . X . . # . . + o o O X O 1 c R R T I ..T T T ....R R R D D D D D o.9.9.9.9.o.R D D D o.9.9.e.e.e.w.t.r.w.>.D D D G >.r.Y.Y.r.e.y.G F ! w.].(.(.(.Y.t.w.9.9.9.o.R D R T ......O.c 6 O . . . . . . X ; v i.s.j.B.fXnXkXkXfX<X+X+X+XN.' V B Z E ;.:.<.:.7.P.P.W.W.8.:.{ [ [ >.0.P.P.P.q.[ W / G :./.|.[.[.T.U.L.L.L.P.L.L.L.L.L.L.0.0.0.0.0.L.0.P.0.0.0.q.0.7.! ! [ [ ,.T././.T.I.L.1.<.<.6.4.:.:.2.X.S a N N Z { 3.;.;.3.;.3.;.2.$.K B B V I $.*.*.*.%.k * @ , m                                                                                                                                     ",
"                                                                                                                                                                                                                3 . . . . . . . . . . . . . . . . . O < q j j j b v ) ) _ &.l.v.m.M.<XgXgXgXfX#X%XoXN.m.z % X X % u U _ U Y Y Y Y T ~ ~ ~ ~ ~ ~ ~ ' Y _ ' = X X X O p.oX+XOX#Xx.5.*.p.s.p.p.z.j.d.v * * * 4 # @ O X $ % v z z z < X X X . . # . o + . . o . O 2 U O.R ..R ............R R R R R D D D o.9.9.9.9.o.R D D D o.9.9.9.9.e.e.w.t.9.9.D R D D >.r.Y.Y.r.e.G F S o.9.^.(.(.(.Y.w.w.9.9.=.R R R R R ....O.O.b 1 O o o o . . . X ; v i.s.j.B.fXnXkXkXsX1X+X+X+XN.T f B Z E { :.:.,.1.L.P.P.P.7.:.[ } >.:.0.P.P.I.q.[ W { [ >././.[.[.T.U.L.L.L.L.L.L.L.L.L.L.0.0.0.0.0.P.0.0.0.0.q.P.0.7.! ! [ [ ,.I./.T.T.T.0.1.<.7.6.6.:.:.2.X.S a N N Z { 3.| :.3.:.:.;.2.2.E B V V I =.*.5.p.%.k * X > m                                                                                                                                     ",
"                                                                                                                                                                                                                3 . . . . . . . . . . . . X X . . X @ , 2 j j m v ` ) ) _ &.l.B.m.M.sXgXfXfXfX#XoX).oXv.f & % $ $ u ) ) U ) ) U U U _ _ ' ' ' ' ' Y ' _ _ 6 % X . * i.oXOXOX#Xv.5.p.p.p.i.p.z.z.d.v ; O - @ o @ O % $ 6 z L V f ; % X X X X o . + # . . # o # 3 v R R U U R O.@.@.@.v ) U U R P R D D o.5.9.9.9.o.R D D D o.-.9.9.9.e.9.w.r.9.X.D D S R >.w.r.Y.r.9.o.S S ! w.].(.(.].Y.t.e.9.9.=.T R U U ) ) O.@.) b 1 @ o o o o o . X ; v i.s.j.B.fXnXkXkXsX1X+X+X+XB.' d B B F :.1.,.1.1.1.L.P.L.7.,.} [ } >.0.0.P.P.q.[ ! ! [ :././././.T.U.L.L.L.L.P.L.L.L.L.L.0.L.L.L.L.L.L.L.0.0.0.0.0.0.! ! W [ ,.I./././.I.0.1.<.6.6.:.:.:.:.o.S a a N Z / 3.:.:.:.:.:.:.3.;.K V V V I $.5.5.p.&.u O O , m                                                                                                                                     ",
"                                                                                                                                                                                                                3 . . O q j b b b b b b b l j k j j i < , , , 3 1 q 9 9 u b i.z.j.j.).@X@X@X+XoX).).).M.z.p.p.i.@.l 9 9 w 9 6 6 1 9 9 w w w 0 w 0 e 0 0 0 ) &.i.a.@.p.z.k.x.m.k.*.p.p.p.) l l l j q * @ - @ , k j 0 e s L P V B s s q q 9 * X . . + . . + o + , 1 9 1 6 9 9 9 i 9 2 1 9 9 i g c R R D I #.o.o.o.o.o.o.o...o.o...o.o.>.9.9.w.9.9.o.#.o.o.>.e.e.>.>.X.o.o.o.>.4.e.e.e.e.e.e.e.9.9._ u 6 ; 9 9 9 1 q q 1 @ o . o o o o . X ; v i.s.j.B.fXnXnXkXsX1X+X@X+XB.' d d B G 7.W.I.I.I.L.L.L.L.L.7.1.<.1.1.0.0.P.P.0.[ ! [ [ [ I.I.U.I.I.L.L.L.L.L.P.L.L.P.0.0.0.0.0.L.0.0.0.0.0.0.0.0.0.7.! X.[ [ } 1.L.L.L.0.1.:.:.:.:.:.:.:.:.o.S a a N C / 3.3.:.:.:.:.:.3.;.] V V B I $.5.h.p.%.u O O , m                                                                                                                                     ",
"                                                                                                                                                                                                                3 . . * l ` u.u.+.+.+.@.@.` ) ) ` ` j - X . . O O O O % % u _ %.O.O.*.=.5.*.5.M.).).N.).oX+X$X$XS.v $ X X . X X o o X X O % % % X $ X X X d.F.oX$XB.s.*.#.*.*.*.*.p.i.i.z - % % * * @ @ @ @ 9 ) U U U Y K K I V L U U U z < X O . + o o o o + + O O o O O O O O O o O o O % 9 v P R R P R R D D o.-.9.9.9.o.D D D D o.9.w.w.9.9.9.9.9.9.>.o.G G Q X.9.9.9.9.4.y.G y.y.y.>.e.9.9.) ; $ $ $ O O O X O O o o . o + o o . X ; v i.s.j.B.fXBXkXkXsX#X@X@X+XB.T a a N G P._.|.|./.U.L.L.L.L.P.P.L.0.0.0.L.P.P.0.[ W ! y.[ 0.L.L.L.L.L.L.L.L.L.L.0.L.P.L.P.P.P.P.L.P.L.q.q.q.q.0.0.0.0.! ! [ [ [ ,.<.<.,.,.:.:.:.:.;.:.:.:.:./ S a a d C { 4.,.:.:.:.:.:.:.;.F V B V I =.5.h.p.&.u O O , m                                                                                                                                     ",
"                                                                                                                                                                                                                2 . . % b +.%.+.+.+.O._ ) ) ) ` ` ` b < X X O O O O % % % u ) O.O._ #.#.=.#.=.B.).).).N.oX+X+X$XS.b X . . . . . . . . . . . X X O . O . X d.oXoX+XF.j.&.=.*.=.*.p.i.i.i.b % . X # @ # @ @ O 9 ) U L Y I J K I K J U P U v 9 X O X . o o o + + . . . . . X X . X # o o . O O < v P R R P P D D D o.9.9.9.9.o.D D D D o.9.9.9.9.w.w.w.9.9.X.D D D G X.9.r.b.w.9.o.G G G o.e.9.9.9.U % X O X . X o o o + # + o o o o o . X < v i.s.j.B.fXBXkXkXsX#X@X@X@XB.T p a N F I.}. X|./.U.L.L.L.P.L.P.L.0.L.0.L.P.q.0.[ W ! y.[ 0.L.L.L.L.L.L.L.0.P.P.L.q.P.0.0.0.0.0.0.0.0.q.q.q.0.0.0.0.0.! / [ [ >.:.6.6.:.:.:.;.;.:.:.:.:.;.:./ S a a B C / 4.6.<.<.:.:.:.:.;.F V V V I =.h.j.p.%.u O O > m                                                                                                                                     ",
"                                                                                                                                                                                                                1 . . % c #.#._ +._ _ _ _ _ ) ` ) ` b ; X X X X X X O % % 9 ) @._ ) +.O.O.O.#.n.N.oX).N.oX+X+X1XF.v $ X . . . . . . . . . . . . . . O . X d.+X@X+X@Xj.*.&.i.i.p.p.p.p.i.b @ o # # @ # @ O % w U Y L I I C K I K J I J P L 6 X X X . . . . + + . o o O O X O X X o o o o X X - b R R R R R P D D o.9.w.9.9.o.D D D D ..9.9.9.9.w.w.w.9.9.X.D D D G >.9.r.r.r.e.o.y.G o.o.9.w.w.9.) : O % O O # # o o o o o o o o o o . X < v i.s.j.B.fXBXnXkXsX#X@XOX@Xm.T p a H F P._.|.|.T.U.L.I.L.L.L.P.P.L.L.0.L.L.0.0.[ ! / [ [ 0.P.P.L.L.L.L.L.L.P.P.P.W.W.q.w.q.q.q.q.q.q.q.q.q.q.q.q.q.q.;.;.[ [ ;.:.4.4.4.4.4.;.;.;.;.2.:.;.;./ I d d B V / 4.6.:.<.:.:.:.:.;.F V V V I =.h.j.p.+.u O O > m                                                                                                                                     ",
"                                                                                                                                                                                                                i - : ; U #.=.=.#.O._ _ _ _ _ _ _ ` v 6 % O $ % * * * - : 9 b ) ) ) @.O.) +.+.n.N.oXN.N.oX+X+X1XN.c $ X X X . X . . X X X X X X X O O X $ z.@X+X#X#Xl.p.i.i.a.i.&.&.i.+.j O . + + # @ # O X 9 Y Y I I I K I I K K K K J J 0 % $ X X X . . . o + o O O . O * - * - 3 . o . X - l c c c c R R D D o.9.9.9.9.o.D D h D ..-.9.9.9.9.w.e.e.e.X.o.D D G 4.w.r.r.r.e.o.Q Q o.o.9.9.9.9.R 6 % % O @ @ # @ @ @ o o o o . o o . X < v i.s.j.B.fXnXnXnXsX#X@XOX@Xm.T p p a F P._.|.|.T.I.L.L.L.P.P.P.P.P.L.L.L.L.0.0.[ ! / y.[ 0.0.P.L.P.L.L.L.L.P.0.0.8.8.q.w.w.w.w.q.q.q.q.q.w.w.w.w.w.q.:.;.;.;.:.:.3.2.2.X.X.X.X.X.X.;.:.;.:./ I f d B C / 8.6.:.<.<.<.:.:.:.E V B V I =.5.s.p.+.u O X > m                                                                                                                                     ",
"                                                                                                                                                                                                              g.n n v b i.h.h.h.*.#._ T _ _ %.p.p.p.%.v l l l b l b l b l i u u i 9 u u q u u a.n.m.n.c.n.B.B.B.B.*.U ) ) ) ` ` ) ) ) _ _ _ ) ) ) @.) ) _ l.N.).^.).k.j.d.a.d.) l l g u < . + + + # + O X X 6 Y I E K K I I K I C C C K J d 0 w 9 1 * o . . o 3 m b b b n a.d.a.u.` # # X O % 9 9 i i u c R P D o.9.w.w.9.o.D D h h R o.#.o.o.>.e.e.e.e.9.-.=.=.4.9.r.r.r.r.e.o.Q o.o.#.=.-.-.o.O.v v l b n n K.n n j , . . . . o o . X < v i.s.j.B.fXBXnXnXsX#X@XOXoXm.T p p a F 7./././.T.L.L.L.L.L.L.P.P.P.L.L.L.L.q.q.{ ! / [ [ w.q.q.0.I.P.L.P.P.7.:.W W ! ! Q Q Q Q Q ! Q ! ! ! ! ! ! ! ;.>.;.:.3.:.{ ! Q Q I I I S S E / :.;.;./ I f f f C / 4.,.:.<.:.:.:.4.2.E V B V I =.5.j.p.+.u O X > j                                                                                                                                     ",
"                                                                                                                                                                                                      , # o - j u.+.i.%.z.l.j.z.*.#.T U T #.p.c.c.c.c.d.a.a.a.d.d.d.d.d.u.j * . X X X X X X X ) &.i.p.p.*.*.*.*.*.m.F.F.F.G.G.G.F.F.oXoXoX%XF.F.G.F.$XoX@Xz.h.h.4.9.5.s.d.d.d.b % $ X X . o # + + + . o O $ 9 I I E K K I I J I ] C C K J L z l b b 1 O . . # j g.g.g.d.n.$XuXuXuXZ.* @ X O X . X O $ : g R R R o.9.w.w.9.o.D D h h c D D Z D y.e.e.e.e.9.9.k.k.w.w.r.r.t.t.e.o.o.o.o.o.o.o.o.o.&.i.f.f.f.n.C.G.G.Z.u.j O o . . o o . X < v i.j.j.B.fXBXnXnXsX#X@XOX@Xm.T p p a F <.L.L.I.L.L.L.L.L.L.L.P.P.L.L.L.L.L.q.q.{ ! / G G w.q.q.0.P.L.0.P.P.<.F H y H H H y y a a N N N H H H H H Z Z ;.:.3.4.;.E Z N N a a a y y Z E :.;.2./ I f f f C / 3.:.:.:.:.:.:.4.2.E V B V I =.5.p.p.O.u O . > j                                                                                                                                     ",
"                                                                                                                                                                                                      , # + @ b #.$.$.2.j.z.z.d.j.' _ _ ) O.j.c.l.v.v.h.5.5.5.5.j.h.p.p.&.k % O X X X . O O . v &.i.&.%.*.*.*.*.*.m.oXoXoXoX@XoXoXoXOXOXOXOXOXOXoXoX@XoX+Xj.p.s.j.j.j.j.d.d.d.l % X O . . o . o + + + # O O 9 P I K E K K I Y U Y K K K V V V f z z 6 X X . O i a.a.d.d.c.<X1X1X1XB.% o O o # + # o O < g c D D o.9.9.9.9.X.D D c c D D h h D o.9.9.9.9.9.e.e.e.e.w.r.r.r.r.e.>.G o.o.o.o.....#.&.s.d.s.d.n.D.,XG.D.g.j @ . . . o o . X < v p.h.j.B.fXBXnXnXfX#X@X@X@Xm.Y s p r E 3.q.P.P.P.L.P.L.L.L.L.I.I.L.L.L.L.I.I.6.[ W { { { 8.q.0.L.L.L.L.L.0.4.F N d d g a p a f a d d d d d d a f f V ;.:.:.4.;.F Z N N d a p p s f U ;.;.;./ K B B C C { 4.3.:.<.,.<.1.6.:.F V B V P =.*.p.i.+.i X o > j                                                                                                                                     ",
"                                                                                                                                                                                                      , # o - b #.=.$.5.j.l.c.c.c.i._ _ U O.j.v.l.v.l.5.$.5.5.5.h.5.p.s.&.k % X X X . . X X X n i.i.i.%.*.=.*.*.*.m.oX@XoX@X@XoXoXoXOX`.oXoXoXOXoX@X@XoX+Xj.s.s.j.j.j.z.z.d.d.b % O O . . o . o # # o X O $ 0 T I K E K ] K K I I I I K K V B f z x 9 X . . O i a.a.a.a.c.,X,X,X,Xn.O . . o @ + + . o < l P D D o.9.9.9.w.o.D D P P P P D h D o.9.9.9.9.9.e.e.e.e.w.r.r.b.b.9.o.o.o.o.o.o.......&.s.d.d.f.n.G.,XG.D.f.j # o # o o o . X ; v i.p.j.M.fXBXnXnXsX#X@X@X@Xm._ s a a E 3.q.P.P.P.P.P.L.L.L.I.L.I.L.L.L.L.I.I.6.[ W ! ! ! 8.P.P.P.L.L.0.0.q.:.C a p d p a p a a a N a N N N N N B V D ;.;.;.3.! S Z Z N a a p p p f T ;.;.;./ I B B B C { 4.3.:.<.<.<.1.6.:.F V B V P =.*.p.i.+.i X o > m                                                                                                                                     ",
"                                                                                                                                                                                                      < @ O ; k +.%.&.i.j.z.z.c.d.i.@.O.O.#.j.m.m.v.l.5.=.*.j.j.5.*.*.p.%.k ; % * @ . . o . . b +.u.+.` &.=.*.*.*.l.).oX).`.oXoXoXoXoX`.`.`.`.oXOXOXoXoXoXz.j.j.p.j.s.s.d.d.d.b * O O . . O O @ O O O O $ % w U U I I K ~ K ] ] I I K I K V V J z l 9 O . . O 2 u.u.a.g.n.uXuX,X,Xn., . . . o X o . O ; l P D D o.9.9.w.9.o.R D P P P P c h D T 9.5.9.9.9.9.e.w.w.w.r.r.r.r.9.o.o.o.o.....R ....+.i.d.d.d.n.D.G.G.G.f.j # . . . o o . X ; v i.p.j.m.sXnXnXnXsX#X@X@X+Xm._ s p a F 3.q.P.P.P.P.P.L.L.L.L.L.L.L.L.I.L.L.I.7.} W W W [ 6.q.0.0.0.0.q.q.w.4.S a a d p f a f a a Z Z H Z Z Z Z Z D S :.;.:.>.! F C Z Z N a a a p f Y X.X.$./ I V B B C { 4.:.:.<.<.<.<.<.:.E V B V P =.*.p.i.+.i X X > m                                                                                                                                     ",
"                                                                                                                                                                                                      1 * O * q b v v v ) ) ) ) v ) +.O.O.&.k.b.m.m.v.l.k.l.l.z.j.*.*.&.%.) l j j j - o . . . 2 j j j k ) %.p.*.*.l.B.M.m.M.M.M.m.m.m.m.m.m.m.M.m.m.m.m.m.5.p.j.p.s.O.U ) ) n i @ O O X * 9 9 9 w 0 0 q 0 e u s s s p f ^ / / W Y K K K K V V z z l 9 X . . O 3 m m n n u.f.f.f.d.@.@ . . . X X # . O ; l P D D D o.o.o.o.o.R R U U P c c c h R o...o.o.X.e.e.w.w.e.e.>.>.e.X.o.o.....R c g g g b v n n n @.u.g.g.g.n 3 # # # + . . . . ; b &.p.*.m.sXnXnXnXsX#X@X@X+XB._ s p a F 3.q.0.P.P.L.P.L.L.L.L.L.L.L.L.I.L.L.I.7.<.:.;.;.;.;.;.;.;.;.:.;.;.X.Q V p p p f I Y ~ Q Q >.>.e.e.e.e.e.9.9.9.Q Q Q Q ! 9.w.6.4.4.! Q Q Q Q Q ~ ~ ~ ~ I I K S F ;.3.3.:.<.,.<.<.<.:.F V B V P =.*.p.p.+.u X X > m                                                                                                                                     ",
"                                                                                                                                                                                                      1 * $ O * * > > @ @ @ O % : c +.O...*.k.b.b.M.M.M.M.B.B.m.j.*.*.*.i.i.a.a.u.u.2 o . o . o . . . X j ) &.%.=.*.*.*.=.=.$.$.*.*.=.=.=.=.=.=.*.*.*.*.5.*.*.*.p.%.u : O * - O @ X X O 9 b v v P P U L U U k ; % % & p $.2.3.| ^ I V K K V V f x k 1 X o . . # o o # o @ , 3 , , , . . O . . X O o O 1 l c c D D D D D R D D P U U P c c c g c g a a D Q >.9.9.w.e.o.y.y.o.o.o.....R h i : : : - - - - - - - - - , # . . . . + . . . . ; b &.*.*.v.sXnXnXnXsX#X@X@X+XB.' d d a F ;.0.0.0.P.L.L.L.L.P.P.L.L.L.L.I.L.L.L.P.0.6.6.w.;.A Z Z Z Z C C V V f p p g p ~ 2.j.x.9.b.'.-X-X-X-X-X-X-X-X>XI V N Z G ].>X>X-X'.^.w.x.x.9.X.J B B J I ^ / / Q ;.3.>.:.:.,.8.<.:.;.F V B V P =.*.p.p.+.i X o > m                                                                                                                                     ",
"                                                                                                                                                                                                      2 * O X O @ @ # + # . . X $ v &.O.O.*.l.M.M.).).).).).N.B.j.*.=.*.&.i.a.a.d.u.3 o . o . . . . . X j u.d.i.p.p.*.*.*.*.*.*.p.p.*.*.*.*.*.*.*.*.=.*.*.=.p.*.d.i.u % O O @ @ @ X X % 9 U U P D I I L Y _ k X X $ X p =.2.3.:.^ I C K K V B f z k 9 O . . . . o o # . X # # o o # o O O . . X o . O 1 l v c P D D D P P P P P U U U c c c h g g g p h R 5.9.w.w.e.y.G G o.o...R ..R l ; O O % - - - - O O O O O O . o # + . + . . . . - c &.*.*.l.sXnXnXnXsX#X@X@X+XB.' d d N F ;.w.0.P.P.L.L.L.L.P.L.L.L.L.L.L.L.L.L.I.P.q.q.w.>.Z y H a N a B d d f a g g p C 2.9.w.9.q.'.-X-X-X-X-X-X-X-X XI V N H F '.-X-X-X-X^.w.I.^.q.E d d d V I / X.X.o.>.3.>.:.<.,.,.:.:.{ C B B f P =.*.s.p.+.i X o > m                                                                                                                                     ",
"                                                                                                                                                                                                      2 @ O O * - * @ # @ O X $ = U i.%.%.s.v.B.M.M.).).).N.M.v.j.*.=.=.#.%.i.+.u.@.< o . . o . . . . . j ` a.+.i.i.&.&.*.*.*.p.p.p.p.p.p.p.*.*.p.p.*.p.*.&.p.&.+.+.9 % O @ # # @ O % % 0 L L V C C C K Y Y k % % * $ u *.$.2.{ ^ I K K C V B V z l 9 @ . o o . . o O . O X O O @ o o . . . . O o . . < l v v c R c R R R R R c v U v c c h h h c c f D T 5.9.w.w.e.o.o.o.......R ..R b 1 O @ - @ O - % % % % % O O . . . . . . . . . . - c %.&.*.l.2XkXnXkXsX1X@X+X+XB.' d d N F :.0.0.0.P.L.L.L.L.L.L.L.L.L.L.L.I.I.L.P.q.q.q.w.4.C N V B V V B d d d a a p y F 4.w.w.w.I.(.-X-X-X:X-X;X;X;X XS N H Z G ].-X-X-X-XY.w.I.^.w.W B B N V I ^ / ! X.>.3.:.:.:.:.<.:.:.{ C B B f P =.-.s.p.+.i O O > m                                                                                                                                     ",
"                                                                                                                                                                                                      2 @ O - ; 6 ; = = 6 = = 5 6 U i.+.i.p.z.n.v.m.B.).).).M.x.j.=.*.*.=.*.p.i.+.@.< * X . X . . . . O j @.a.u.i.i.i.i.&.%.&.&.i.i.a.a.a.i.i.i.%.&.+.&.+.&.i.+.&.+.9 O O # # > @ @ % & 0 L K K S C K I I Y s & % & $ 0 =.' ' ^ E I I E C Z B V z k q O . o # + O O O O & $ : : - O O . o O . . o . o , j v v v v c c c c v v v c U c c h h h h g f g h R =.9.9.9.>.o.o.........R O.n l 1 @ O @ O % : : : & : : : : % . . . . o . . . . - c %.&.*.l.2XkXkXkXsX<X+X+X1X).#.J B B F :.0.0.0.P.L.L.L.L.L.L.L.L.L.L.L.I.I.L.0.0.w.6.q.5.C N B N B V V V V Z N Z Z N A >.w.0.0.I.(.}.-X X}.}.:X;X:X}.G H H H  ./.}.-X:X-XY.L.I.q.w.! Z Z Z V I ^ / / / :.3.:.:.<.,.,.:.:.;.C B B f P =.*.s.s.+.u O O > m                                                                                                                                     ",
"                                                                                                                                                                                                      2 @ * ; L ' / ( ( ] ( E ] U x v v b b n n ) ` p.m.N.).M.x.k.j.j.j.j.j.p.p.i.) l u 9 q q 1 1 1 1 i j b b b b b b b b b b b b n n b b v v n b v b b b b b l l j 1 O O # # , < ; ; 6 e J I K K K I ~ Y Y L e 0 0 0 s s s 0 0 N / E ! ! Z V B V z w X X o o < i i i 0 p o.....R c . o . . . + o o # - 1 q i u i i i i i i i i i i i g h h h h h h h c R ..o.o.o.o.o.R ....R c g l l i 3 O O @ - i u u p g R R R R s : X . . . . . . . - c %.&.*.l.>XsXsXsXsXfXsXsXfX+X#.d d N F :.0.0.0.L.L.L.L.L.L.L.L.L.L.L.L.L.L.P.0.G G W ! W ! ! F F ! >.3.3.>.>.:.:.:.:.e.t.Y.Y.Y.Y.Y./.T.T.T.}.:X;X:X:X>.G G G y.T.}.}.}.(.Y.e.0.w.6.4.>.;.;.X.S C C C C ;.3.3.<.:.,.1.:.3.;.F B V V P =.5.s.s.+.u X O > m                                                                                                                                     ",
"                                                                                                                                                                                                      2 * = s h.#X&X&X|.|._._._.c.z $ . . # # o . O k z.B.N.).M.M.M.m.m.l.j.*.#.&.%.&.i.a.a.i.@.v n ) b 1 O O O . . . . o o o O O @ O O O O O O O O O O O X X X O X . . o @ @ q v v z z J K K C E I ~ Y I T ^ Y ' $.Y z & X . O a $.2.5.2.C Z V J z w $ X X O 2 O.O.T o.9.`.`.`.`.s.% . o # . + o . . . . . . . . . . . . . . . X X : u l h h h h h h h c D D D D D R R R R g : % O O O O O @ @ : c O.O...-.b.`.`.V.#.i O . . . . . . . - b &.*.*.j.`.#X#X1XsXkXnXnXBX<X*.V B N F 3.0.0.0.L.L.L.L.L.L.L.L.L.L.L.L.L.L.0.<.Z H H N E q.x.x.q.].-X3X3X3X3X3X3X3X3X;X-X-X-X-X(.Y.0.L.L.I.}.:X;X;X;X-X X X}.(.}.(.R.}./.1.y.>.>.4.x.(.(.'.^.! N N N V / 3.4.6.:.,.,.:.3.;.S B V f P #.j.s.s.+.u X O > m                                                                                                                                     ",
"                                                                                                                                                                                                      1 * $ 7 5._.|.|.|.~.Q.Q.!.S.z X X @ # # @ # X k z.B.B.B.N.B.M.B.B.m.j.*.=.=.%.=.&.i.&.@.) v v ) b i O . . O O O O o # O @ @ @ @ @ @ # O O O o O o o o . . . . o o O X @ i x v z z V I I E ] K I Y I Y Y E K ~ K s $ X O @ p $.2.2.2.E Z B V f w X X O * i T T I Q >.].].`.`.k.% . . + . + . . . . . . . o o o o o o o o o . X : u c l h c c c c c c P P D R R R ......l < % O O O O O O O 7 c ....R o.b.M.V.b.=.7 X X X . . . . . - v i.p.j.l.oX#X+X#XsXnXBXBXBX<X*.f B N E 3.q.0.L.P.L.L.L.L.L.L.L.L.L.L.L.L.L.P.7.A H H y C 4.w.w.w.Y.'.;X-X-X-X;X;X;X;X:X-X}. X'.].I.0.0.0.L.}.-X;X;X;X;X X X X}.}.(.}.(.(.0.} >.>.4.b.].].(.^.! N N a V / 2.3.:.:.,.,.:.3.;.K B d f P =.-.s.s.+.u O O , m                                                                                                                                     ",
"                                                                                                                                                                                                      < = & 8 8.|.XX.X{.[.[././.v.a $ % % O O @ * X j d.m.m.m.m.m.m.m.m.l.s.*.#.*.*.=.=.%.&.%._ v c v b u - O . o O o o o O O # @ @ # @ @ @ # # # o o o o o o o . . o o o . O u l x z f J I E E ~ E E E Y E E S E E I d $ X O . a #.$.$.2.E V f z f w X X X O i Y T I G >.].].`.V.-.% X o + . + . . . . . o o o . . . . . . . . O X - u b b b c c v v v U R R R R R R ....O.b ; O O O O O O O O : h R R D -.b.b.b.b.=.0 O X . . . . . . ; v i.p.j.l.oX1X#X1XsXkXnXBXBX<X=.d B N E 3.q.L.L.L.L.L.L.L.L.L.L.L.L.L.L.L.P.q.6.C N N Z S 4.w.w.w.Y.(.-X-X-X-X-X-X;X;X-X-X(.'.-X'.Y.I.q.q.I.'.-X-X:X:X X}.}.}.}.}.(.'.(.].0.>.4.3.4.^.(.].'.].X.V V B C $.5.5.:.:.<.:.:.3.{ C B d f P =.-.s.s.+.u O O > m                                                                                                                                     ",
"                                                                                                                                                                                                    c.9 5 5 H <.|.{.XX[.[.[.[./.^.F 5 5 5 & & = & $ s d.B.B.B.n.n.n.n.n.z.s.&.#.#.#.=.=.&.i.&._ U U ) v u % O O O O O O O @ * * - * @ @ # # # # # # o o o o o o . . . . X X $ u z z z V J Y ~ E E E E E E E W E E E I d $ X % O p _ =.$.#.I V V z z 9 $ X X O 2 T R D D o.^.`.`.`.j.% X . o . . X X X . . o # o o o o o o o o o . . - j b b b b b v v v v v U U R R ) @.O.O.l 1 O X O O O O $ % 7 h R R D o.w.b.r.k.#.7 X . o + . o . o 1 v p.s.j.l.oX>X#X1XsXkXBXBXBX<X*.d N N E 3.q.L.L.L.L.L.L.P.L.L.P.P.L.L.L.L.P.q.6.C N a a S 5.x.w.w.Y.'.'.'. X X X X-X-X-X-X'.'.'.].w.w.w.w.q.'. X-X X-X:X X}.}.}.(.(.(.'.].w.;.3.3.9.^.'.'.'.^./ a a d V ^ 2.5.:.:.4.:.:.:./ C a d f P =.*.s.s.&.u O O > m                                                                                                                                     ",
"                                                                                                                                                                                                    B.5.3.3.7.Q.|.XX.XXX.X6X6X6X&XP.[ G W ! / / / ~ Y _ ) ) v v ) ) U v U O.&.=.=.=.&.*.*.i.%.U U v ) ) l u u j i i i i i u u u u j i < O o . o . . . . . . o . # o o X O X X w s s p d V ~ ^ ~ F ! ;.3.{ { ! E E E I z 7 6 9 w u s f f f B P P U z q % X . O 1 R T D D Q 9.w.9.k.#.$ . . . @ < ; ; = O X X X . o o o . . o o o o o @ 1 i i i i i i i i u u u u l l l b l l i - @ O O - 9 9 6 ; 9 g c D D o.9.w.9.k.#.9 O . . + . o . o 1 v s.z.z.v.oX1X>X1X<XsXgXgXfX#X=.d B N E 3.q.L.P.L.L.L.L.L.P.P.L.L.L.L.L.L.I.q.8.S N B a V ^ X.;.;.;.e.w.w.w.w.w.w.w.w.I.].].'.(.^.w.w.4.e.e.^.^.^.^.^.}.}.}.(.(.^.q.q.w.w.4.4.4.4.4.4.e.9.9.4.^ C J J f S I E S ! 3.;.:.;./ C a d d P =.5.s.s.&.u O O > m                                                                                                                                     ",
"                                                                                                                                                                                            m , & d h._.&X&X.X.XXXXXXX.X6X9XqX9XCX&X|.|.|.|.|.|. X_.x.B 6 % O @ O O X . : l O.&.&.=.=.=.&.p.&.` ) v ) ) ) ) ) ) ) ) ) ) ) ) ) _ ) ` v i @ o o + o o o . o . o o . . . . X X X 6 s a p d V Y ^ Y G :.q.q.q.8.;.E C I P Y P Y U U u : $ % & p P P U v i O . o O 2 U R P D D Q D D R v X X . O 1 b U U z w * O X X o o . . . . o o # + . o o o O O O O @ * % * % - - % % % O @ @ O O . O ; u k k s g c h h h Z D D D D g : X o + + . . . O 1 ) s.z.j.v.@X>X#X+X+X1X<X#X<X).' d B B E 3.q.P.P.L.L.L.L.L.P.P.L.L.I.L.L.P.I.q.w.S f f d p p a N V N N y y y y y a a a G w.^.^.r.w.>.>.o.>.o.>.>.>.>.>.R.(.'.'.].;.Z H N S X.4.9.4.;.! Z Z C V V B a a a a a N y C 2.2.;.;./ C a d d P =.5.s.s.&.u O X > m                                                                                                                                     ",
"                                                                                                                                                                                            2 # $ e h.#X&X.X.XXX*X.XXX.X0XqXrXqXCX=X|.XXXXXX|.|._.|.x.B = $ X + . X . . - l +.&.&.&.&.&.*.p.&._ ) v ) ) ` ` ` ` ) ) ) ) ) ) _ _ ) @.n i O . o O o . . . . . . . # + o . X X $ 7 p p a d J Y ^ T G ;.6.q.q.q.3.F E Y P P P I L Y j % X $ $ 7 L U U v q O . . O 2 U P D D D R D R T v X X . O 1 b U U z w $ X X X o o . . . . o o + # # O o O O O O O @ @ * O % * - % % * @ O O O X X O < u l k s u c c P V Z D G o.o.h ; O . + + . o . O 1 ) s.z.z.m.@X>X+X>X1X1X<X#X1X).#.d N N E 3.q.P.P.L.L.L.L.L.P.L.I.I.I.I.I.I.I.P.w.S a a s d f d d B a B a a a a a f f f F q.x.q.b.w.>.o.>.>.o.>.>.>.>.>.(.(.(.'.^.! C C Z S X.5.4.3.;.G Z K K V V B f V a a y N N C $.2.;.;./ V a d d P =.5.s.s.&.u X X > m                                                                                                                                     ",
"                                                                                                                                                                                            q X X 0 4._..XXXXX.X.X.XXX.X0XNXNXrX9X6XXXXXXX{.[.{.[.|.x.N $ $ % O X X X . % c &.&.&.&.&.i.i.g.u.@.U U _ _ _ _ _ _ ` ` ) ) v U R R ) ) n u O . o # . o o . o o . . + + o . . . X ; u k s d L ~ ~ ~ G [ 0.0.0.7.:.A A ] ] ] K E I I u % $ $ $ 0 v v b v i % O . O 1 v v c v R R R R R c $ X X % 9 b P P V 0 $ X X X X . X o . # # o # @ @ @ @ * @ @ O @ > @ @ 4 4 4 * @ @ # O O o # o o O ; s d d a s g c c f P T T T _ b ; . X # o o o . O 1 ) d.z.z.m.+X1X+X#X#X1X#X+X1XS.#.d d N E 4.q.0.0.P.L.L.P.L.L.L.L.L.I.I.I.P.I.W.6.F H Z d f a y H Z N a a p p a a a B B F w.w.x.x.w.>.>.>.;.;.>.4.4.X.>.^.].'.'.].;.Z Z B C 2.5.4.5.4.Q B K K C N Z H Z N d L d B V ! >.;.;./ V a d f P =.h.j.s.&.u O o > m                                                                                                                                     ",
"                                                                                                                                                                                            2 O $ 0 4._.XXXX{..XXX.XXX.X0XNXNXrXNX6XXXXXXXXXXX{.[.|.W.A 5 & & $ $ $ $ % 6 v &.&.&.i.i.i.a.u.@.n U U U ) ) ) ) ) v v ) ) U U U ) ) ) v u * X o o # o o . o o . . . o o . . X X ; e s e d J ~ ~ ~ W } q.0.0.7.:.G A F E ] E E E E g & % $ % 0 c v v b q % X X * 1 v l l c v v U U U c % X X & w v Y I P p 5 % % O O . . . . . o . # # @ * * * - - - , , , , , 3 , - , - - @ @ O o o o O ; s d d a g f f g g P R T _ _ c < X o o . o o o O 1 ) d.z.l.m.+X#X+X+X#X#X#X#X1XS.#.d d N E 3.q.0.P.P.L.L.L.L.I.I.I.I.I.I.I.I.W.W.6.F H y d d V Z H Z N N N a a a a a a N F 9.w.x.x.9.;.X.;.;.;.;.:.4.;.4.].].'.'.^.;.Z Z C I X.5.5.4.;.! V C C A F ! A F I d z d V C ! >.;.;./ V a d f P =.h.j.s.+.u O o > m                                                                                                                                     ",
"                                                                                                                                                                                            3 * $ e 5.|..X.X*X5X6X0X6X0X8XNXNXrXNX9X0X0X7X0X=X{.|.[.Q.,.( ~ ~ ' ~ ~ ~ ' ' Y z l b b b b b b l j u j j j j j l k k j j u u u l v ) ) ) b u q q 2 3 . o o o # . . . . @ * - : : 9 u s s d J ~ ~ E G [ q.0.0.7.6.} } } { { ;.;.:.;.U s 0 u 0 u u s k u q 9 ; ; ; ; i i i i i u u u u l u 0 0 s z Y E ~ ~ I z z z k < @ X o o . + # @ @ 2 m n n n @.u.u.u.u.a.f.d.d.f.a.@.n n n j @ o o O < u f d d g z f f f s u u u u 9 * . o o + o # O O 9 ) d.z.l.B.+X+X+X#X#X1X#X+X+XS.' d d N F 4.q.P.P.L.L.L.L.L.L.L.L.L.L.P.<.<.6.4.X.S Z V f P 4.w.w.7.w.8.4.4.4.>.>.;.;.;.X.;.X.;.X.X.4.9.w.w.6.>.;.2.X.;.w.q.^.x.x.2.E E ^ / ^ / X.X.X.2.2.3.4.q.W.'.^.].9.I d d B V X.;.;.;./ C a d d P =.h.j.s.+.u O O > m                                                                                                                                     ",
"                                                                                                                                                                                            , . $ 0 3._.XXXX*X7XrXNXNXrXNXNXNXNXNXNXNXNXNXqX6X{.[.[.[.Q.!.!.^.^.!.!.!.!.x.L ; % O @ @ O O % % $ @ - - - - - - * * % $ $ O * i v U U ) U b v b b i o . o . o o . . X < q u u 0 s s s s d J ~ E E F [ q.q.q.P.0.7.7.7.q.8.q.q.w.w.' P z P z 0 & % $ % 9 u k k u 9 X O O O X X O O % u v Y Y Y ~ ^ / ( / ^ ^ _ _ U q * . . . . . # + @ j u.f.u.g.c.C.C.S.F.G.,X,X,X,XD.c.f.f.g.b @ o o O < u z d d p z f f f 7 % X X O X . . o # # o # O O q ) d.z.z.m.@X+X+X#X+X+X#X#X+XS.#.d d N F 3.q.P.P.P.L.L.I.L.L.L.L.I.P.P.G A A C C V B V a S ^.'.'.'.'.'.].^.^.^.^.^.W.W.5.Q N Z H F 9.^.^.^.x.3.X.;.o.X.;.;.;.;.2.;.X.2.$./ S N N Z I 5.x.x.q.^.(.-X X'.].Q N d a N X.;.;.;./ C d d d P =.*.j.s.+.u O o > m                                                                                                                                     ",
"                                                                                                                                                                                            2 * $ e 8.|.XX{..X7XrXNXNXNXNXNXNXNXNXNXNXNXNXqX6X{.[.[.|.[.|./._._.[._._._.v.L % X X + o o . X O X @ @ @ @ O * % % X X X X X O q n ) U ) ) U ) ) n j X . # . o + + . X < u u u 0 u u p e p V ~ E E W { q.q.0.0.P.0.0.P.P.0.q.q.w.w.$.I P U L 0 $ $ X X ; s l z s w . . . . . . . . X q Y T ~ ! ! ! { / / ( ~ ' Y U u % . . o . . # 4 , j u.f.g.d.n.F.F.S.F.,X<X<X1X,XG.n.f.f.d.n , o o O ; u l f d s z f f z w X X . . . . . . . . o # O O q O.z.z.l.m.@X#X+X#X#X#X#X#X+XN.#.d d a F 3.q.P.P.P.L.L.U.L.L.L.P.I.0.7.A A Z Z V V f d y S (.-X}.}.}.(.(.(.].].].^.^.^.9.I a Z H S w.^.^.].^.4.>.>.X.X.! / ! ! ! X.X.5.2.$.S a a a S 5.x.W.P.^.(.-X}.'.'.F a B B V X.X.:.:.X.C a d d J =.*.j.p.+.u O O > m                                                                                                                                     ",
"                                                                                                                                                                                            1 X $ 8 8.|.XXXX*X0XrXNXNXNXNXNXrXrXNXNXNXNXNXqX6X{.[.[.[.[.[.[.[.[.E.[./._.x.V $ X X o . . O O $ $ O * * % $ $ % $ % $ X X X O q n U v v v v b v v j X . X . . + + X X < q u s p s s s p p V ~ E E W { q.q.7.7.0.0.0.L.L.0.0.0.0.0./ K C I L 0 $ $ $ $ 6 s l z s 6 . . . . . . . . % e ' ~ E W W W { { { / / ' ' Y e % X X O . . # @ 4 j u.f.d.d.n.F.F.S.F.,X<X<X<XuXG.n.f.f.d.b - o o O ; u l s f z z z z z 9 X . . . . . o . . . o # O O q O.z.z.l.m.@X+X+X#X+X+X#X+X#XN.#.d a a F :.q.P.P.L.L.L.L.L.L.P.I.I.q.0.A A Z Z V V J z H G (.-X}.}.}.}./.].].].^.^.^.^.k.I N N H A w.Y.^.^.Y.<.>.>.X.X.! / / / Q ! ! ! ;.o.C y y a S 5.w.q.I.Y.(.;X-X-X].G H B B V X.;.:.:.X.C a d s J =.*.j.p.+.u O O > m                                                                                                                                     ",
"                                                                                                                                                                                            s & 5 H 8.[.XXXX.X6XrXNXrXNXNXNXrXrXrXrXNXNXNXqX6X{.{.{.[.[.[.[.[.[.E.E.[./.W.E t & & % $ % & & & & = 5 5 5 5 5 5 & & & $ X X * q m n v v v b b n n q X . o . . + + X X 6 u s s s s u u 0 e V Y E E F [ q.q.0.7.0.L.L.L.L.L.L.P.0.0.! C K E I e & $ X X < u k k u w . . . . . . X X & e / / ! W  . .[ [ { { ( / ~ I 0 & X O X . o o @ , m u.f.g.d.n.A.A.A.F.$X,X,X,X,XD.n.f.f.g.b , o . O < u l s d z s s k j < O . X X . . o o o o # # O O q @.z.z.j.v.@X#X+X+X+X+X+X+X#XN.#.d a a F :.q.P.P.I.L.L.L.L.P.0.0.q.q.w.A A Z C C B f z Z G (.}.:X}.}./.(.].^.].^.^.^.^.5.I Z H H A w.Y.Y./.Y.e.>.<.>.;./ / ! ! G X.X.X.;.X.A H Z Z S / w.w.q.I./.-X}.'.].G N N a V X.2.:.:./ C a d d J =.*.p.p.+.i O O > m                                                                                                                                     ",
"                                                                                                                                                                                          z.Y J A [ W.|.XXXX.X5X0X7X7X9XrXNXrXrXrXrXrXrXrX8X6X{.[.{.{..X*X*X*X*X.XXXXX.X XW.3.2.$.^ E I I E E E ~ ~ ( E E E E E C B p 0 w 9 9 q q 2 q q 2 q q q < . . o . . . . X X 9 s s s 0 w 6 6 6 7 f Y E E W { q.q.0.1.L.L.L.L.L.L.L.L.L.0.:.W ! / ^ V 7 6 < < < 9 9 9 ; - . . . . @ - < 6 0 V 5.3.:.:.} [ [ [ { { ( / / ~ d 7 = ; ; * @ @ # @ 2 j n b v @.u.u.u.u.a.d.a.i.u.u.n n n n i @ . . X ; u g s d u 9 ; 9 < ; - - - - * O o o o o # # O * i @.z.z.l.B.1XsXsXsX<X1X+X+X#XN.#.d a a F :.q.P.P.L.L.L.P.P.7.>.! ! ! ! ;.;.:.3.X.I V f H G '.}.:X}.R.L.1.<.>.>.>.;.X.X.5.o.;.;.>.<./.(.}.}.(.Y.Y.Y.q.q.9.4.3.4.;.6.w.w.w.w.w.4.6.4.4.4.o.X.! :.0././.Y.q.G N N B V X.:.:.:./ C a d d J =.*.p.p.+.i O O > m                                                                                                                                     ",
"                                                                                                                                                                                  n b k U h.x.!.W.Q.|.XXXX*X*X*X*X*X*X6X9XNXNXNXrXrXrXrXrX8X6XXX[.[.XX6X7X8X7X7X7X7X7X7X0X0X6X3X3X3X_.!.!.Q.Q.Q.!.!./.Q./.W.W.^.W.4.~ I U v w * # @ X X # X o # . . . . . . X X X X 9 u s s s 6 $ $ % % p T ~ E F :.0.0.0.L.L.L.L.L.L.L.L.L.L.L.1.7.6.6.4.E a z k j 1 O X X X X . . . . * k s d B / x.8.q.6.<.[ [ { { / / / / ^ J d s s j 9 @ O # # - , - < 1 < 1 1 2 2 1 1 1 1 3 , - , , 4 @ # o . X < u z d p 9 % $ % X * q i j j q * o o o o o # O * i @.z.l.l.B.sXkXkXkXfX1X+X+X+XN.' z a a F 3.q.0.P.P.L.L.P.P.e.F Z Z H A e.I.I.^.x.F Z V Z G (.-X:X:X/.y.A A C Z N a a a S w.^.^.Y.(. X-X:X;X;X:X X X X'.^.x.P.q.I.].'.'.'.(.(.'.'.'.].3.Z a N C ;.q.w.w.e.A N B N B ;.3.:.:.;.S a d p f #.*.*.p.+.u X O > m                                                                                                                                     ",
"                                                                                                                                                                                  , % $ r 3._._._.|.XXXXXXXX*XXX.X.X.X=X7XrXNXNXrXrXrXrXrX8X6X{.[.{..X6XqXqXqXqXqXrXrXrXrXrXrXrXqX9X=X|.|.|.|.XXXXXXXX[.XX[.[.|._.W.{ ~ ' U w $ . . . . . . . . . . . . . . X X X X q k s s s ; X X $ % u Y ~ E G ;.0.0.0.L.0.L.L.L.L.L.L.L.L.L.0.0.0.q.w.Q f f l u < X . . . . . . . X ; x J V B { x.x.x.q.6.} [ [ { [ ! / / ^ I V d z k w % @ O O O @ O O - - @ @ @ @ # O o o o o . O o o o . o . X < u d d d i % O O X - u j l l u - X X X . o o O O q @.z.l.l.N.fXnXkXnXfX<X+X+X+XN.' f a a F 3.q.q.P.P.L.L.w.q.3.S N N H A w.^.^.^.^.G Z C Z G (.-X:X:X/.G H N a p p p p p G w.^.^./.(.;X;X;X;X;X;X;X;X-X-X^.^.Y.I.Y.(.}.}.-X-X-X-X X-X'.>.8 y p N Q q.9.w.9.S a a N B ;.3.<.6.2.E f f d J =.*.*.s.+.u X O > j                                                                                                                                     ",
"                                                                                                                                                                                  3 X $ 8 3.Q.|.[.[.{.XX*X*XXXXX.X.XXX*X7XrXNXNXrXrXrXrXrX8X6X{.[.[.XX0XqXNXrXNXrXrXrXrXrXrXrXrXtXqX6XXX{.{.XXXXXX{.XX{.XXXXXX|.[.U.} W / ~ e $ . . . . . . . . . . . . . X X X X X w k z s s ; O O O $ 0 Y ~ ~ G :.q.P.0.L.L.L.L.L.L.L.L.L.L.L.L.L.L.q.w.! N B z g 6 X . . . . . . . X ; z J V B / x.x.x.q.4.{ ! [ ! ! ! / / / I V f z k w % $ @ O O % O O O O O O O O o . . . . . . X . . O o o . O < u z z f i % X X X = u k x l j < O X X X o o o O 9 @.z.l.l.N.fXnXnXnXfX1X+X#X+XN.' f a a F 3.q.P.0.P.P.L.q.q.3.S a a y S w.^.^.^.^.G Z Z Z ! '.-X-X-X/.W Z a a p p e e e A w.].(./.(.:X;X:X;X;X;X;X;X;X:X^.Y.Y.I.Y.(.:X:X:X:X:X-X-X-X(.y.y y a N Q x.w.9.9.S a a B C ;.:.<.6.3.E B f f P #.*.*.s.+.u X O > j                                                                                                                                     ",
"                                                                                                                                                                                  1 $ & 8 8.Q./.[.[.[.{.XX{.XX*X*X.X*X*X7XqXrXeXrXrXrXrXrX9X6X[.[.[.XX6XqXrXrXrXrXrXrXrXrXrXrXrXqX7X5X{.{.{.{.XX{.{.XX*X{.{.{.[.[.U.} [ [ E 8 5 $ % % X . . . . . . . . . X % % O % w s z k k 6 % % % % u Y ^ ~ W ;.w.0.0.0.0.I.L.L.P.L.L.L.L.L.L.L.0.0.7.! C V V f 9 X . X X X X X X % 6 s z J V ^ h.x.x.5.5.;.! [ ! ! ! / ! / K V d z x w % % O O O - - : : - * * * O O O O O O O % % O % O . o . @ < q k d d i - O X $ : u z z x u < O X X . o o . O 9 ) z.l.l.B.fXnXnXnXfX1X+X#X+XN.' f a a F 3.q.P.P.P.L.P.q.q.>.C a a y S 9.Y.Y.^.^.G Z Z Z ! '.-X-X-X^./ V d d d f f f d G I.(.(.(.}.:X;X:X;X;X;X;X;X;X:XY.Y.Y.Y.T.(.:X}.}.:X:X:X}.-X(.1.y y a B ~ 9.x.9.5.I f d V C ;.:.6.6.4.E V f f P #.*.-.s.+.u X X > m                                                                                                                                     ",
"                                                                                                                                                                                  3 X $ 8 8.Q.[./.[.[.{.{.{.XX=X6X6X6X7XqXrXrXeXrXrXrXrXrX9X6X[.[.[..X6X8XrXrXrXeXeXeXrXrXrXrXrXrXrX7X5X5X5X5X6X6X6X7X6X*XXX{.{.{.~.U.U.P.8.:.[ ~ Y U 0 X . . . . . . . X * < < 9 w s s d d s w : : - : s T ^ ~ W [ :.:.:.<.1.L.L.L.P.P.L.0.0.L.0.0.0.0.6.:.! ! ^ Y d 6 6 6 < < 6 9 9 9 6 9 w 0 0 d Y I Y I ^ / { { { { ! { ! ! E V V z z q * * O O 1 u l g g u u u u u u l g h g g c c l l i - . . o * ; 6 6 w i 9 9 w 7 0 d J J z s ; X . o o o o o O 9 ) z.c.l.N.sXBXnXBXfX<X#X#X+XN.' f a a F 3.q.0.0.P.L.L.q.q.:.C a a a S 9.^.^.^.W.F Z Z B F ^.].(.(.^.! V d d P ^ $.2.;.e.(.}.}.}.}.;X;X;X;X;X;X;X;X;X:X(.(.R.R.R.}.:X:X:X:X}.:X:X:X}.Y.>.>.;.X.Q E ^ ^ ^ V f f V Z ;.6.7.6.4.E V f f P =.*.*.p.+.i X o > m                                                                                                                                     ",
"                                                                                                                                                                                  2 O $ 8 8.Q.~.Q.[.~.~.~.E.[.6XqXrXrXrXrXrXrXrXrXrXrXrXrX9X6X[.[.[.XX6X9XrXrXrXeXrXrXrXrXrXrXrXrXrXrXrXrXrXeXrXrXrXNXrX5XXX{.{.{.{.[.[.|._._._.).).v.Y & . . . . . . . X 1 j u u s d s z d d 0 ; ; : : p T ^ ~ W W { ;.[ >.,.L.P.P.P.L.0.0.0.0.0.0.0.q.6.6.4.4.5.2.~ f d z l k f z x k w X X X % % : & 5 t B ~ { { { { ! [ / / E C V z x q * % - - i n @.O.O...........#.-.-.-.-.9.k.k.z.s.R 9 . . . o O O $ % 9 u z z f V V J J L s 6 O . o . o o . O 1 ) z.z.l.N.fXBXnXBXfX<X#X#X+X).' f a a F 3.q.0.0.0.L.L.0.0.:.Z p a a S 9.^.Y.^.x.F N N N S w.Y.Y.Y.w.E V d B ^ 9.x.^.W.T.-X;X;X:X:X;X;X:X:X:X;X;X;X;X:X-X}.}.}.}.:X;X:X;X:X:X;X:X}.-X(.'.'.'.^./ 8 a a f f f f B Z ;.6.7.7.4.E V f f P =.*.*.*.+.i X o > m                                                                                                                                     ",
"                                                                                                                                                                                  , O $ r 3.Q.Q.Q.~.~.~.~.E.[.6XeXrXrXrXrXrXeXeXrXrXrXrXrX9X5X[.[.E.{.6X8XrXrXrXrXrXrXrXrXrXrXrXrXrXrXrXrXrXrXtXrXNXNXNX6XXX{.{.{.{.{.[.[././././._.W.E & X X . . + . . X 1 k k u s d s B d d 0 ; ; ; : p ^ ^ ( ( ( { { [ [ :.P.P.P.0.0.0.0.0.0.q.6.0.q.6.6.w.6.8.4.Q V d J z z d d z l q . . o o . X X $ & d ^ { { { [ [ [ { { E S V z l 9 O O O O i n O.O.....R R R R #.9.9.9.9.9.w.k.k.j.R ; . . . o . . X X 6 s U P J K C C K I f 6 O o + + o o . O 1 ) d.z.l.N.fXBXnXnXfX<X#X+X+X).#.z d a E 3.q.0.0.L.L.L.L.7.;.Z r p p V 4.x.^.^.x.S a d N S w.w.Y.Y.e.G Z N B ! w.^.^.Y.R.:X;X-X:X:X:X:X;X;X;X;X;X;X;X;X-X:X:X;X:X;X;X:X:X:X:X;X:X}.-X}.(.(.'.^.;.8 8 a p p g f V Z ;.6.7.7.4.E V V f P #.*.*.*.+.i X o > m                                                                                                                                     ",
"                                                                                                                                                                                  2 # $ 8 3.Q./.[.[.~.~.~.E.[.6XeXrXrXrXrXrXeXrXeXrXrXrXrX9X5X[.[.[.{.5X8XrXrXrXrXrXrXrXrXrXrXrXrXrXrXrXrXrXrXtXNXNXNXNX=XXX{.{.{.{.{.{.[.[.[././._.W.E $ X X . + + + . . 1 j j s s d p B d d 0 ; ; ; ; p ^ / ! / ( { { W [ :.P.0.L.0.0.0.0.0.0.q.q.q.q.6.6.7.6.8.4.! C B J J L C V f k 9 . . + + . # X X & p ^ [ { { [ [ [ { { E S V z l i % O @ O i n @...R R R R D R $.9.9.9.w.w.9.9.9.k...; . . . . o o o O 6 z U J V I I C C P f 6 O o + + . o . X 1 ) d.z.l.N.fXBXnXnXsX<X+X#X#XoX#.z d B E 3.q.0.0.L.L.L.L.7.:.Z r p p V 4.q.W.^.x.S a d a S w.w.Y.Y.w.! V N V ! w.Y.Y.Y.R.:X-X-X:X:X;X:X;X;X:X;X:X:X;X:X-X-X:X;X;X;X;X:X:X;X:X;X;X:X-X}.}.(.'.^.3.8 p p p s f f V Z ;.e.7.7.4.W V V f P =.*.*.*.+.i X o > m                                                                                                                                     ",
"                                                                                                                                                                                  r t t 8 | Q.Q.~.[.[.[.[.[.XX5XeXeXrXrXrXrXrXrXrXrX9X9XqX9X5X[.[.[.XX5X7XqX9XqXrXrXrXrXrXrXrXrXrXrXrXrXrXrXrXrXqXtXNXrX5XXX{.{.{.{.{.{.[.[././.M.).v.L = X + + + + . X X 9 s s s d s s s s j i 9 6 6 7 a ~ ^ E Q Q / ! ! / :.q.q.q.6.6.0.0.7.0.0.0.7.7.7.0.0.0.q.<.[ F A A A A A F C V 8 & $ $ $ O . . o # j ` ' ' ' { [ } } { E P z l l i % $ @ @ 9 c ..R D D D R R D o.e.w.L.r.r.w.9.9.9...; X . o o o . . O 5 f S I F F I I P U l 1 O O O . o . . X 1 ) d.z.l.N.sXkXkXkXfX<X#X+X+XoX#.J f N F :.0.0.0.0.0.0.L.7.[ A N y a N ;.x.x.x.9.Q Z Z H G e.I.Y.^.w.G Z Z Z [ q.^././.(.(.-X-X X X'.-X'. X X-X-X;X:X;X X;X:X:X:X;X;X;X;X;X.X:X:X}.}.}.`.'.`.).^ 8 0 u p a H Z Z S ^ j.4.5.2.Q I B f P =.5.*.p.@.i . X > j                                                                                                                                     ",
"                                                                                                                                                                                v.2.| } } U.Q./.~.[..X6X6X5X6X0XeXrXrXrXrXrXrXrXrXrXrXrXrX9X6XXX{.{..X.X*X=X=X6X7XeXrXrXrXtXrXrXrXrXrXrXrXrXrXeX7X7X9X9X.XXX{.{.{.{.{.{.[.Q.7.[ ~ ' Y e % . + + + + . . X 6 s z d s 0 w w 9 u u u 0 0 0 d J K V C S / / ! / ! ;.;.;.;.:.7.0.0.0.0.0.7.7.0.0.0.0.q.0.<.:.:.:.:.:.| ;./ ^ V 8 0 e u 9 X o o # 1 k z J V E { | { { E I P z l i % $ O O 9 c T R D R ..o.o.o.e.Y.].R.^.^.w.9.9.-.R ; . . o o o . . O 7 P ^ / / W E K Y U l 1 O X . . o . . X 1 ) d.z.z.B.<XfXsXsX<X>X#X+X+XoX#.J V N F :.0.0.0.0.0.0.L.7.<.! Q Q Q Q Q ! Q ! X.>.4.4.e.0.Y.^.^.^.I.4.;.;.;.7./.}.}.}.(.Y.w.0.w.0.w.q.w.0.w. X;X;X;X:X;X;X:X:X:X;X;X;X;X;X:X:X:X;X}.I.9.9.4.2.I p s s p I ;.3.>.:.Y ^ / / E S V V V P =.5.*.p.@.i . X > j                                                                                                                                     ",
"                                                                                                                                                                        3 - - w z.)._.!./././.[.~.{.6X9XrXrXrXrXeXrXrXrXrXrXrXqXqXrXrXqXqXqX0X*X*X*X*XXX[.E.E.|.0X9XrXrXrXrXrXrXrXrXrXrXeXrXeX7X6X5X6X0X.X{.[.{.{.{.{.[.|.W.W t & & & $ X . + @ . o . . X 6 s s d s 6 & % $ ; 9 u u s s d d a a a C X./ Q ! ! W G G G [ 7.q.0.0.0.0.0.0.0.0.q.q.P.P.P.q.P.W.W.q.x.x.8.4.$.I ~ ' ` x @ o . O % * = & t N ( 2.;.{ E K J z l 9 % % o O ; c R D D R -.-.9.9.r.].'.(.'.].r.w.9.9.R ; . . . o o . . O e T 5.5.5./ E K L U k < X . . . . . . . 1 ) d.z.z.l.oX+X+X+X+X+X#X#X+XoX#.J V N F :.0.0.0.L.L.L.q.q.0.e.4.9.9.2.N 8 8 a F ^.'.'.'.(.].].^.^.^.I.I.I.q.^. X;X;X;X^.[ H H y N N H y H A /.}.;X;X:X;X;X;X:X:X;X;X;X:X;X;X:X:X;X(.y.y y 8 e 8 7 0 0 f =.w.W.^.w.E V V C V B V V V P =.j.s.p.@.q . o > m                                                                                                                                     ",
"                                                                                                                                                                        @ O % w $.OX_.Q.[.[.[.~.~.[.6XqXrXrXrXrXeXrXrXrXrXrXrXqXrXrXqXqXqXqX7X5X*X*X.X[.E.U.E.|.0XeXNXrXrXrXrXrXrXrXrXrXrXrXrX7X5X5X6X6X.X{.[.{.{.{.{.[.|.!.E 5 $ X X X X . . o . o . X X 6 u s s s 6 % % X % 9 k u s s d p p p a S X./ Q Q Q ! E G G [ 6.q.w.6.7.0.0.0.0.q.q.P.P.P.W.W.W.W.W.P.q.q.4.4.2.I I Y _ v O X . O X X X X & e ~ / { { E C J z z 9 O O o O ; l R D D R 9.9.9.9.r.(.(.(.'.].r.w.9.9...; . . . . o o . O p T 5.5.5.{ E C K L s ; X . . . . . . . < ) p.z.z.l.N.oXoX@X@X+X#X#X+XoX#.J d N F :.0.0.L.L.L.L.x.q.q.q.0.w.w.5.V 8 r y H ^.(.}.-X(.].^.^./.^.^.^.^.Y.^. X;X;X;X_.! H N r a a r 8 y H (. X-X;X:X;X;X:X:X:X:X;X;X;X;X;X;X:X;X(.y.8 y 8 r p p s s f 5.w.q.^.x.E B N N B B V V V P =.j.s.p.@.q . o > j                                                                                                                                     ",
"                                                                                                                                                                        @ O X 6 | _._.Q.[.~.[.E.[.[.6X9X8XeXrX9XeXeXrXrXrXeXrXrXrXrXrXrXrXqX7X5X*X*X.XXX[.E.Q.XX0XeXNXrXrXrXrXrXrXrXrXrXrXrXrX7X6X5X6X0X.X[.[.[.[.{.[._._.!.~ 5 O O O O O o o . o o . X X 6 u s s s : % $ X - q j u s s s p p p a P o.^ ^ ^ Q ! ! G G [ 6.w.6.6.7.0.q.q.q.P.P.P.P.I.I.I.P.P.P.q.q.q.w.w.2.~ ~ ' _ x O X . O X X $ X & p Y ' / ' ~ K V J z 9 O O # o < g R D D o.9.9.9.9.r.].(.(.(.].t.e.9.9.R ; . . . + + o o O e T $.5.3.! F C C L s ; X . . . . . . . < ) p.z.z.l.N.oX+X+X@X+X+X+X+XoX#.J B N F :.0.0.0.L.L.L.x.q.q.0.7.w.6.2.a 7 r a Z ^.(.}.}.(./.Y.^./.^.Y.Y.Y.Y.Y.}.;X;X;X^.F H B a a p p y y H '. X-X:X}.;X.X:X:X:X:X:X:X;X:X;X;X-X-X'.>.8 a a p p 0 e 0 p 5.w.w.I.q.E V B B f f V f f P =.j.s.p.+.q . X > j                                                                                                                                     ",
"                                                                                                                                                                        @ X $ 7 3._._.[.~.E.[.E.Q.[.6X9X8XrXrXrXeXeXrXeXeXeXrXrXqXqXqXrXrXwX7X*X5X*X.X{.[.E.E.[.0X9XNXrXeXeX9X8X8X9X8XrXrXrX9X7X5X=X5X6XXX[.~.[.[.Q.Q._.).x.P = . . . . . o O O o O X X X 6 u s s s : $ $ $ - 1 u u u s s s s p a V ^ ^ ^ ^ ^ ^ E E E ! 4.6.4.6.7.0.q.q.q.P.P.P.P.P.P.P.P.P.P.q.6.6.:.5.X.I I Y _ x O . . X X $ $ $ & p Y ' ' ^ E K C J z 9 O o o o - l P D D o.9.9.9.9.r.].(.(.(.].r.e.9.9.R ; . . . + + o o # e Y $.2.;.W A Z C J s : X . o . . . . . < ) s.z.z.l.N.@X@X+X+X+X+X+X+X).' V B N F :.0.0.L.L.L.L.q.q.q.7.7.6.4.2.V a y y Z I./.(. X'./.Y.Y.^.^.Y.^.Y.Y.Y.}.;X;X:X^.W H N a p p p 8 y H ^.'.-X-X}.:X:X:X:X:X:X:X;X:X;X:X}.-X-X'.;.a f a a p 0 u u p =.w.q.I.q.E Z f f a f f f f P =.j.s.p.+.q X X > j                                                                                                                                     ",
"                                                                                                                                                                        @ . $ 7 | !.[.~.~.[.{.XX{..X6X7X9X9XeX9XeXeXrXrXrX8X9XrXwXwXwXqXqXwX7X7X6X6X6XXX[.E.Q.[..X6X6X6X6X6X6X0X0X0X0X0X0X0X6X=XXXXXXX.X[.[.~.~.[.U.| | $.Y e * @ @ # # O O O O * ; : ; : 9 u s s s 0 6 6 9 9 ; 9 9 9 w 0 u s u p d P P P I I Q E E E ! / ;.;.:.:.:.6.6.6.6.6.7.6.7.6.6.7.7.7.,.:.:.{ X.E a d k k q X . . X = e e p p s z z z J V V K J g 9 O o . . - s P D D o.9.9.9.9.r.r.Y.Y.Y.Y.w.e.9.9.R ; . . . + + . o # 0 P ^ Q ! W W E E I d : X . . . . . . . < ) s.z.z.v.+X<X<X2X<X+X+X+X+XN.' V d N F :.0.0.L.L.L.L.0.0.6.[ W W / / Q o.y.G >.I./.}.(.(.I.0.L.I.I.Y.Y.Y.I.Y.}.:X:X:X].<.G G Q S a p p a a 9.x.^.Y.^..X:X:X:X:X:X:X;X;X;X/.0.q.b.9.2.Q Q Q Y d 0 s e p ^ 4.7.w.6.S B a a a d f f f P =.j.s.p.+.q X X > j                                                                                                                                     ",
"                                                                                                                                                                        @ X $ t 3.Q.~.E.{..X6X7X7X8XqXqXrXrX8XrXrXrXrXqXqXqXqXqXqXqXqXqXqXrXrXrXrXNXNX=X[.E.T.Q.T.E.T.E.E.[.[.{.{.{.{.{.[.{.[.E.E.E.E.[.E.~.~.Q.Q.F t $ $ $ X . + . . @ @ O O % 9 u u s u l l s s f z v U v c u $ $ $ $ = 9 u i p 0 p e e a B Y E E I F E F F ! G W [ [ [ [ [ [ [ [ [ [ } } [ W A A C C 8 & $ X X X . . . % k %.5.5.=.U 0 & & 5 e d V f s 9 @ o . . - s P h D o.9.9.9.e.e.e.e.e.e.e.e.9.9.-.U : . . . o o o o # 7 f J C E E ! { ;./ J 9 O . . . . . . . < ) s.z.l.N.sXBXBXnXfX1X@X+X+XN.' V d N F :.0.0.0.L.L.L.t.0.[ H 8 8 8 N ^.>X-X-X(.Y.I.W.^.I.>.>.>.>.<.q.Y.Y.I.Y.}.;X:X:X}.Y.Y.^.^.9.D p p e 8 p y 8 8 Z  X X.X:X:X:X:X;X-X(.y.8 t 8 N $.b.b.b.k.I e s s p D G ! [ ;.C f a d a f f f f P =.j.*.p.+.q X X > j                                                                                                                                     ",
"                                                                                                                                                                        @ O $ 7 3.Q./.[.[..X0XCXqXqXqXqXrXrXqXqXrXrXrXrX8XrXrXqX8XeXeXrXeXeXrXrXrXNX8X.X[.E.Q.E.Q.Q.E.E.E.~.|.|.{.{.XXXXXXXX[.[.[.[.[.~.Q.Q.Q./.!.] 5 $ X X . . # # # # O O % % w s s s s s s z d d z U z U U 9 % X X X % q i i 0 u u u p e f T Y Y Y E E E Q ! ! ! [ { { { ;.:.{ { { { { { [ W E ] E I p $ X X X . . . . $ r ' | 3.2.L 6 % % : 7 f f g s < . . . . ; s c c D o.9.9.w.e.e.e.e.e.e.e.e.9.9.-.R < . . . . . . o X 7 z I K C E / 2.2.$.P 9 X . + . . . . . 1 ) d.z.z.B.sXnXnXnXgX<X@X@X@XN.' V B N A >.0.P.0.P.P.0.L.7.:.Z r r r V ^.-X(.(.(.Y.W.W.Y.I.e.>.>.e.w.q.q.r.q.Y.}.;X:X:X XT.Y.I.x.9.K p p s p d p a r E  X X:X:X:X:X:X:X-X(.G t 8 8 N $.w.w.w.w.I p s s s I ! ;.;.;.J d p p p g f g f P =.j.j.p.+.u X X > j                                                                                                                                     ",
"                                                                                                                                                                        @ O X 7 { W.Q.~.[.&X0XCX9X8XeXeXeXeXeX8XeXeXeX8X8X8XeX8X9XeXeXeXeXCXCXCXCXCX9X.XQ.T.E.E.E.U.U.E.U.~.{.XXXXXX|.XXXXXX{.[.[.[.~.~.Q.Q.!.!.!.K $ X X . . @ + # # @ O % % & w s s s d d s d d d z U L U U w $ X X X % q q q 0 q q 0 0 0 d Y T T T ~ Q ^ ^ / / / / { { { { { { { { { { { / / ] ] ~ U s $ X X . . . . . $ r ' | 8.3.K 6 $ % & 9 l z l k < . . . . ; u c c D o.9.9.9.9.e.e.e.e.e.e.9.9.-.-.n ; . . . . . X X X 7 z Y Y I ~ / / 2.$.P 9 X . + + . . . . 1 ) d.z.z.B.sXnXnXnXgX<X@X@X@XN.' V B N F :.0.0.7.L.P.P.0.7.:.Z r r y C ^.-X'.'.(.I.x.W.^.q.e.>.<.e.6.w.b.b.q.^.'.;X;X;X XT.Y.I.W.q.C a e d p p p a r I  X X;X:X:X:X:X:X-X(.G 8 8 8 N 2.Y.I.I.q.Q p d s d I / ;.X.X.J s p p s g g f f P *.j.j.p.+.i X X > j                                                                                                                                     ",
"                                                                                                                                                                        @ o X 7 | !.Q.Q./.&X3X0X0X0XgXgX0X0X0X0X0X0X0X0X0X0X0X0X0X0X0X0XgX9XCX0XCX9X0X.XQ.E.E.E.Q.U.U.E.E.~.|.|.XXXXXXXXXXXX|.[.|.~././.Q.!.!.!.M.Y % X . . . o @ @ O % % % & = 0 s d s d d d d d d f P J P P 0 $ X X X * 9 9 q q i q q q e z _ T T T ^ ^ ^ ^ / / / / / / / / / / / / ^ / / ^ ~ ~ I Y U g : $ $ $ X X X X & r ' | ,.| ] 7 & & & 9 u s s u < X X . X ; u v U P ..9.9.9.9.e.w.e.e.9.9.9.-.-.&.n 1 X X X X X $ $ % 0 d U U Y Y ^ ' $.$.P 9 X . . . . . . . 1 ) d.z.z.B.sXnXnXnXgX<X@X@X@XN.' J B N F :.0.0.0.0.q.P.P.0.:.A H H H A ^. X X X(.I.q.x.^.w.4.3.3.4.9.w.x.x.w.^.'.-X;X;X X/.T.I.I.6.F N N N N a y N y S  X X;X;X:X:X:X:X-X(.! 8 8 8 Z 4.I.I.I.0.F 8 p p d T X.;.;.$.z s p s s s f d f P =.j.h.p.+.i X X > j                                                                                                                                     ",
"                                                                                                                                                                        @ o X 7 { !.Q.Q.W.^.^.^.).).).).).).).).).).).).).).).).^.^.^.^.).).).^.^.^./.|.[.[.[.[.|.Q.E.Q.Q.Q.Q.Q.~.[.[.[.|.[.[.Q.Q.Q.Q.W.8.3.2.$._ w X . . . O , ; ; < ; ; 6 6 7 e s d d d d z L f f J P J P P p 6 6 ; ; ; ; - - - - - * ; : w x z L J J P I I I I E E E E E E E ~ Y K V d d d d x k z s z P z f z g s s s f I ' } | | ( B p p u i 9 1 1 1 ; * * = ; 1 9 u u u c =.=.-.-.e.e.e.e.9.=.D g g l j 1 * * : ; 6 0 0 0 s e e 0 e z Y ~ ^ T z 6 X . . . . . . . 1 ) d.z.z.B.sXnXnXnXgX<X@X@X@XN.' J B N F :.0.0.0.0.:.:.:.:.:.;.>.;.>.>.^.(.(.(.^.0.e.9.6.4.4.4.9.9.9.5.X.;.;.e.(.-X;X;X X[./././.Y.7.:.e.4.;.o.G G G >. X X;X;X:X:X:X:X-X(.:.Z C C G w.(.(.(.^.X.y d d f X.4.4.4.5.P s p s s s f d f P =.j.j.p.+.u X X > j                                                                                                                                     ",
"                                                                                                                                                                        > o X 7 { W.!.W.<.A t & $ $ $ X $ $ $ $ $ $ $ $ $ $ $ $ & & & & & & & & $ 5 H W.&X6X6X6X.X[.Q.Q.Q.U.U.U.L.U.U.U.U.U.U.L.P.7.8.} H 5 $ $ * X . . . . - q q e u u s s s s s d d d s d L Y I I I I I I Y z z z l j < O X . . X . X X X = e e s p p p p d d B B B B B B d d d p 7 & $ $ $ $ $ $ % 6 T m.).v.x.x.x.v.x.x.5.3.,.,.,.3.;.2.2.#.l 6 X X X ; u k l u 9 % O O O i R R D D o.e.9.e.9.R 7 $ X O ; 1 j u s z U Y ~ ~ s 6 $ $ % 9 s z z z e = X . . . . . . . 1 ) z.z.z.B.sXnXnXnXfX#XoX@X@XN.' V B N F 3.w.q.q.<.F Z H A :.^.'.-X'.'.P.I.P.P.w.;.G G W ;.9.q.w.x.4.E Z Z H G ^.-X;X:X;X.X:X;X-X-X-X-X-X-X'.Y.Y.t.w.Y.-X-X;X:X:X:X:X:X-X XI.4.4.9.w.'.;X-X-X'.4.N f f V 5.q.w.x.x.I d p s s s z d f L =.j.j.p.+.u X X > j                                                                                                                                     ",
"                                                                                                                                                                        > o X t ( W.W.!.q.] 5 & X O X X X X o o X X X X X X X X X X X X X X X X X $ 8 q.&X6X6X6X&X[.Q.Q.Q.U.L.1.L.L.U.U.U.U.U.U.8.8.8.{ 8 $ $ X . . + . . . % 9 s s s s s s d d d d d d s J Y Y Y Y I Y I I Y J L U v l 9 X . . . . . . . X * q q 0 e p p p a d d B d d d d d d z d 0 % X X X X * % $ & P ).).W.^.W.x.x.b.x.w.;.} } } :.| 3.2.' z ; . . X < k b z z u % X . . 1 c c D D o.9.w.w.k.R & X X X * w q e s f I ~ ~ E l ; X X X < s l d d 0 = X . o . . . . X 1 ) z.z.z.B.sXnXkXnXfX#XoXoX@XN.' V B B F 4.q.q.P.:.A H N C ;.]. X}.(./.Y.I.W.W.q.>.o.! G ;.4.w.q.x.5.S H y H G ^.-X;X.X}.}.}.}.}.:X:X;X;X-X}.Y.Y.Y.I.Y.:X-X;X:X:X:X:X:X-X(.q.:.4.6.w.(.-X;X;X'.3.y a f a 5.q.q.W.q.I p p s s s z d d L =.j.j.p.%.u X X > j                                                                                                                                     ",
"                                                                                                                                                                        > + X 5 | !.W.W.8.C & $ X X . . . . . . X X X X X . . X . . . . . . . . * $ 8 x.&X6X6X6X.X[.Q.Q.Q.U.L.L.7.L.P.7.P.P.L.L.P.8.8.| 8 & $ X + + + + . X : u e e e p p p s s d s d d s z Y Y I I I I I K I L z z z l 9 X . . . . . . . X * q u s s d d f f V J L J J z z z z s s w * X O O O O X $ & I ^._.Q.Q.W.I.q.q.x.w.:.:.:.<.<.,.,.3.' J = X O O < k l f z u % % O O q v c c D o.9.w.9.9.R 5 $ % X * w k s d V ~ / ( ( x ; X % * 9 k x x z e ; X . . . . . . X 1 ) d.z.z.M.sXkXkXkXsX#XoXoXoXB._ V a N F 4.q.q.W.6.F Z V S >.^. X}. X}.I.w.q.x.w.:.! [ [ ;.4.q.q.x.9.E Z Z H G ^. X X.X:X:X:X:X}.}.}.:X X X}.I.Y.Y.Y.^.:X:X;X:X:X:X:X:X;X}.q.:.>.<.t.(.-X-X-X'.3.H a f a 5.w.q.q.q.C p s s s d z d d L =.j.j.p.%.u X X > m                                                                                                                                     ",
"                                                                                                                                                                        > # X 5 ] x.W.W.8.I 6 % % * * * * * - - - - - - - , ; ; 3 3 , , , , > , * $ a x. X&X5X5X.X[.Q.Q.U.L.7.7.7.7.7.7.P.P.L.7.8.| 3.2.B 0 9 2 2 > + + . X : 0 e p s s s s s s s s d d s z I L I I K I I K K L J L z l q X . . o + o X X O ; u u s s d d f f f z z d d s s s e s s q ; * * , - - * : 7 I ^.Q.Q.U.U.W.I.q.w.<.>.;.;.:.:.} | 3.| L 6 $ * O < l c z z 0 X X . o 1 b c h D o.9.9.e.j.R : X X X ; q k s d C E / ( ( x ; % * * < j k k k 0 % X . . . . . . X 1 ) d.z.j.m.2XkXgXgXsXOXoXoXoXB._ V a N F 6.q.P.W.:.A Z V C ;./.}.}.}.(.I.0.q.x.w.2.X.;.;.;.6.w.w.x.5.S a H H G I. X X}.}.}.}.}.:X}.;X:X:X X XI.Y.I.Y.^.:X:X;X:X:X:X:X:X:X(.q.:.e.>.e.R.-X-X-X'.>.H a a N 4.q.0.P.q.S a s s s s z d d L =.j.j.p.%.u X X > j                                                                                                                                     ",
"                                                                                                                                                                        @ . X , k ` ` v U v z s u k z v U U T %.=.*.*.*.*.*.h.h.p.p.p.*.5.5.X.^ ^ ^ #.=.j.c.c.c.z.p.p.h.2.3.8.7.7.7.L.8.7.q.8.] x k x k           n @ o . X ; i e e e e e e r r e s k s e d f d f f P J I I V K V J J z r w 6 9 9 6 6 6 6 7 e p f f f f J P P P k w < < 3 3 3 3 , 1 s P I C A A A A A F [ 6.P.P.7.7.7.8.6.,.3.3.2.3.;.3.:.:.} } F Z a p s e 9 q q 2 - @ o o # * j i u s R =.-.-.%.v - . o O ; x Y ] ] W { { X./ E C 8 r d 0 ; 9 < 1 , # . . . . . . . X 1 ` s.d.j.v.+X<X<X<X1X<X1X+X>X).^ a B V F :.L.I.I.6.F V V Z ;.^.].].].^.9.$.$.2.>.q.0.t.q.0.0.q.q.x.5.I p a a S w.]./.(.(.}.}.}.:X.X:X}..X;X}.T.Y.Y.Y.^.-X-X-X-X:X;X;X;X;X}.T.P.P.Y.Y.w.^.^.].^./ N a a N 4.q.P.W.x.I d p d s s g f f P =.j.j.p.u.i X X > m                                                                                                                                     ",
"                                                                                                                                                                        * X X X O - ; * 9 v ` i.i.p.z.n.m.B.F.+X<X<X<XsX2XsXsXsXpXiX<X<X<X<X#XoX).).x.Y 0 6 6 6 9 6 5 t t C | 8.7.7.7.<.8.8.3.N * X * k             1 o X O ; q e e s e e s s s s s s e 0 e s p s s J J I Y C I V J K L L z x x z z z z z f J P P P P I I Y Y Y k 6 * * * @ @ O @ < L h.x.q.0.7.x.x.q.6.6.6.<.<.<.1.<.<.,.3.:.3.3.3.3.:.:.} } [ { ! ^ ^ T k = * O O O o . o o # @ O $ & i P R R U k : . O O w _ $.2.3.3.8.4.4.5.2.2./ / ' d & % X O X . . . . . . . . . 1 ) a.s.s.l.oX+X+X#X<XfXkXkXlX<X5.B f N F :.L.I.I.6.F V C Z ! 6.w.w.w.4.C N a Z G ^.'.}.'.^.I.I.W.x.9.I a f a D 9.Y.I.I.T.}.}.:X:X:X:X:X}.;X}.T.Y.Y.Y.^.-X;X;X-X:X;X;X:X:X:X X X X X].Y.9.4.w.4.S p a a N 4.q.I.x.q.I d p s s s d d f J =.j.j.p.u.i X X > m                                                                                                                                     ",
"                                                                                                                                                                        @ O O . X X X X % l %.p.*.j.v.B.S.N.@X<XsXsXfXfXfXfXfXfXfXfXsXsXsX2X<XOXOX#XM.z $ X $ X $ X $ $ $ r | 3.8.,.8.8.8.8.2.8 ; * * q             , . X X ; j e s s s e e s s s 0 e s e e p e e e z P P I I K K K K I Y I Y Y U U U Y P J J Y Y I I ~ ~ ~ ~ ~ s : % % O X O X X = L k.!.W.I.W.x.x.W.W.q.<.,.<.<.<.<.<.,.3.3.:.3.:.:.:.:.:.} } ;.;.$.$.#.z % X X X X X . . . . X X X O 7 c R P v u : X X % e ' 5.3.3.3.8.3.3.3.3.2.2.2.=.d $ X X . . . . . . . . . . . 1 ) a.s.p.z.N.oX).oX<XlXkXkXlX<X$.a B N E 4.P.I.I.6.F V C V ! 4.0.0.6.>.N y y y F ]. X}. X(.I.P.q.w.4.S p p p V 4.q.I.I.Y.}. X:X:X:X:X:X:X;X}.R.Y.Y.Y./.:X;X;X;X:X:X:X:X:X X;X-X-X-X(.t.>.;.4.2.S p d a a 4.q.P.x.q.I d p s s s d d f J =.j.j.p.+.i X X > m                                                                                                                                     ",
"                                                                                                                                                                        O . O . X X X X = l +.i.p.z.m.N.oXN.@X<XsXsXsXsXfXfXfXfXsXsXsXsXsX2X>XOXOX#Xm.z & $ % X % X $ $ & d $.5.3.3.3.5.5.h.2.r X O O 9             3 O O X - u u s s s s p e s u 0 e s e e r e e e f J J P I J I K K K K K I I Y P J L L J J Y I Y ~ ~ ~ ~ ~ ~ u : $ $ X X % $ $ 5 V x.W.W.P.W.x.x.W.W.q.,.,.<.1.1.1.1.<.,.:.3.:.:.:.:.:.:.:.;.;./ ' ' ' l & $ X X X X . o . . X O X O 6 c U c v u % X X & e ^ 5.3.3.3.3.3.3.3.2.2.{ $.$.d & $ X X X . . . . . . . . . < ) a.p.p.z.N.@XoXoX<XgXlXkXlX<X$.a f B E 6.P.I.I.6.E V N V Q 4.w.w.w.4.Z N N H G ]. X}. X(.I.L.q.q.9.S a a p D 4.x.Y.I.T.}.-X-X:X:X:X:X;X;X}.Y.I.Y.Y./.-X;X;X;X;X;X;X;X;X;X;X-X X-X'.w.5.5.5.2.S p p p a 4.q.P.W.q.I d s d s s f s f J =.h.j.p.+.i X X > m                                                                                                                                     ",
"                                                                                                                                                                        - X @ O O O % % : l +.i.5.j.l.M.N.N.oX>X2X2X2XsXfXfXfXsXsXfXsX2X2X3X>XOX#X#XM.U 6 & = * % $ % % & k ' %.2.2.5.' *.*.' 0 O O O 9             3 X * @ - q u u u s s s s s s 0 e e 0 p a p d d d f z J P L I K K K I I E E ~ I K I I L J L L L L I K K K K u 6 : : = = 5 5 5 t F 8.W.W.W.W.x.x.x.x.q.,.:.,.,.,.,.,.,.,.,.:.,.,.,.:.} [ { { / ^ ^ _ _ s & $ O $ O X O @ # # . o . O ; k l l l u ; & & 5 r E 3.3.3.3.:.,.,.,.3.2./ / ' f 5 $ % % X . . . . . . . . . < ) a.p.s.z.N.oX).oX<XfXgXlXlX<X$.a B B E 6.I.I.W.6.E C B V E ;.4.4.4.2.C N H H G ]. X X}./.I.P.w.q.4.S a a p V ;.w.q.w.Y.'.}.}. X}.:X:X;X:X}.T.T.T.T.T. X X-X-X}. X-X X-X X X X'.'.].w.X.2.5.X.V p p p B 5.q.I.I.q.I d s d s s f d f J =.h.j.p.+.u . o > m                                                                                                                                     ",
"                                                                                                                                                                      u.j j j j j j u u s v +.i.h.j.k.v.m.v.M.).OX@X#X#X<X3X3X<X<X<X<X>X>X<X>X#X#X#XOXz._ U ) ) c c b b b b v z L L L z L x k = X X X 2             3 . O @ - < 1 < 6 w u s s s u e p e p V Y Q T T V d d d f z P I I I I E E E E I K K I J d 0 0 0 0 0 0 0 0 e f J J J I K C K C F ! 3.8.7.q.7.3.;.{ :.:.,.,.<.,.,.,.,.,.,.:.:.,.,.,.} [ W W ( I d p s s 0 ; : : ; ; ; < < , @ o # O O - 1 1 1 ; 9 s s e p K { 3.3.:.:.:.:.,.,.;.! E ~ ~ J e 0 9 9 < O . . . . . . . . < ) i.p.s.z.N.oXoXoX#X<X<X<X2XOX^ a V B E 6.I.I.W.6.E C V V S E Q ! Q Q Q S F F ;.].}.}.}./.Y.I.I.^.q.! S P V I Q ;.:.;.<.^./.(.(.}.:X:X;X;X}.}.}.}.}./.w.w.w.w.w.w.w.w.w.w.0.w.6.9.>.G I ^ ^ Y V d s d B 5.q.q.q.q.I f d d s s f d f J =.h.j.p.+.u X o > m                                                                                                                                     ",
"                                                                                                                                                              j j j m m n @.` @.@.@.@.@.+.&.i.s.p.h.h.j.j.j.j.k.x.x.v.M.).oXoX%X).).).).`.OX#X<X<X<X<X%XB.n.n.n.z.z.z.z.d.v < % & ; = = ; = = $ . X # 2             2 # O X @ * @ O % ; 0 u e 0 0 p p e p Y 5.5.5.5.V p d e p d P U Y I K I E F E E I I Y P e & % % % O O O O $ K 2.5.5.x.q.8.q.x.8.6.:.:.<.,.} ( F A F [ ,.<.,.,.,.,.,.<.,.,.,.,.,.:.[ W W E I d 5 & & & 6 w q 0 u u q u u 9 , X X o o o O O O % 9 U ' ~ ~ { 3.:.:.:.:.<.<.,.,.;.W F E I I I L z b j * . . o . . . . . < ) i.a.p.z.N.oXoXoX`.OX+X+X#X).^ a B N E 6.I.I.W.7.W C f B B N V Z V C X./ :.;.<.(.}.}.}.}./.(.(.'.^.4.5.5.$.^ C N N N G e.q.I.Y.T.}.:X;X;X;X:X:X;X:X}.F A Z S S S S S S S S V Z V V a a f B a d s p p V 5.w.q.q.q.I f d d d s f d f J =.h.p.p.+.u X X > m                                                                                                                                     ",
"                                                                                                                                                              @ o X * j u.a.u.i.i.a.i.i.p.p.&.i.i.p.p.p.p.*.*.j.j.j.j.l.m.N.N.N.N.N.M.M.N.oX>X2XsXsX<X+XoXoXoXN.m.m.c.n.c.v * X X X X X X X X + . . O 2             3 o @ @ # @ # X X : 9 s s 0 0 s s 0 r Y 5.9.k.k.V e a e p z L U U P I I E E E E E I Y L w X X X o . . . . o A 8.x.x.W.W.q.W.W.P.7.:.:.6.4.[ C Z H A W :.<.,.,.,.,.,.,.,.,.:.,.,.:.{ ! E I Y s & $ $ $ : q u p p u 0 u u q 1 O # # X o o . o O 9 _ =.$.2.2.{ :.:.:.:.:.:.,.,.;.E F E I I Y L U U k * . . o . . . . . < ) i.a.p.z.N.oX).oX`.oXoX`.`.M.^ d V V Q 6.I.I.W.7.E C B V V B V B N V 2.4.4.:.>.(.}.}.}.}.}.}. X'.^.9.2.5.5.o.B e e 8 Z 3.w.q.P.Y.}.;X;X;X;X;X;X;X;X}.N y y y y a a d s d a y p p p s p a p p d d s d V 5.w.q.q.w.I f d d d s f d f V =.h.p.p.+.u X o @ j                                                                                                                                     ",
"                                                                                                                                                              # X . O l a.a.a.i.i.i.i.i.i.i.i.i.p.p.s.s.s.s.s.s.z.z.z.l.m.N.S.S.B.S.S.S.N.oX1XsXsXsX<X+XoX).).N.M.m.v.n.c.v % X X X X X X . o . o o # j             3 # # @ # @ # X O * 0 0 s e e e s e r ~ 5.k.x.9.C a p p p z U U U U Y Y Y Y E ~ Y Y Y v w X X . . . . . . o A 8.W.q.P.P.I.W.W.I.7.:.:.:.:.[ A Z Z A G ,.<.<.,.:.<.,.<.,.,.3.3.:.;./ ^ ~ Y U s = X X % ; q u e e 0 0 u u 9 < X O X X o o . o X u _ ' ' { 2.3.:.:.:.:.:.3.,.8.{ ( E E E I I Y U U u * X . . X o . . . < n i.i.p.z.N.oXoXoX`.`.`.`.OXM.^ B V V ! 6.I.I.I.7.W Z B B B B V V N V ;.;.:.>.1./.}.}.}.}.}.(.'.'.^.9.2.5.5.^ B e r p C 5.x.w.Y.Y. X:X;X;X;X:X;X;X:X}.C y y a p f f k z f a a a a s z f d a p s s s s f 4.w.q.q.w.S a d d s s f f f P =.h.*.i.+.u X X > j                                                                                                                                     ",
"                                                                                                                                                              # X . O l u.i.+.%.&.&.%.%.&.%.%.i.+.u.i.i.i.i.i.i.s.a.s.d.c.n.n.n.n.n.n.n.n.m.oX1X1X<X+XoX).).).).b.M.v.m.c.) ; $ $ X O X O O @ o o o # j             m j 2 2 , @ @ O O * q 0 s e s e r e e I 5.5.8.4.C a r p p k v v v v U U U U J Y Y Y U z 0 * % % O O O O X O A 3.q.7.q.P.L.I.I.L.7.,.<.<.:.} F Z A A G :.:.,.<.:.:.3.3.3.3.;.;.{ / ^ Y U U U u ; % % % 6 u u e p p p s u w ; % % * O O O O O $ 0 U ' $.' / { ;.;.;.;.:.3.3.3./ ~ E E I I K J L L s ; % O X X o . . . < ) i.i.i.z.N.oXoXoX`.`.oX`.OXM.^ B V V ! 6.I.T.I.7.W A C V C B V V B C ;.>.>.>.1./.(.}.}.}.(.(.(.'.^.4.4.5.5./ B p p p D $.9.w.w.I. X;X;X;X;X:X;X;X;X}.F Z Z S V f s z z f B Z Z V V d f d p d d s s s f 4.w.q.q.q.I f a d s s d f f P =.h.*.i.+.u X X > m                                                                                                                                     ",
"                                                                                                                                                              # . . O k u.i.i.i.i.&.&.i.+.U l b b b b b b b v v v v v v ) ) ` ` @.@.` ) ) @.&.d.d.j.z.v.M.N.M.M.b.b.v.m.v.&.z k k j u 9 i i i - # o # j                     n , # X O * u s s s r e s e e V ^ / ;./ V a p d s s u u u u s s s s s s s s s s s z k s s s r e e e F :.3.3.6.7.7.L.L.L.7.1.1.1.1.,.{ W [ ! { ,.,.:.:.:.:.{ { { E C B B a p e 0 e u w 6 < < 6 0 s s p p a s d s s 0 6 6 6 6 < ; < < 6 0 s z J V J E ~ Q ! ! ! W / ( ~ E ] I I I K J L L z 0 w 6 ; * X . . . < v u.i.i.z.N.@XOXOX`.`.OXOXOX)./ B V V ! w.I.I.T.L.:.{ ! ! Q C V V B S 4.w.0.0.L./.(.}.}./.Y.Y.Y.q.w.3.:.2.2./ V p p p a Y Q ! ;.<.}.;X;X;X;X:X;X;X;X:XP.q.0.w.4.S d J B C X.e.3.4.2.K g d d d d d s s a 4.w.q.I.q.I f a a d d f f f P =.h.*.p.+.u X X > m                                                                                                                                     ",
"                                                                                                                                                              # . . X j +.i.%.&.&.&.&.i._ u : * * - - ; ; ; ; ; : : : ; ; ; < < , , < < ; : ; 6 ; 6 d =.m.M.M.M.b.M.v.v.n.v.z.z.d.p.+.) ) ) n 2 # # # j                       3 # . X * 0 s s s e e s s e d J V V V a a p f z w = = * * = ; : : 6 ; ; = = 6 L %.=.' ' ' ' ' ~ ' ! ;.;.;.:.:.,.1.1.7.1.1.1.1.8.,.4.3.3.3.:.,.6.3.3.3.;.{ / / V t 5 & & & & % % % 6 0 s s s l z f f f f f f z z d s d k k s s k k g 0 6 & & 5 0 V I I I E E E E E I I I K K I K K J L L z z l s 9 # . . . < v u.i.i.z.S.@X@XOX`.OXOXOX#X).' V V V ! 7.I.I.I.I.q.x.w.9.4.E J V V I x.^.]./.T.}.(.(.(.Y.1.<.:.>.>.;.:.4.4./ V p p p p f a N Z G /.;X;X;X;X;X;X;X;X;X X X X X'.! N V B E ^.'.'.'.^.{ g d d d d d s p N 4.w.q.q.q.I f a d d d f f f P =.h.h.p.%.u X O > m                                                                                                                                     ",
"                                                                                                                                                              @ o . O j +.+.+.+.%.#.+.+.) 9 X X X X O % % % % O O O O O % X X O O X X X X X X X X X 6 _ l.m.m.M.v.m.m.v.n.m.n.n.n.c.i.#.%.i.u.i # # @ j                       3 # . X % q u s e s s s s e s s p p p p s d z l 6 $ $ $ $ % % % % % % % & $ 5 J h.h.h.8.8.3.3.3.3.;.;.;.;.:.:.:.<.1.1.1.1.1.<.<.<.8.8.8.6.:.:.,.3.:.;.{ / ' ^ d 5 X $ $ $ X X X $ : u z z z J V V V V V V V P J J L L L L L L L L z 0 & $ X $ : s L K K K K I I I I I I I K K K K K J J L L L z e @ . . . < n u.i.i.z.S.@X@XOXOX`.OXOX#X).$.V V V ! 7.I.U.I.I.W.^.I.q.w.! C V V E ^.'.(.(.(.(.(.(.'.I.>.;.;.X.;.;.:.4.4.X.V p p p g p a y H G (.;X;X;X;X;X;X;X;X;X;X;X;X;X-X;.N Z Z ! (.4X;X3X X,.f f a d d d s p N 4.w.w.w.9.I d a d d d f f V P =.j.j.p.%.u X X > j                                                                                                                                     ",
"                                                                                                                                                              # o o O j +.u.+.+.%.+.+.+.) q O . X X O % % % O $ O $ O % $ % O % X X X X X X X X X $ w _ v.m.m.m.m.B.B.B.m.m.m.m.m.v.p.#.%.%.%.w # # @ j                       2 o . X * q u s s s s s u s s s s s s s g z g k ; $ $ X X $ % % % O O % % $ 5 V 5.8.8.8.8.3.3.3.3.;.;.;.:.;.:.:.:.,.<.<.<.<.<.<.<.,.8.6.6.:.:.8.3.3.;./ ' ' ^ d & X X O O X X X $ : u f f f B B V f B V V V V V V V J J J V V V V d 0 & X X X ; u z L J K K I P U Y Y Y K K K K C K V K J J L L e @ . . . < n u.i.a.z.S.@X@XOX`.OX@X@X#X).$.B J C ! 7.I.U.U.I.I.W.I.I.6.E C V V F x.'.(.(.(.(.(.(.'.^.3.;.;.! X.;.;.>.4.o.V p p s s s a N H G (.;X;X;X;X;X;X;X;X;X;X;X;X;X Xy.N C Z [ (.4X;X;X X1.f f d a a d s p a 4.w.w.w.q.I d p d d d f f f P =.j.j.p.%.u X X > j                                                                                                                                     ",
"                                                                                                                                                              # o . O i n ) ) ) ) ) ) ) n j - # % % * * * = * * * * * * = ; * * % % % % % * * % X $ w ` z.c.l.v.l.l.v.n.n.n.m.m.v.l.*.=.%.%.i.w @ # @ i                       2 o . X O 9 q u u u u q q u u u s u u u u s q u w % % $ $ % % = = , - * & & 5 V ;.3.3.:.:.;.;.{ { { } | :.} :.:.:.:.:.:.:.:.:.:.:.:.:.:.3.:.[ ;.{ { / ^ ^ T Y d 6 O O * % % % % % 7 f V V V C V C J J V V V B V V K C K K K K K K L e & O O O < u x z L L J L z z L L U L K K K C K V K K V J J e @ . . . < v u.a.p.z.S.@X@XOX`.OX@X@X#X).$.V V V G 7.I.U.U.I.I.W.I.P.6.E C V V S w.]./.(.(./.T./.^.W.>.;.;.! X.>.4.4.9.;.D p s s s s f N H G (.;X;X;X;X;X;X;X;X;X;X;X;X;X XG C C C ;.(.;X;X;X X1.f f a a a s s p N >.w.0.q.9.P s p d f f f f V I =.j.j.s.%.u X X > j                                                                                                                                     ",
"                                                                                                                                                              # . . . 1 j u u s k s u l b j 2 2 q q u j u j j u j j j j k k k j s k l l k k j j j 0 k ) ' _ _ ' #.O.O.%.i.d.z.l.z.j.=.&.&.%.i.w # X @ i                       3 # . . O ; ; 6 6 6 9 6 9 9 w 6 9 9 9 9 9 w 6 u u u q q 9 q q u u i q 9 0 7 8 V ! ! [ [ G G G F F [ } :.:.{ } :.} :.:.;.:.:.:.;.;.[ [ [ [ G A A Z Z B B d d d s 6 1 2 1 1 ; 6 9 7 p P T ^ ^ ^ E Q ^ Y I V B V C I ^ ^ ^ ^ ^ ^ ^ ^ Y z 0 < 1 3 1 q w w 0 e 0 0 0 0 d z L L J K K K C V K K d J J e @ . . . < v u.a.s.z.S.@X@XOX`.OX@X@X#X).$.V V V G e.I.U.U.I.I.W.I.P.6.W V V N C w.]./.(.T.Y.L.L.q.q.;.X.X.o.4.q.x.b.b.4.I a p s g s f N H y.(.;X;X;X;X;X;X;X;X;X;X:X:X:X'.G C N Z G (.4X;X;X X1.f f a a a a s p N >.w.w.q.9.J s p d d f f f B I =.j.j.p.%.u X X > j                                                                                                                                     ",
"                                                                                                                                                              @ . . . o # @ @ @ > > @ @ ; i z z J Y ~ ~ / ! W { { { { { { { [ [ [ ,.8.6.<.1.,.<.:.2.' z 1 3 M 3 M 3 2 q 9 b i.i.*.*.=.=.*.=.#.0 @ # # j                       2 . O o . # @ > # @ # @ > @ @ @ # O # @ o @ * % z ^ ( W W [ [ [ [ ( ] C C K J J K C C C C C C V V F [ :.;.;.;.;.:.;.:.:.:.| :.| } K I I P f 9 ; - - , , * * * w l f f f f f f N V Q ;.:.:.:.:.>.>.:.;./ S B V V Q ;.;.:.:.:.:.;.;.{ W C N f z q * @ @ # @ O O % % 6 d J J P K V K C V V K V V z 0 @ . . . < n a.a.s.l.oX+XOXOXOXOXOX#X#X).^ V B V ! 6.W.I.I.I.I.I.I.I.6.E B f a V 9.].(.].^.3.;.2.$.$.$.X.>.;.>.^.(.(.(.Y.o.y p g a f a V Z G '.-X;X;X;X:X:X;X:X:X.X;X.X X X! V B C [ }.6X;X;X'.>.V f f d d f d p d 2.k.9.x.9.N p s p d s z z f Y 5.h.z.z.%.j O X @ m                                                                                                                                     ",
"                                                                                                                                                              @ . . . . . . . . . . . . % w g z J Y ^ ' 2.:.;.3.3.4.8.8.4.4.4.4.8.W.W.W.W.I.P.P.q.q.$.s % X + + o . X O * u @.%.=.&.=.=.*.p.i.0 @ # # j                       3 O X . o o . o o o . . o . . . . . . . . . X $ z $.2.3.3.3.3.3.3.3./ E E I I I I C C C C C V V V F [ ;.;.;.;.;.;.;.:.3.3.:.3.| [ J J J P s % $ O O O o X O * w z J P P P P V S S / 2.4.:.<.<.,.:.:.:.X.I V V C E 2.:.:.:.:.:.:.:.;.! C V L z u ; X . o . . X X X = s L J P J V V K V V J V f z e @ . . . < n a.a.s.l.oXOXOXOXOXOXOX#X#X).^ V B V ! 6.W.I.I.I.I.I.I.I.6.F B f a Z w.^.(.].^.;./ / ' X.X.X.>.>.e.(.'.}.(.^.;.N a f f V B V Z G '.-X;X:X:X:X:X:X:X;X.X.X.X:X'.G B B B W (.6X;X;X(.>.a a f f d d f d a 2.x.x.x.k.V p p p d d z z f Y 5.j.z.z.&.u O X > j                                                                                                                                     ",
"                                                                                                                                                              @ # o . . . . . . . . . . % 0 z U I I ^ X.:.:.:.3.3.4.4.4.4.4.4.4.8.P.W.W.W.I.P.q.q.x.2.s $ X O # # X X X % j +.i.#.&.&.%.&.p.&.9 @ @ @ j                       M @ X X @ o o o o . o . X . . . . X . . . X X % U =.5.3.3.4.8.8.8.4.{ E K I I P K C C C V V V B B F { ;.;.;.;.{ ;.{ / ;.2.{ 2.2./ d d z P s % X O O O O X X % 9 z K K I E I E E E { 3.3.:.1.1.,.,.3.3.{ E C K K ( 3.3.,.,.,.,.:.3.2.! ] C I L q % X X X X X X X X & 0 z P P J f J J J V J f f z e # . . . < ) a.s.d.l.oX+XOX#XOXOXOX#X#X).^ V N Z ! 6.W.I.I.I.I.I.L.P.4.S f f a Z w.^.]./.^.;./ ^ X.$.2.;.>.>.e.(.}.}.'.^.;.N a a a f B V Z G '.-X;X;X;X:X:X:X:X:X:X:X:X-X'.y.V B N G (.6X;X;X}.,.B V V V d d a a a 2.x.x.x.5.V e e p p p d f V Y =.h.j.j.&.u O X > j                                                                                                                                     ",
"                                                                                                                                                              @ o . . X X X X X X X X X = 0 z L J V Q X.;.:.:.;.:.3.3.3.3.:.:.:.6.P.W.I.W.I.P.7.q.8.2.d & $ % % O X O X = l @.i.i.i.a.%.i.i.%.u @ @ @ j                       j , , , * . # o X . X O X X X X X X X X X X X & z $.2.2.3.3.4.4.4.5./ E I I I I J K C C V V V V V W { 2.2.2./ / / X.^ / ' ' ' ^ Y z z z z u % X $ O % O $ $ % 7 f C C C C F F F F { 3.,.,.,.,.,.,.3.3.{ ] C K K ( 3.,.,.,.,.| ,.,.2./ E K I J 0 = X X X X X X X O 6 u l z z z z z f d d z f f z e @ . . . 1 ) a.s.d.l.oX@XOX#XOXOXOX#X#X).^ V N Z W 6.I.I.I.I.I.U.L.P.4.C d d p N w.^.].^.^.;./ / ^ X.4.4.3.>.e.(.}.}.'.].>.Z a a f a a Z Z G ].-X-X:X}.:X:X:X:X:X-X-X-X-X].o.a a N G (.;X;X;X}.,.B V B a B B a a C $.5.x.k.2.C p p p a p d f V Y =.j.j.z.i.j O O > m                                                                                                                                     ",
"                                                                                                                                                              @ + . X - < 6 6 6 6 6 6 9 0 s z z V I 5.M.^.^.^.w.4.4.6.6.<.<.<.<.7.I.W.W.W.W.P.7.6.8.2.I r 0 w 6 ; ; ; ; < u k l l l x l l l l 9 @ # @ j                               n @ O . . # , < ; ; ; : : ; ; ; ; ; ; 9 f ' ^ / / { { { 2./ ( E K I I I I I I C C V V V V ] ~ ~ ~ ~ K V V J f f z d s s 0 9 6 6 w 6 6 ; ; < 9 9 w 9 0 f ^ { / / / { ! { [ :.,.,.,.<.,.,.,.,.3.{ E C K K ( 3.,.,.,.,.,.,.,.3.{ { / / ~ J s 0 0 w 6 ; ; ; < w 6 6 9 9 6 6 6 6 6 0 d z z z 0 @ . . . 1 ) d.d.z.c.oX+XOXOX`.OX#X#X@X).^ V N Z W 8.I.I.L.I.L.L.P.q.4.S f d p N 4.w.q.q.w.F V V V I 2.9.4.e.0.(.}.}.}.(.e.F S I P f V Z Z A q.^.Y.Y.T.}.:X:X:X:Xr.w.e.w.9.D g p N G /.;X}.;X(.:.V B a B Y ^ ^ ^ Q Q E ^ ^ I K K I I K d d d f Y *.j.z.z.&.j O O , m                                                                                                                                     ",
"                                                                                                                                                              @ # # * 9 s l g z z z z z z z z L C X.).3X2X3X>X^.:.:.6.6.<.:.<.<.1.I.I.I.I.I.L.7.:.3.3.;.^ ' ^ Y k k l k q < * X X . O X O X * O @ # @ j                                 3 # o X < j l j l z l z l z l l l x z L J K K C K E E E E K C C V V J K S C S C V V J V V K V J d e 5 = = % % % $ $ X X . . X $ ; l z z k z z z z V ^ 5.8.4.4.8.8.8.8.8.3.6.<.,.<.<.,.<.6.3.;.E K K K ( 3.3.,.,.,.,.,.,.3.3.3.3.3.2.$.' ^ T Y U z k k k 9 % X X . . X . X X = u s z z e @ . . X 1 ) d.d.z.l.oX+XOXOXOXOX#X#X#X).^ V B Z E 8.P.I.I.I.L.L.P.q.4.S d d p a o.9.4.4.>.y 8 8 y Z 4.w.w.w.I.(.}.}.}.(.w.;.X.X.T V f N N Z 4.w.e.1.1.R.:X:X:X}.Z y y Z Z p p f a F Y.}.}. X/.} V V N C 2.x.9.9.2.C y a p r I ' $.$.^ J d d f P *.j.j.z.&.j O O , m                                                                                                                                     ",
"                                                                                                                                                              @ + . O 9 s z z V J J L L z z z z Z X.OXfXgXgX3XW.:.:.6.6.6.6.<.<.1.I.Q.T.Q.I.0.<.:.:.;.;./ $.' E f d z x k < X . X . X . X X X O @ # @ j                                 1 O . @ 1 l b k z U z P J P L L L L L J J K K K K K K K F K C K P J I I S S S S V V J z J d d d s 6 X X . . . . . . . . . . . X : z z z z L J J V C Q 4.8.6.4.4.4.4.3.4.3.<.:.:.<.,.,.<.4.4.;.E C K K E 3.3.:.<.,.,.:.3.,.,.3.,.8.8.4.5.2.$.$.T P z l l i % . . . . . . . . * q s k z e @ . . X 1 ) d.d.z.l.oX+XOX#XOXOXOX#X+X).#.V B V E 8.P.I.I.I.L.L.P.q.3.C a d p a X.9.9.9.4.a 8 r y V 4.x.w.w.Y.(.}.}.}.(.q.;.:.;...V f a a Z ;.e.>.<.e.(.-X-X-X}.B p y y p p s d a A I.(.(.}.(.:.d B a V 4.q.w.w.w.F y 8 p r ' 5.2.2.$.K d d f P *.j.j.z.%.u O O , m                                                                                                                                     ",
"                                                                                                                                                              - @ o O 9 g z V V P J J J J L L L V X.`.2XfXgX3X^.:.:.:.<.<.<.6.6.1.I./././.I.0.,.:.:.:.{ { 2./ E f d d z k 6 O X # . # . O o O @ @ # @ j                                 3 # . X 1 l b l z P z P J P J P L L L J K K K C K K K K C C K K V J V V S S S P P P J L L z z x k 6 X . . . . . . . . . . . . X = z z J J J V V C C Q 4.6.<.<.<.6.6.:.6.:.<.:.:.,.:.,.,.:.3.;.E V V C E 3.:.:.:.:.:.:.3.,.<.<.1.<.,.,.8.3.2./ ~ J d d d 9 O . . . . . . . X * u k k z 0 @ . . X 1 ) s.d.z.l.oX@XOX#XOXOX#X#X#X).#.V B V E 6.P.I.I.I.L.L.P.q.3.C a p p a o.5.4.4.2.a p p y S 4.x.w.0.Y.(.}.}.}.(.w.>.;.;...f f a a N ;.4.e.e.e.(.-X-X-X(.B p a a p p d d N F W.'.(. X(.:.V V N C 4.q.w.w.9.F H N a a ' $.{ 2./ V a d f P =.h.j.d.%.u O O , m                                                                                                                                     ",
"                                                                                                                                                              @ # o % w f P I V V J J J J L J J V ^ ).sXgXnX3X^.:.6.6.<.<.<.<.7.L.I./././.Q.0.,.:.:.:.;.{ { / E B V f f s 6 O O . o . @ # o o @ , 3 3 m                                 2 . . X 1 k l l s z J P V V P P K K K I K K C C K K K K C C C K K K K K K K I I I L L L v l l b k 1 X . . . . . . . . . . . X X 6 z J V V V C C C C ! 3.<.<.<.<.<.6.<.:.:.<.<.<.:.:.,.,.:.:.;.E V V C ! 3.:.:.:.:.:.:.:.<.,.,.<.1.<.1.6.:.:.{ E C B d d 9 * . . . . . . . X - q j l k u - o . X 9 @.d.z.z.m.oX+XOXOX`.OX#X#X>X).$.B B V E 4.q.P.I.I.L.P.q.q.3.K d d d d X.$.9.9.X.V p p y Z 9.w.w.t.I.(.(.}.}./.0.>.;.>.T f d d p B X.4.4.e.7.(. X-X-X'.C B a a a a a N H G x.'.'.'.'.;.f V N C :.q.w.9.6.F y N a B ^ 2.2.2./ V a d d L =.p.h.s.+.u O O , m                                                                                                                                     ",
"                                                                                                                                                              - @ o * v =.$.=.^ I V V V P J J J V Y k.%X#X#X`.x.:.4.6.<.<.<.<.7.L.I./././.Q.L.1.:.:.:.;.{ { { W B f d f z u 9 9 < < # o o o @ u.                                        3 . . o - 1 9 6 6 s z J V V V V K K K K V V V V C K K K C C C J J J J V K K I J s s e e u q 9 q 1 * . . . . . @ * * * ; - * ; : e I E I E E E E W ! ;.3.1.1.1.1.<.<.<.<.<.<.<.<.:.,.,.,.:.:.;.F V V C E 3.:.:.,.,.:.:.:.:.,.,.<.1.1.1.1.,.:.} ! E ] K K k w * * * * * - , , < 1 q 9 9 < O . . O 9 +.d.z.z.v.oX+X@X#XOX#X#X#X>X).$.B V V E 4.P.P.P.L.L.L.q.q.2.C a p d d I T ^ o.T f p s y Z w.^.^.Y.Y.(.}.}.(./.I.e.<.7.=.V a p r B ' 5.4.4.4.I.^.^.^.I.4.:.;.;.;.;.:.:.:.4.4.4.4.w.q.! f V N C ;.w.q.w.w.Q y N a B ^ 2.2.2./ V a d d L =.p.s.p.+.u O O , m                                                                                                                                     ",
"                                                                                                                                                              - @ . O ) v.v.v.5.I V V V J V V J f f P ^ / / / ! ;.4.6.<.6.<.<.7.1.I././././.L.1.<.:.:.;.{ { / ( V a d f z z x k k l * . o o 4                                           1 . . . X O X X $ s L L V V V V K K K K V V D V V J J J V J J J J J J J I I I L 6 5 & * - * * @ O . . . . . * < q q q u j u s d I $.2.2.;.;.3.:.3.:.3.6.1.1.1.1.,.<.<.<.<.1.1.1.,.,.,.,.<.3.{ E C C C W 3.3.<.<.<.<.,.,.:.,.,.,.<.1.1.1.,.<.:.:.{ { / / _ z s u u u u j i i 1 - @ O O X o . O O i +.d.z.z.l.oX+X#X#XOX#X#X#X>X).$.B V V E 4.q.P.P.P.L.L.q.q.;.C r r p p p p a a a p p p y S ^.'.(.(./.(.(.(.(.(.^.Y.I.Y.9.I p p r d ^ $.5.4.;.G A A A G  X X X'.'. X X X X].>.Z Z C C N d f N C ;.w.w.w.w.Q a a a B ^ 2.3.3./ V p a d P =.p.p.s.+.u O O , m                                                                                                                                     ",
"                                                                                                                                                              , @ @ * ) v.m.M.5.T J B V J f f P V f a d p r N C ;.4.4.<.6.6.<.7.1.I././././.P.1.,.:.:.;.{ / / E V a d V z L L z v b - X o o 4                                           3 . . . . . . X X e v z D V V K K K K K P P P P J J J L J J J J J J L J L I P L & % % O O O O O O . . . . X ; q k s s z x z z V E 2.4.4.4.4.4.6.6.,.6.<.1.1.1.1.,.,.,.,.,.,.,.,.,.,.,.,.,.3.{ ] V V C ( 3.3.,.,.,.3.3.3.3.3.3.:.:.,.<.<.,.<.:.3.:.3.3.3.' P f d z l s k k j 9 * . . . . o . O * i +.f.z.z.v.oX+X@X#XOX#X#X#X>X).$.V B N E 4.q.P.P.L.L.L.q.q.3.C r r e p p p p p p a s p y S ^.'.(.(./.(.(.(.(.(.^.Y.Y.^.9.D y p p f ^ $.5.5.4.H 8 8 H Z }.:X;X:X:X:X;X-X;X'.;.y a a p a f f a C ;.w.w.6.w.Q a a a B ^ 2.3.3./ C p a d J =.p.p.p.+.i O O , m                                                                                                                                     ",
"                                                                                                                                                              @ + # , ` c.v.v.h.R J f V J f V P P V d d d r B E ;.4.4.<.6.<.<.7.1.I./././.Q.P.7.<.:.:.;.{ / / E J d d d d f L L U x ; O . # @                                           3 . . . . . . X X 9 v z V P L L L L L P P P P P P L L L z z z z z z z L L P U U % * * @ O O O O O O X X . X : u l d d f z f B Z F ;.:.:.:.:.<.,.,.,.,.<.,.,.,.,.3.3.3.3.3.3.3.3.3.3.3.3.3.3.$.I V J J ^ 2.3.3.3.3.3.3.3.5.3.2.3.3.3.3.:.:.:.:.:.:.;.;.;.^ J d a d s s s l k q * . . o o o o @ @ i +.f.z.z.v.oX+X#X#XOX#X#X#X>X).$.B B N E 3.q.P.P.P.0.7.0.q.:.C r r r d p p p p p p s p y C ^.'.(.(.(.}.}.'.(.(.^.I.I.Y.5.Z 8 e 8 d ^ 5.*.5.5.N 8 y H Z }.;X;X;X;X;X;X;X-X'.;.y a f d d s d p C ;.w.w.q.9.E a a a B ^ 2.3.3./ V p d d P #.*.p.i.@.i X O , m                                                                                                                                     ",
"                                                                                                                                                              3 3 @ 1 ` z.c.l.j.P J f f f f V P f f d s d r B ] ;.4.:.<.<.<.<.8.1.I././././.P.1.<.:.:.{ / ^ ^ I V B d d d d V J U z ; X . # 4                                           , . . . . o . X X q b v c c L L L L L U c c c c z z z z z x z z x z z L U U U z ; * @ @ % % * % O % O X X X : u d d a B V B V Z G :.<.<.:.:.<.<.,.,.<.<.3.3.3.3.3.2.2.2.2.2.2.2.5.5.5.5.2.2.$.Y L z L ' 5.5.5.2.3.5.5.5.2.2.2.5.2.2.3.3.3.3.3.:.:.;.{ { ^ K B N B a p s s s 9 * X . o o o o O @ i +.z.z.z.l.oX#X#X#X#X>X#X#X>X).$.B B N E 5.q.q.q.L.0.0.q.q.:.C N a p d e p p p p p p p y S ^.'.(.(.(.(.(.(.(.].^.Y.I.Y.9.S y y 8 a T =.=.=.o.N 8 y H H }.;X;X;X;X;X;X;X-X'.;.y a d e r g f a V ;.6.6.w.9.Q a a a N ! 2.3.3.;.C a d f P #.p.i.i.@.i X X > m                                                                                                                                     ",
"                                                                                                                                                                      u.O.%.#._ z z z z f f V V P z f z z d V I ;.3.:.<.<.1.1.<.7.I././././.L.1.<.<.:.! C B J V I T ^ ^ Y K B B J d ; X X O 4                                           , . . . . . . . X < q u i u u s s s s s u u i i i 0 0 0 0 9 9 w 9 0 0 0 s s s u - @ @ @ ; 6 9 6 < 9 1 ; ; ; 0 f V V V S K C F F G :.,.<.:.,.<.<.,.,.,.} / / / Q I V V I P P J J P P J J D V z s u u u z P P I I I I P P L L J K V C E 2.2.2.3.3.3.;.{ { / E C C C N a p d s 0 * . . . . o o O @ i +.d.z.z.l.B.).).).`.#X>X#X>X).$.B f N E 2.6.6.7.7.0.0.q.q.4.! E ~ I P d p p p s s s d y C ^.'.(.(./.Y.Y.I.I.Y.^.]./.^.w.Q S S V J I P T T S o.o.X.;.;.}. X}.}.}.}.}.}.}.^.! y p s d J c P D I ;.:.4.w.5.~ a a a N ! :.:.3.;.C a d g z #.&.i.i.O.i . X > m                                                                                                                                     ",
"                                                                                                                                                                        ; & 5 7 f f z z f f V V z z L U L K I E ;.3.:.,.<.1.<.<.<.W././././.L.7.1.<.;.F 8 7 e e #.h.j.h.5.^ V B d z ; X O . -                                           - . . . . + . . . O X O $ % % & & & = = % % % $ $ $ $ $ $ X X X X $ $ $ % % & * O # @ 4 q k v v b v l l l g z R T Y I Q 2.2.3.:.>.<.,.1.:.:.:.:.<.,.} G S I V y 5 & & & & & & & & & & & & & & $ $ % $ % & & & 5 5 5 & & 5 5 5 5 & 5 a ^ 2.2.;.;.;.{ { { 2./ / { / E V a f f u : O # # + O o @ @ i +.d.d.s.h.k.k.9.k.b.`.>X#X>X).X.B f a C ! ;.} >.<.7.0.7.q.8.4.x.x.h.*.d p p p s s p s y Z ^.'.(.(.T.L.1.>.e.w.].'.'.(.^.9.X.5.=.o.P p y p S M.'.'.'.`./.(.(.(././.T././.P.Q a p p d Y O.=.o.o.3.:.4.w.5.~ a a a N ! ;.:.3.;.C a d f z O.&.i.i.@.q . . > m                                                                                                                                     ",
"                                                                                                                                                                        # # O - u z L J J V J J J J I ~ I S E W :.3.4.4.4.4.4.4.1.I.Q./././.P.6.8.3.2.K e 0 6 s X.9.9.9.5./ C V J d & X X # ,                                           3 . . . . . . . o o . # o o # # @ @ @ @ @ + + + + X X X . # . . . . o . . o O O O $ $ % 0 f P P P P J P J J Y ^ ^ ~ ( / :.,.<.<.:.:.<.<.<.<.<.<.<.:.[ A C K z w * . + + # . . O X . o . # # + + + + + + @ @ # # + + + # . O X X X $ 0 ~ 2.;.;.{ [ } ;.;.:.:.;.:.:./ C B d f s ; O # # # # @ @ @ i +.d.d.d.d.z.j.j.j.l.OX>X#X#X).' B B a K ' / / { :.7.P.7.7.0.6.0.q.6.4.Z 8 a p p s s s N Z ^.'.(.'.Y.e.>.>.>.0.].'.}.}.^.7.4.4.5.$.a y a y Z ].'. X}.}.(.].].].R.Y.Y.^.^.x.E a a p f T =.*.$.2.4.2.2.5.5.E a B N a / 2.:.3.;.K d d d P #.*.&.&.@.q o + > m                                                                                                                                     ",
"                                                                                                                                                                        # O O - u z L J J J J J J V I E I F E W ;.:.3.3.4.4.4.4.1.I.Q./././.P.6.6.3.2.K r e 0 z 2.9.x.x.k.$.K V f d ; X X # >                                           , . . . . . . . . . . o O O O O @ @ # # # o o . . . X . . . . . . . o o o o O # O O % % 0 s c c c P z J J J I ^ ^ ~ ~ / :.:.3.3.3.:.:.3.3.6.3.3.3.:.! A I I z w % . . . # . X X X . . . # # + + + + + + @ # # # X X X X . . . X X $ 0 T 2.2.;.;.{ { ;.;.;.;.;.;.2.^ V f f z u < O O # # # @ @ @ i @.d.d.d.d.z.j.j.j.v.@X#X#X#X)./ N N a J ( $.{ ;.3.6.7.7.7.7.7.0.w.6.4.Z 8 a p p p p s 8 Z ^.'.'.'.].e.>.;.>.w.].'.}.}.^.7.4.4.5.=.V p a y S '. X-X}.}.(.]./././.Y.R.].].x.E a a p f T =.$.$.;.4.5.5.4.5.Q a N a N / 2.:.3.;.K d d d L #.*.&.&.@.q o + > m                                                                                                                                     ",
"                                                                                                                                                                        # O O - u z J V J J V J C C E ! E G W [ :.:.<.:.<.6.6.6.1.I.T.Q./.Q.L.1.:.3.2.K a r e z 2.9.k.9.5.$.I I P z : X X # ,                                           , . . . . X X X O O O @ * * * * * * * * * @ O O % * % $ $ $ X % * O O o o o # # # O # @ w s z z c z z c z J P Y Y Y ~ ~ $.$.$.$.$.$.$.2.$.2.2.2.2.$.^ I J J l w - @ @ @ * - ; ; = < , * - - - * * - - , < - - - - - - - - * O * * * w U #.#./ ^ ^ ^ ^ ^ ^ ' ' #.$.T J f l l u < O # # # o @ @ @ i n i.d.d.s.j.j.j.j.v.@X#X#X+X).$.V B d L Y ^ / / ;.6.7.7.0.L.7.0.0.w.4.Z y N a a p p s 8 V b.].'.(.^.e.4.3.3.w.^.(.(.(.^.e.4.4.5.$.D a a a S ^.'.'.(.(.(.(././.R.T./.].^.x.E a p p f T $.2.2.;.;.;.;.2.2.^ Z Z N Z / ;.:.:.;.K d d d L #.*.&.&.` q . . > m                                                                                                                                     ",
"                                                                                                                                                                        # O X - u z J V J J V J C S ! ;.;.{ >.} :.<.<.<.<.6.6.<.1.I.T.T./.W.L.1.:.:.;.F V N d J Q $.X.X.$.^ I P P z = X . o ,                                           , . . . O ; ; ; 9 9 9 9 9 9 0 0 q q w w w 9 9 w q s s s p p e s s u 9 O o o # + + + # # % 6 9 9 i 0 9 i 0 0 p p p e e p d d d d d d f d d f z d f z s u u u i i u j j j v +.i.%.%.i.u.+.+.@.@.@.+.+.+.+.+.+.+.+.+.+.+.+.@.) l k l k s s z d d s s s s s s s s g z s 0 9 9 9 1 * O @ @ # # @ @ @ 1 j n n ) O.s.j.j.j.v.OX>X#X#X).5.^ ^ T T Y I C C ! :.8.7.L.0.0.L.0.0.6.W F Q Q E f a a p V 9.x.r.Y.w.e.4.4.4.w.q.Y.Y.Y.x.4.4.4.5.=.T P I I Q 9.9.w.w.P./.T.T.T.T.R.Y.^.^.x.F r p p f T 4.4.2.;.Q Q Q Q ^ / Q Q E E ;.;.:.:./ K B d z P #.&.*.&.) q . . > m                                                                                                                                     ",
"                                                                                                                                                                        @ O X * u z J V V V V K F W ;.8.6.6.6.<.,.,.<.<.<.<.<.:.1.I.T.T./.I.7.,.:.:.;.E S C V I S I S P P V V J c z ; O X # ,                                           , . . . < q s s l z l x z z z z z z z z z z z z U _ ' $./ X.X.' $.#.L % O O + + + + + + X O % % - * % - : - : : & & & & * * % % % % % % & = = = = * * * % % - i n @.@.u.c.oX<X+X+X$X$X$X$X@X$X$X+X$X+X+X$X$X$X$X$X$X$X$X$XS.c.i.i.i.v w % % % % % % % % O * % % - * % * - - - O O @ @ # # @ @ @ @ , 1 1 9 s O.s.j.j.l.oX+X@XOX`.m.k.k.j.=.U d p p S :.8.1.0.L.L.L.L.L.0.7.6.6.9.4.S a a a B 5.9.4.e.e.4.4.5.5.5.4.e.e.e.9.4.>.4.5.5.=.=.=.=.X.Q S F A G T.T.T.T.Y.Y.Y.Y.^.x.F p p p f _ 5.5.4.;.S Z C C I X.2.2.;.;.3.3.:.3.{ K B d d L #.*.&.&.) q . . @ m                                                                                                                                     ",
"                                                                                                                                                                        @ O . * u z J J V V C K F W 4.q.W.q.7.<.<.1.<.<.<.<.6.3.1.L.T.Q.^.W.7.,.:.:.{ E E I I I I V V V V V J P U l : O . O ,                                           , . . X 6 s z z z P U U P P P U P L L L P J J P T $.5.5.:.4.4.5.5.h.Y & X X o . + + + + . O O X O O O @ O O O O % O X X X . . . . . X X X X X X X X o o . X O 9 ) i.%.&.m.<XsXsXsXsXiXiX<X<X<X<X<X<X<X<X<X<X<X<X<X<X<X<X1X+Xm.z.c.c.) < . . . . . . . . . . . . O O O O O O O O O @ O O @ @ @ @ O @ O O % 9 +.z.s.s.l.oX+X@XOX).m.l.l.z.*.P e 8 8 C ;.8.1.0.L.L.L.L.L.L.0.q.q.x.9.S a a d V $.4.4.4.e.3.4.4.5.4.4.4.>.>.4.4.4.4.5.5.-.5.=.5.=.Z y y y N T./././.Y.Y.Y.^.^.x.E p a p f T 4.4.9.2.C N N V C $.5.4.4.4.4.4.4.3.2.I B d d L #.*.i.&.) q . . @ m                                                                                                                                     ",
"                                                                                                                                                                        @ O . % u z J J V V C K A W 4.x.x.q.q.6.:.6.6.6.3.3.3.3.<.P.W.W.W.W.6.:.:.3./ E I I I I I J V P J J c c z l - O O @ ,                                           3 . X X 6 s L f V J J J P P J L J J J J J J V V E $.5.5.:.4.4.4.4.5.E & $ X X . . . . . . . . . o o o O O O O O O O O X X . . . . . . X X X X X X X o o . X O 9 ) &.#.&.m.<XsXsXsX<X<XiX<X<X<X<X<X<X<X<X<X<X<X1X1X1X1X1X1XF.n.z.z.z.) - . . . . . . . . . . X X O X X O O O % O O @ O O @ @ @ @ @ @ @ @ - i +.z.s.p.l.N.+XOXOX).m.k.j.j.*.z e 8 e V ;.q.0.0.L.L.L.L.L.L.0.0.q.w.9.C a a p V $.5.9.>.4.4.5.4.5.5.9.9.4.4.4.4.4.4.4.;.5.X.X.=.X.Z a a N V ^.^./.^.^.^.^.^.^.x.F p a p f ^ 4.4.w.4.S a V B C X.4.4.6.6.:.4.5.2.$.K V V z P =.*.p.i.` q . . @ m                                                                                                                                     ",
"                                                                                                                                                                        @ O . % i z J J V V K I C E 3.q.x.q.8.4.3.3.3.3.2.2.2.2.:.q.W.W.W.x.4.;.:.4./ Y I I I I P f J P J z c z c b i i i M i                                           3 X X X w z L V V J J K P P J J K K J J V V V V E $.5.3.4.4.4.8.8.4.E 5 & & $ X X X X X X O O O * * * - - - - - - - % % % % X X X $ $ $ $ $ $ % * * O O . O * u @.p.*.j.M.1X2X<X<X<X#X<X1X1X1X1X+X+X+X#X1X1X+X+X+X+X+X+X1XoXm.z.z.d.) < . . . . X X X X $ $ $ % % % $ % % % % % % - % % 4 @ # @ @ @ # @ * 9 +.d.p.*.l.N.OXOXOX).m.k.j.l.=.f e e e V 2.q.0.0.L.L.L.L.L.L.L.P.q.q.9.Z y a p V $.5.9.>.4.3.4.5.5.5.9.9.4.4.4.4.4.4.4.4.9.;.4.2.;.Z Z a a V ^.^.^.^.^.^.b.x.b.w.F y a a V ^ 4.4.w.4.S B V B C X.4.4.q.6.:.:.5.2.$.I V z z U =.i.p.i.` q . . @ b                                                                                                                                     ",
"                                                                                                                                                                        @ o . * q z J V V V V K C E / 2.2.2./ / E ^ ^ ^ ~ ~ E E E / 2.5.5.2.X./ ^ ^ Y J z z z f f f f f f s i u u v                                                     3 @ X $ w z J V V V V V J J J J J J J J V V V V I / / / 2.{ ;.{ 3.;.E N y p e 8 e 0 8 8 0 u u s s s s l g g z z g z z g f d p p p p p p p e 0 p s s 9 % @ O * v n.S.).).oXOX#X#X@X%XB.m.m.m.B.M.M.M.M.M.m.m.m.m.m.m.m.n.B.B.S.N.m.n.u.< . . . * w q 0 0 e e e p s 0 9 0 0 0 9 9 9 9 9 ; , # # @ @ @ @ @ @ 1 +.d.p.p.z.oXOX`.`.).M.m.v.v.j.c e r e C 5.q.0.0.0.0.L.L.L.L.L.P.q.q.4.C a a a a 5.4.9.4.4.{ ! / / X.5.9.4.4.9.w.w.w.w.w.4.4.>.4.;.Q I T R P 5.5.4.9.9.5.2.2.4.X.o.I S S Q $.4.4.9.5.I B V V S ;.w.w.6.q.[ W / ^ E ^ T Y ' _ p.p.p.a.@.q . . , m                                                                                                                                     ",
"                                                                                                                                                                        @ o . * u z J f J J V J V J V V V B N a a B d d d p p p a N V V V V V V V V f d s s f z p s p s s 9 * * - `                                                     3 @ O % 9 L J V V V V C J J V V V V V V V V V B V I I E E E W E ! ! ;.2.5.2.2.2.X.X.X.;.$.2.2.2.5.5.5.h.5.9.9.j.j.j.j.j.j.5.5.5.5.5.5.5.5.2.$.$.=.#.P 0 @ * < %.+XsXsXsX>X).M.M.v.5.T Y _ ' ^ ^ ^ ^ ^ ^ ^ T _ T T _ ) ) #.z.+X<X<X+Xd.9 . X O q U _ ' ^ ^ / / $.$.T J P z z z z z z z s , @ # @ @ @ @ @ @ 1 @.d.i.&.j.N.OXOX`.`.).).).N.j.P e r e C 5.q.w.0.0.0.0.L.L.L.L.L.q.q.4.C a N a N 4.4.4.5.4.Q Z C C E ;.4.4.4.w.^.^.].].^.w.e.>.4.4.;.X.=.=.#.D D D I D V Z Z N Z o.2.=.2.2.5.6.4.w.5.I a f B C X.w.w.6.6.G A C C I #.=.=.*.*.*.p.d.d.+.i . . @ m                                                                                                                                     ",
"                                                                                                                                                                        @ # . * q l z z J J V J f d p e e e e e e e 0 0 0 7 7 7 7 0 0 0 0 0 e e p p e s s s s s p p p s 0 : O X O n                                                     3 @ @ * 0 c P V V V V V V V V V J J J J V f V V V V V K I C I C F W 5.x.x.x.q.q.q.q.q.q.q.q.q.q.W.W.W.W.W.^.W.W.^.^.^.^.W.x.x.x.x.x.w.q.x.x.4.4.k.5.T 0 * * < p.sXnXnXkX2X).l.l.z.T p p f V V V B B B B V V f f f d d z z h.<XsXsX<Xc.q . . * k #.=.5.4.8.w.8.q.q.2.^ Y I Y I Y Y Y Y z < @ # @ # # # # @ 1 @.s.&.&.j.N.OXOX`.`.oXoXoXoXz.U p p 8 C 5.q.q.q.0.0.0.L.L.L.L.P.q.q.6.C N N a N 2.5.4.5.4.F N N N C X.4.9.9.q.^.'.'.'.(.I.e.<.e.4.4.9.9.5.$.p p p p p p 8 p 8 y o.9.4.5.4.4.6.4.9.5.P d V B C / 6.6.6.6.A Z B B J =.j.j.j.s.z.z.z.d.+.i . o @ m                                                                                                                                     ",
"                                                                                                                                                                        @ # o * q l v L z J z z d s e 0 0 0 0 0 e e 0 0 0 0 0 0 7 0 0 0 0 0 0 0 s e u s s s u s p p u u 0 : O O , n                                                     M @ @ * u c P J J V V V V V V V J J J z f f V f V V V C I I K I E E 3.x.x.x.q.q.w.w.w.q.0.P.P.I.I.I.I.I.I.W.I.I.I.P.I.I.W.P.P.P.q.q.I.P.P.q.6.8.q.k.^ 7 * * < p.sXnXnXlX<XN.l.v.l.T p a V B B B B V V V V V d d d d z z z j.<XsXsX<Xc.q . . % k #.2.3.4.6.6.6.8.8.;.E I I I I I I P Y d 1 @ O # # # # o O 1 @.a.&.*.j.N.@XOX`.`.`.oXoXoXl.Y p p r S 5.q.q.q.0.0.0.L.L.L.I.P.q.q.6.A H H y Z 4.5.4.4.4.S N N a S X.9.9.9.w.^.'.'.'.(.I.<.e.<.6.4.9.9.5.$.a p p p g s p p a y o.9.4.4.9.4.6.4.9.5.I a V N C ! 4.6.6.6.F C V B J =.j.j.j.s.j.d.z.d.u.j . X @ m                                                                                                                                     ",
"                                                                                                                                                                        @ @ o @ q k v z d z z z f d s s p e 0 0 0 0 0 0 0 0 0 0 7 0 0 0 0 0 0 0 p 0 p s s p s s p p s s u ; O O - n                                                     j 4 @ - u c c z z z J z f f V V V V J z f f f f f P J I P P V E I F 2.x.x.q.w.8.6.6.6.6.1.L.L.L.I.I.I.I.I.L.P.I.I.I.I.I.P.P.q.I.P.q.P.I.P.q.8.4.4.5.Y 7 * % ; i.<XkXkXgX<XN.l.v.l.' d a B V V V V V V V V B B d d d d d z j.1XsXsX<Xc.i . . % k #.2.3.<.4.6.6.6.6.2.Q I I I K K K I I V 1 * O # # o + o o < ` a.&.*.j.B.oXoX`.`.oXoXoXoXl.I p p p S 5.q.0.0.0.0.P.L.L.L.L.0.0.q.w.A N H y Z ;.5.4.5.2.S a a a D X.5.9.9.w.].'.'.'.].I.e.e.<.:.4.4.4.2.X.a a p a s d p p a y o.4.>.4.4.4.4.4.9.5.P a d a Z W :.6.6.4.E C J V P =.j.s.j.s.s.i.d.d.u.b , , 1 n                                                                                                                                     ",
"                                                                                                                                                                        @ @ o @ < q s e e z _ _ T T T T T U U U P P P P U T T Y U Y T _ _ _ _ T T _ T U P P P P P U U U v q O X # n                                                     2 @ @ - 9 u s s s s z z f V V V V V z z f f f f I =.=.=.=.^ B I I C / 2.2.;.;./ / / / { :.<.7.7.0.0.7.0.0.7.P.^.^.^.^.^.0.7.7.7.7.7.7.7.7.6.{ / / ^ V 5 X % : #.+XsXfXsX+Xz.#.=.&.' Y I E E E E E E E E E E I I J d d d z *.+X<X<X1Xc.9 . . O u T ^ [ [ ;.;.;.;.;./ E I I I K I K K I V < * X O o o + . . < ` i.%.=.=.z.m.m.m.m.N.oXoXoXl.U p p p S 2.4.7.7.0.0.L.L.L.L.L.L.P.0.q.[ F A S E / X.X.X.o.V a a a D Q X.2.2.<.^.].].].^.I.w.q.q.w.4.4.4.4.;.S D D P P P P P S S X.4.4.4.4.;.! / X.^ P V V C C [ <.6.6.4.I V J f P *.j.j.s.*.%.U ) ` u.f.                                                                                                                                            ",
"                                                                                                                                                                        @ @ o # * * ; ; 9 U p.j.j.j.z.l.l.l.l.l.l.l.l.v.B.oXoXoXoXOX+X+X+X+X@XoXoXoXN.v.j.5.5.5.*.*.*.p.+.l - O , u.                                u.@.u.u.u.u.u.u.u.m 4 @ @ @ - < ; : : 0 z z V V V V V V f f f f c P #.v.M.M.N.9.N V C C E C I S I C C C C C G ;.:.:.:.:.:.<.6.:.W.'.'.'.'._.7.<.:.:.:.:.:.:.:.[ F F I I d & X X % U N.1X+X+Xv.v 0 s d Y ' $./ X.;.2.;.;.;.;.;./ / ^ I B d d f =.).1X>X@Xd.9 . . X 9 z S F A F W F F E I C C C K V K K I I B < * X X o o o . . < ) i.%.#.#.*.*.*.*.j.B.oXoXoXl.R p p p C X.:.,.,.<.0.L.L.L.L.L.L.L.P.P.6.6.3.2.$.E I Y I D f g g f f P I I Q y.7.I.^.Y.Y.Y.^.^.^.^.6.4.4.5.2.X.X.X.$.$.$.=.$.=.X.4.>.>.4.;.F Z V B J T T ^ / ! ;.<.<.4.5.K V z f P =.j.j.-.#.s 6 ; q u.                                                                                                                                              ",
"                                                                                                                                                                        @ @ o # O O $ $ 6 ) z.c.k.l.M.N.oXoXoX).N.N.N.oX1X<XsXsXsXsXfXlXlXfXsXsXsXsX<XOXm.v.v.x.l.z.j.z.a.b , O @ n                                 - o @ # # @ O O @ , # 4 @ @ O % X X X 6 z z V V V V V V f f f f f P *.N.oX).`.x.V V Z V C C V V B B B d d d C ! ;.;.;.;.;.;.:.:.^.>X3X3X3X#X7.<.[ } >.>.} } :.! A C K J e & X O % v m.+X@XoXs.u ; 6 6 d $.h.2.5.5.5.4.4.4.4.4.2.2.$.E V a d f =.B.#X+XoXd.i . . O 9 f V A A C F C C C C C K V K J I I I I B 1 * X X . . o . . < ) i.&.#.O.=.#.O...*.m.oX@XoXl.R g a p V / X.} } ,.7.L.L.L.L.L.L.P.P.I.q.P.q.x.9.S N V f a g p g g g V V B V G >.w.w.w.q.^.'.].].^.q.4.5.4.5.4.4.5.5.5.5.5.9.5.4.9.>.4.9.! C y y e d T =.$.2.:.:.:.:.4.4.I V z f P #.j.j.-.O.9 $ X * u.                                                                                                                                              ",
"                                                                                                                                                                        @ . + # . @ X X < n d.z.c.c.n.S.S.N.N.N.N.B.B.F.$XiXsXiXpXsXfXjXjXfXsX<XsXsX<XoXB.v.v.m.x.z.h.z.a.b , @ , n                                 * . . . X . . . O # O @ 4 > > > @ @ X 6 L z J V f V f f f f f f J J =.N.oXN.@Xl.f f V V J V V V V f B B B B A [ ;.>.:.>.:.;.:.:.).<X<X<X3X#Xq.:.[ :.} } } :.:.{ C V V z i % + o * b n.+XoXoXj.s & 6 7 d #.5.:.;.3.3.5.5.;.4.:.:.;.;.Q a a f f #.N.+X+X@Xd.q . X O 9 z J V C I J K K V C E C C K V K I I U z < % X X . . . . . < n u.+.+.%.%.%.#.O.*.V.`.`.OXl.Y d p p K ^ $.;.;.4.0.L.L.L.L.L.L.L.L.L.L.L.L.q.6.F Z C N a d p f f f V V B V F 5.q.q.w.w.^.].].].^.6.>.>.4.>.5.5.4.4.4.4.e.e.4.4.4.4.4.5.X.C p p p d ~ 2.;.;.:.>.>.3.4.5.K V z z P =.9.9.-.O.9 O o 4 u.                                                                                                                                              ",
"                                                                                                                                                                        , @ o . # - O % 9 U d.z.c.c.c.m.N.B.B.B.m.n.m.S.@X<X<X<X<XiXsXsXsXsXsX<X<X<X+XS.v.l.z.l.l.z.z.z.a.l * o > n                                 1 O O % * O * - - - - , 3 , 3 # @ * X 6 z d V V V V J J V f f f f J =.B.oXoXN.k.J J f V J V V V V V V V B B F ;.:.:.:.:.:.;.;.:.).>X<X<X<X#X6.;.[ :.} } } } } { C V J z i $ + o * z c.oXoXoXp.g 6 6 0 f $.5.:.4.5.2.4.5.:.4.3.3.;.;.Q B f f f =.N.+X+X@Xd.i . X O 6 z P V C J J I I C C S C C E K K K L L s < * X X . . . . . , n i.+.&.%.%.%.#.#.*.V.`.`.OXv.T f d p I ^ $.;.;.4.q.P.L.L.L.L.L.L.L.L.L.L.L.q.6.F Z Z Z B a a f f f V V V V F :.4.w.w.w.^.^.^.^.w.6.4.>.4.>.5.5.4.9.9.4.4.4.e.4.4.4.5.5.X.V p p p d ~ 2.2.;.>.>.>.3.4.5.C V z z P =.j.j.-.O.i O # , u.                                                                                                                                              ",
"                                                                                                                                                                        @ o # @ 1 j l l v O.s.z.j.j.&.` _ O._ +.` ` ` %.i.p.z.p.z.z.c.c.c.c.v.l.z.z.i.' ) U U U U v v n b q @ O , K.                              Z.a.@.` ` +.a.i.a.d.d.a.d.f.f.n * * * X w z z B f B B V V f f f f z z T i.p.h.*.#.f J z z L J V V V V V V V V F ;.:.:.:.:.:.;.;.;.5.x.k.x.x.x.3.;.:.:.} } :.} { / C K J c 9 $ o X % g z.B.M.B.l.*.' _ #.j.M.).).).x./ Q ! ! ;.3.3.:.;.Q B f f V #.B.+XoXF.d.i . X O w z P V C J J I K C E 2.5.2.5./ I V J L d - X . . . . . . . - n +.+.%.%.%.%.&.#.*.B.OXOX@XM.*.^ T Y ^ ^ ^ ! ! :.q.P.P.L.L.L.L.L.L.P.P.P.P.q.7.[ G Q ! ^ V B V V V E ^ ^ / Q / / X.X.;.w.w.w.w.9.w.w.w.w.w.5.5.4.4.4.w.b.q.b.w.X.Q Q ^ E B s s p d ~ 2.;.;.:.>.:.3.4.2.V B z f V =.j.j.-.&.u * @ 3 g.                                                                                                                                              ",
"                                                                                                                      n b m b b m m m m m m m m                         @ . O - b a.d.a.s.s.s.j.h.%.k : % : O * * * $ * = = = & & ; ; 6 6 6 6 6 9 9 9 ; : 6 ; 6 - - - @ @ O o o O n                       b i j b d.A.F.S.S.$XiXiXiXiXiXiXpXpXpXf.< * * X 0 z z V V V V V V f f z z z z f z d s f z f z J J L z V V V V J V V V F :.:.:.:.:.:.;.;.X.Q B a d V I { } :.:.} } :.} { { C K J z 0 $ o X % s *.l.v.v.).@X+X+X+X<X<X3X<X>XM.Q N Z C ! 2.3.;.2.Q B f V V #.m.oXF.S.s.q X X % w z P V C J J I K C $.x.).).).k.I d d d e * o . . . . . . . , n +.+.%.%.=.&.&.=.j.B.OXOX@XN.l.j.j.h.5.Q S C S ! 7.0.P.L.L.L.L.P.P.P.P.L.P.I.0.w.6.9.9.5.I N V V S / 5.5.5.X.E Z Z Z C X.4.4.>.:.w.^.^.^.^.9.4.4.>.4.^.'.'.'.w.G Z Z V B a s s p d E / ;.;.:.;.;.:.;.2.V B f d V #.9.j.s.&.u * @ 3 g.                                                                                                                                              ",
"                                                                                                                      2 O O O @ * @ @ @ @ # @ @ n                       , o O - n d.d.s.d.d.s.&.h.' 0 X . o . . . . . X . . . . X X X X X X $ $ X $ $ X O O O O o @ O o o o . o - n                       2 @ O 1 d.F.F.F.@X<XsXsXsXsXsXsXfXjXdXn.; % % X 0 l x V V V f f f f f f z z z g u 0 0 0 d z J J z J f J J V V V V V V E ;.3.3.:.;.3.;.X.;.S p 8 r p f [ } :.} } } | | | { C J L z 9 $ X X $ s *.l.k.l.oX<XsXsXsXsX2X2X<X<X).T a a N E ;.2.;.2.^ V B B V #.m.oXN.B.p.9 X X % 9 z L V V J J I I I 2.).OXOXOXx.~ p d d 0 , + . . . . . . . - n +.+.%.%.%.&.&.=.j.B.oXoXOX).v.v.m.v.5.I a N Z G 6.0.P.L.L.P.P.P.P.P.P.L.L.0.0.q.W.x.W.x.E Z V C I ;.9.9.q.$.S y y y N Q 2.X.X.;.x.^.^.].^.4.4.4.4.w.^.'.'.'.^.! Z Z B d p p p p B E ;.;.;.;.[ ;.;.;.$.V d f f V $.9.j.s.%.u * # 3 g.                                                                                                                                              ",
"                                                                                                                    Z.< O O % $ O O O O O O O @ m                       # . X - v d.z.d.d.d.s.s.h._ 9 . . . . . . . . . . . . . X X X X X X X $ $ $ % % % % % % . X . . . . . O O n                       1 * O q f.$XF.oX@X<XsXsXsXsXfXfXfXfXsXn.; $ % $ u z v V V f f z f z z z z z z s 0 u s e s J z J f J f J J V V V V V V E ;.2.;.:.{ ;.;./ X.S p p e r V [ | :.} } } } | :.{ C J L z 9 % . X % s *.x.x.v.@X<XfXsXsXsX2X2X2X2XN.Y p y y E ;.2.;.2./ V B B V #.m.N.B.B.a.9 X X % 9 z L V C J J K K I 5.).OXOXOXx.I p d d 0 # . . . . . . . . - n i.+.+.+.#.&.&.=.j.B.OXOXOXN.b.l.v.l.5.I a N Z G e.q.P.P.L.L.L.L.L.L.L.L.L.0.P.P.I.q.W.w.F Z Z Z F ;.w.w.w.=.P p a y a ^ X.X.X.;.x.].].].^.4.3.4.3.w.^.'.'.'.^.! Z V f d d p p p a E ;.;.;.;.[ ;.;.$.$.d p p p f o.5.j.j.&.u * @ 3 g.                                                                                                                                              ",
"                                                                                                                    Z.q % $ $ X $ $ % % % O * - n                       , @ * 1 n a.d.d.a.&.a.s.i.) i % X X . . X X X X X X X X $ $ % & & & & & & & % & & & & & = = & % $ X . . O n                       , # O 1 d.$XoXoX@X>X2XsXsXfXfX2XsXsXsXc.6 $ % O q b b z z z z z z z z z P f z s 0 p e p p V f V f V V J J V V V V V V F ;.;.:.:.;.:.;.;.;.S a p e p V [ :.:.} :.:.} :.3.{ V J z z 9 % . X % s *.x.x.v.oX+X<X<X2X2X2X3X2X2XM.I a a H E ;.;.;.;.! V B B V #.m.S.B.B.a.9 X X % 9 z L V C K V K K K 2.M.).OX).k.K p e p 7 * X . . . . . . . , n +.@._ @.%.=.&.=.j.B.OXoXOX).m.v.l.m.9.I a N N Q 6.q.P.P.L.L.0.0.0.0.L.L.P.L.P.P.I.I.P.q.G Z Z Z A { 4.6.6.=.P p a p a Q X.$.$.2.x.^.^.].^.4.e.e.e.w.^.(.'.'.^.! N N d d d a a p N E { ;.;.;.{ / / ^ ^ d p p p a ^ 5.j.j.&.u * @ 3 g.                                                                                                                                              ",
"                                                                                                                    n.u.+.@.&.#.&.&.&.%.+.@.@.@.d.H.                            u.n b b b b b b b l z z f J J B B B B J J V V J K K I ~ ~ ~ ~ ~ ~ ~ ~ ~ ~ ~ ~ ~ E ~ ~ Y L w % X # j                       , @ O 1 d.@X@XoXOX#X<X<X<X2X<X>X#X+X+Xi.; O * O 1 i q 0 0 0 0 0 0 u p f z f z f p d e s s J f P f V V J J V V V V V V F ;.;.:.:.} :.;.;.:.! S S V V E [ :.:.:.,.:.} :.;.{ V J z z 0 % o X * l p.l.l.v.l.v.B.N.).`.`.).`.OXx.E S S C ! ;.3.;.;.! V B V V #.m.N.B.B.i.9 X X % w z P K C J V I I K / 5.h.5.h.' J d d z e q < ; * O X . . . @ j b l l v ) =.=.=.j.B.oXoXOX`.M.M.N.N.k.Y a y y G 4.q.I.P.L.P.P.P.0.L.L.L.L.L.L.P.I.I.I.0.[ G G G W :.6.6.7.=.P p p 7 p ^ $.=.$.2.9.x.b.^.^.w.w.w.w.w.Y.^.^.].^.! N B V z z V V N V ! ;.;.;.{ E E I I T d d f f V #.j.j.j.&.u * @ 3 g.                                                                                                                                              ",
"                                                                                                            n m m u.$X,X<X<X<X<X<XiX<X<X$XF.F.G.C.u.j j b                         M 3 4 * @ - * % w *.M.!.!.W.W.W.W.W.W.W.W.W.!.!.!.!.!._._._._._._._._._._._._._._._.).v.L = X + 3 n n n n n             3 @ X 1 d.F.F.oXOX`.#X>X>X>X`.m.l.l.l.) - O O O @ , * * * * % % % % 0 d f z f f d d d f f f f V V V V V V V V V B B f F ;.;.} :.:.} :.;.;.;.;.;.{ { { :.:.:.:.>.} :.:.;.! C C J z 0 $ . X O k h.v.l.k.*.P z P P #.=.=.4.2.X.X.;.X.;.;.;.;.;.;.Q V a B V $.m.).N.B.i.q X X % w z P V C K K K I I I I I I K K K J J z z s s k u 9 * . . . . @ * - * 1 ) #.&.=.j.N.@X@XOX`.OX`.`.@Xv.^ a a a Q 4.q.q.0.P.0.0.0.0.P.L.L.L.L.L.L.P.I.I.I.0.7.7.7.6.6.6.7.7.$.B r r e p ^ $.$.=.;.4.9.6.e.e.^.].].].].w.0.q.w.4.Q Z V V f Y / / / / / ;.;.{ / E B V V d T ' ^ ..#.*.j.j.z.%.u O - , g.                                                                                                                                              ",
"                                                                                                          Z.3 @ , b $XpXdXsXsXfXsXfXfXsX<X+X$X,XA.) - - - j                       2 @ # # . X X $ e h._.|.|.|.[.[.[._._._._.|.|.|.|.|.|.|.|.XX.XXXXXXXXX|.|.|.|.|.|.|._.).' 6 X # + > + + o O             3 @ @ 1 d.oXoX`.`.`.OX#X#X#X).k.j.s.s.) - # @ @ @ - @ * * * O % % $ 0 l z z V f f f f f f f z J J J J J J V J V V B V E ;.;.{ :.:.} :.:.:.:.;.;.:.:.3.:.:.:.:.:.:.:.:.;.! C V J z 0 $ . + O k p.v.v.l.#.s 0 0 0 f P P E E ! X.2.2.;.;.;.;.;.;.Q V a f V #.m.).N.B.i.q X O % w z P V C K K K K K K K K K V J J J J L z z z z k w * X . . . . . X X < n %.&.%.h.B.@X@X@X`.OX`.OX#XM.^ a a a S 4.w.q.0.I.0.0.0.0.L.L.L.L.L.L.L.L.P.I.P.P.L.q.0.q.q.0.7.6.$.V p r r p T #.$.$.X.2.>.4.4.e.].(.'.'.'.w.<.6.6.4.E Z C V J ^ 2.2.;.;.;.;.;.;.{ E N B d d _ =.=.*.*.h.j.z.p.i.i X @ 3 g.                                                                                                                                              ",
"                                                                                                          n.@ O % k $XsXsXsXfXfXfXfXfXsX<X@X$X$XF.n O O * j                       2 . + # X % X $ 0 h._.|.{.~.~.{.[.[.[.[.[.[.[.{.[.|.{.{.XXXXXXXXXXXXXXXXXXXXXX{.{.|. X^.~ 5 X X . + o # . .             , . O ; s.@XoXoX`.`.@X#X@X#XN.j.j.s.d.n - # @ @ @ * O * @ * O % $ % w k z f f f d f d f f f z f z z z z z f z f f f d I / ;.{ { } { >.:.:.;.:.:.:.:.:.;.;.;.:.;.:.:.:.3./ C B J z 0 $ + + O k d.v.v.l.=.s 9 6 6 s P U F F W 2.5.3.2.;.;.;.;.;.Q V a f V #.m.).N.B.a.q O % * w z P V C K K K K K K K K K V J J J L L J J z z x q * X . . . . . . . , n %.=.%.j.N.@X+X+XOX#XOX#X#XM.^ B a a E 4.q.q.0.P.0.0.0.0.L.L.L.L.L.P.P.L.L.L.L.L.P.P.P.q.q.0.7.6.$.N 8 8 8 p T =.=.=.2.5.4.3.4.4.].(.(.(.'.q.6.4.6.4.E C C V V ^ 5.4.3.:.:.:.;.;.{ E a d s d _ &.*.*.s.h.s.z.p.a.u * @ 3 g.                                                                                                                                              ",
"                                                                                                          Z.* $ $ l @XsXsXsXsXsXfXfXfXsX<X+X$X,XF.n O O @ j                       M o o X $ & $ $ 8 8.|.|.{.{.{.[.[.[.[.[.[.[.[.[.[.[.{.{.{.{.{.{.{.{.{.{.{.[.[.[.[.[.|.!.W 5 $ X X . . . . .             q O $ 6 p.S.oXoXoXoX@X@X#X>X`.j.j.d.f.n , # @ # @ * % * * % * * % % 6 z x z z z f f d l l z z z z z z z z z z z z z z I ^ $./ { ;.3.;.:.:.:.:.3.3.3.3.:.:.:.:.:.:.:.3.2./ C V J z 0 $ . + O k d.m.m.v.=.s 0 0 0 f U Y E E ! 2.2.2.;.;.;.;.;.;.Q V B f V $.m.oXN.N.p.q O % * 0 z P J K K K K K K K K K K J J L L L P z z z z k w * . . . . . . . . , n O.#.%.s.B.@X+X#XOX#XOXOX+XM.^ B a N Q 4.q.q.0.0.0.0.0.0.L.L.L.L.L.P.P.L.L.P.L.I.L.L.L.0.q.0.6.6.X.Z 8 e e a T =.*.$.5.5.4.4.4.6.(.(.(.'.'.w.6.4.4.4.Q S C Z C Q 4.3.:.:.:.:.;.;.X.E B d d s _ %.&.&.&.*.p.d.i.u.q - @ 3 f.                                                                                                                                              ",
"                                                                                                          c.v v v #.oX<X<X<X<X2XfXfXfXsXoXz.c.c.d.j O O # 2                       1 O O = e J B A { W.|.|.{.{.*X*X.X.X.X.X.X.X*X.X.X.X.X*X*X=X5X5X5X*X*X*X.X.X.X*X*X.X&X Xq.W C V d 0 6 & ; ;           f.) b z U l.oXoX`.oXoXOX@X#X+XB.O._ @.@.j > + # O ; < 6 6 < < 6 6 : ; 6 u u i i q 0 9 w q q q q u u u u u u u u u u 0 0 s z z J C E / / / / / ;.{ { { { / / / / ! [ [ { / E C V J z 0 $ . o O k z.m.B.m.h.U v U v c f f V Z C E / ^ / / ! ! ! ! E V B V V $.m.oXoXS.p.u O % * 0 z Y K K J K J K K K K K K J J L L L L d e 0 w 6 ; O . . . . o o o o , n O.O.+.p.c.B.N.).).OXOX#X#XM.^ V a a I 4.q.7.<.7.L.L.P.P.L.L.L.L.L.L.L.L.L.L.L.L.L.L.L.L.q.q.q.7.5.! C S I I I ^ ^ ^ o.5.5.4.4.6./.(.(.'.'.4.X.X.Q / / / Q F W { :.:.:.:.:.:.:.2.X.E d d s s _ #.&.&.%._ ) ` ) u.u.                                                                                                                                                      ",
"                                                                                                  K.n n ` f.B.S.B.m.).).N.).#X2XfXfXgX<X*.u 9 q q , O @ @ @ j n n n n K.n n K.m j # O % e / !.!.W.!.|.|.{.{.{.=X7X7X7X7X7X7X7X7X7X7X7X7X7X9X9X9X9X9X9X9X9X7X7X7X7X9X9X9X0X X/.W.W.x./ I f P d U n K.@.@.i.c.n.l.l.B.oXoX).`.OX@X#X+X@Xv.s 9 9 q 3 # o X O q s s s s s k s u u 6 & * % % % % O O O O O O % * * * * * % % % % % % % % & & 5 e K I I I S E E E E ] E I F F F F F F E E V V J z e % . o O k z.B.B.M.v.z.z.z.z._ p 0 8 8 p V I C C C C C C C C B V J V $.M.oXoXS.p.u % % * 0 L Y K K K K K K K K K K K J L J J J f p = % $ X X . . . . . . . . X < n &.O.+.&.p.j.j.j.b.).OX#X#XM.^ V a a S X.3.:.:.<.L.P.P.P.P.P.L.L.L.L.L.L.L.L.L.L.L.L.0.0.0.q.7.7.6.4.4.5.2.X.V a f f I X.5.4.4.6././.(.(.].;.S Z V I X.4.2.;.;.:.:.:.<.<.:.:.:.2.X.E p d s s _ &.&.&.+.l w 9 q n                                                                                                                                                         ",
"                                                                                                  M , < i d.S.S.oX).N.M.M.M.`.<XfXfXgX<X#.: % - @ # . + + + @ > @ 4 , , , , 3 , @ O X $ 8 3.!._.[.~.|.{.{.{..X0X9X8X8X9X8X8XqXqX9X9X9X9X8XrXqXrXqXqXrXrXrXrXrXrX8XqX8X8X9X6X{.|.|._.<.[ E ^ ' r 3 3 - : &.B.F.B.N.).).`.`.`.@X#X#X#X@Xk.6 $ X # # + + # % s z P L P L U z z z 9 $ X X X . . . . . . . . X X X O X X X X X X X X . . . X $ 0 J I P P I I I E K ] I E E E F F E E C K V J L z e % . X $ g j.M.M.M.B.m.m.B.n.#.7 6 7 7 e d V V B B C C C C B B V J V =.M.oXoXS.p.u % % = 0 L Y K K K K K K J K V V J V J J J J f e O X . . . . . . . . . . . X ; n &.O.+.%.&.#.$.$.k.).OX#X#XM.' V f a S / :.:.:.<.P.P.I.I.I.I.I.I.I.P.L.L.L.L.L.L.L.L.0.0.0.0.7.7.6.6.q.q.5.5.a 8 p p V $.9.9.4.6.T./.(.(.^.! N a a V X.5.4.:.:.:.:.:.<.<.>.:.;.2./ I e s u s _ &.&.&.+.9 X X % m                                                                                                                                                         ",
"                                                                                                  4 o O 1 i.F.oX@XOXM.m.b.b.`.2XfXfXgX<XO.% X X o # + + # # # . . # o + + + @ + # * X $ 8 8./.|.{.[.{.{.{.{..X6X9X9X8X9X8X8XqXqX9X9X9X9X9X8XqXqXqXqXrXrXrXrX8X8X9XrXqX8X9X6XXXXX{.|.1.} { / 2.r O O O O +.m.B.N.N.M.).`.`.`.oX@X#X#X@Xk.: X X # o # # # % s L P L P J L z L z 6 X X . . . . . . . . . . . . o o . . . . . X X X . . . . X 9 z L J J J K K K K K K K K K C ] ] ] K I K L L x e % o X $ g j.M.M.M.m.B.n.n.m.#.7 7 6 7 0 s f f B V C C C C B B J L P $.M.oXoXS.p.u % * = 0 z I K K I K K K J V V V J J L J L L f e * X . . . . . . . . . . . X : v +.O.+.%.#.#.$.$.k.).OX#X#XM.^ J f f S ;.3.:.,.<.P.P.I.I.I.I.I.I.I.P.L.L.L.L.L.L.L.L.0.0.0.q.q.q.7.6.6.8.5.5.V e p r V $.9.9.4.6.T./.(.(.^.Q N a a V ^ 5.4.:.:.>.:.:.<.<.<.:.:.2./ I e s u s R O.&.&.@.9 X X O l                                                                                                                                                         ",
"                                                                                                  @ o X < +.B.F.oXoX).M.m.m.oX<XfXfXdX,Xu.* o O X $ $ $ $ $ O O O O $ X X > X $ $ 5 5 t H 8.[.|.[.{.[.[.XX[.XX0X9X9X8X8XqXqXqXqX8X8X8X8X9X9X8X8XrXrXeXeXeXeXeXeXeXeXeXrX9X6XXX{.XX[.L.} } } 3.8 O X X O @.n.B.B.M.).).).`.oX@X#X#X+X+Xz.% . o . . # O X $ s z Y P P J V P J s 0 $ $ X X X X . . X X X X X X X X o . . . . X X X X . . . X 9 k L z z L L L L L L L L I I L L L Y L L v z v l w * . . O k z.B.B.m.M.).B.m.n.@.9 : 7 0 e s d f f f V V V f V V V D I 5.N.oXS.S.d.u @ @ > q b U P J L L L L L L L z z L v z z z d e @ X . . X X X X X % . . # # 3 n @.u.+.@.+.#.#.$.k.).OX#X#Xb.Q Z H N F / 5.8.3.7.P.I.L.I.I.P.W.W.x.q.q.0.0.0.L.0.7.0.0.q.q.q.0.0.7.7.7.q.6.;.C 8 y y Z X.9.k.9.9.].'.].`.^./ H B N C / 3.4.3.:.:.:.<.:.:.:.:.2.2.#.z s u u e ) &.&.&.@.q . . . m                                                                                                                                                         ",
"                                                                                                  @ O X - ) z.z.l.l.m.M.B.B.N.oXoXOX@XC.n @ o O % 9 s f f s u q i i w ; X * X = k Y ] W } W.|.|.{.XX.X.X.X.X.X0X9X9X8X8XqXqXqXqX8X8X8X8X8X8X8X8X8X8XeXeXeXeXeXrXeX9X9XeX9X0X5X*X.X.XU.L.7.8.x.H O X X X @.n.m.B.M.`.#X#X>X>X@X`.).N.N.&.% . o . # o . O X s U J J J V V J J f u 6 ; ; ; ; - - - ; ; ; < < < < < < , - - : = : : @ . . . X ; w 0 e e 0 s 0 0 e e e e e e s s s s s s e w q q < X . . O u i.z.z.j.z.v.v.m.m.i.c l z P U Y T T T T T ^ ^ ^ ^ ^ o.#.$.5.l.M.B.m.&.q * @ > 1 q s p e s s s r u u e 0 e e e w 0 0 w 0 < < ; ; ; : 6 6 9 < O X # o * j b n b v +.%.#.=.k.).`.OX#X).5.X.o.o.X.X.2.2.{ :.0.I.I.I.I.6.:.:.;.:.q.P.I.I.I.0.7.0.0.q.q.q.0.0.q.7.6.q.8.4.! C F E F Q X.X.X.X.4.9.9.9.4.! C E S E { 3.3.:.:.:.>.,.:.:.;.[ / $.T z e 0 0 0 _ &.&.&.@.q . . o m                                                                                                                                                         ",
"                                                                                                  @ O X * b +.%.*.*.l.B.B.B.B.l.j.k.z.a.j # X O : z =.5.*.$.T U P U L w O O X 9 ' !.!.!.Q._.{.{.[.XX=X0X0X0X0X9X9X9X8X8X8X8XqXqX8X8X8X8X8X8X8X8X8X9XeXeXeXeXeXeXeXeXeXrX9X9X7X0X0X6X[./.Q.!._.C % X X X @.c.m.m.M.#X2X2XsXsX+Xm.v.l.l.O.% X O . o o . % X s Y J L J J J J J z f s s s s u j j j u u u u j j j j u u u u u u u u , o . . . O O * * * * - * * % % * = * * % = = = - - * % * - O . . . O q ) ' _ #.=.z.v.v.m.l.i.p.p.p.h.j.j.j.j.j.j.j.j.k.k.k.l.l.v.k.j.k.l.z._ q @ @ @ * ; ; : 6 : ; ; ; * * * * * * * % % % % : u j k s s g l l l q * X X o o 3 1 1 1 u ) %.=.#.k.).OXOX#XOX).M.b.b.k.X.E E F [ 0.I.I.I.q.[ A C Z W x.^.^.^.I.P.7.0.0.q.q.q.0.0.q.q.6.q.q.8.4.:.4.4.;.E S D D D F F F S E ! / / / ;.;.:.:.:.:.:.>.:.:.:.W F E ^ P s 0 9 6 w ) %.&.&.O.9 . . o m                                                                                                                                                         ",
"                                                                                                  @ O X * l _ _ #.=.z.B.B.N.B.j.5.*.i.@.j # O O : T j.x.k.5./ I R T U e X O X w h._.|.|.|.|.|.{.{.XX6X9XrX8XqXrX9X9X8X8XrXrXqXqX8X8X8X8X8X8X8X8X8X9XeXeXeXeXeXeX9XeXeXeX8X8X8X9X7X6XXX_.Q._._.A * O X X @.c.n.m.m.>XfXgXgXfX+Xl.j.j.j._ % X o o . # X % X s z P P P L J J J L z z z z v v v v v z z z z z z z z z z z x x z z v 2 O . . . o . o o . . . . X X X X O O X X X X X O O O . o O . . o . . 9 v ) U U ' j.l.l.v.v.l.v.v.v.l.l.l.v.l.v.v.v.m.m.m.M.B.M.N.l.h.*.*.*.) 9 * @ @ @ * * % % O O X X . . . . . . . . . . o - k x v z z L P z b j * X X . . O O O O 1 v %.=.=.k.).OX`.OX#XOXOX'.`.b.X.I C F G 0.I.I.P.w.F N N N F W._._././.I.7.7.0.q.q.q.0.0.q.q.6.q.q.q.q.q.q.x.9.S N B V V Z Z N N Z ! 2.;.2.:.:.:.:.>.>.>.:.:.<.;.W F S Y P s 0 6 6 9 U %.&.&._ 9 . . o j                                                                                                                                                         ",
"                                                                                                  @ # X * l @.#.%.*.l.B.B.N.B.j.h.p.i.@.j X X X 5 R 9.q.4.3.! A P I P 0 X O $ 0 5._.|.|.{.XX{.{.XX.X0XrXrXrXrX8XeX9X8X8X8X8X8X8X8X8X8X8X8X8X8X8X8X8XeX8X8X9XeXeXqXqXqX8X8X8X8X7X7X6X|._._._._.C @ O X O @.c.m.v.b.>XgXgXlXfX@Xk.j.j.z.) % . . . X . O X X l z U L U L L J L z z z z z z z z v v c z z z J P J J V V J J L z z z q O . . . o . o o . . . . . . . . o o o . . X X . o . . . . . . o . . 1 v ) U U #.z.v.v.v.v.v.m.n.m.m.m.m.v.m.v.m.m.m.m.m.B.B.M.B.v.j.*.p.p.U 9 * * @ @ # # O X O o . . . . . . . . . . . . . 4 r z L L J L L z v u ; X . . . . X X O 1 v &.=.=.k.).@XOXOXOXOXOXOX`.b.X.S S F ! q.I.q.q.6.F N Z Z F W._._._.^.L.0.0.0.0.q.q.0.0.q.q.7.7.7.q.q.q.q.x.9.S N V V f N N N a N ! 2./ :.;.;.:.>.>.>.:.<.:.<.:.W F E Y Y p 9 6 6 7 U &.*.&._ 9 . . o m                                                                                                                                                         ",
"                                                                                                  @ # X * b +.%.%.*.z.m.m.m.v.j.p.p.i.@.j O O X 5 I 5.4.4.:.G A C I L 0 X O $ 7 8.|.|.{.{.[.[.{.[..X0X8XrXrXrX9XeXeXeXeXrX8X8X8XqX8X9X8X8X8X8X8X8X8X8X8X8XeXeX8XqXqXqXrXeX8X8X8X7X0X|._._._.).A @ O O O ) c.m.v.m.>XfXgXgXfX+Xl.l.z.z._ : X . X @ o * * $ s v U L L L z z z z z x x z z z z z z f z J J V B V C V V V V V J J L 0 % $ X X X X X X o o o X X X X o # # o . O O X X X X X X X . . . . X 1 n ` ) ) %.z.c.c.v.v.v.v.c.c.c.c.c.c.v.v.v.m.n.n.m.m.m.B.m.c.z.p.s.s.U w % * * @ # # # # o o o o . . . . . . . . . . . @ r d L J J L J J L s ; % X O O . O O O 1 v %.=.=.k.N.@X#X#XOXOXOXOXOXb.X.S I S F q.x.q.w.4.F N V Z C W._._._.W.L.0.0.0.0.0.0.0.0.q.q.q.L.7.0.0.0.q.q.q.S Z V f f V B V N Z Q :.X.;.;.>.>.>.:.:.:.<.<.6.:.W E E Y I p 7 7 9 7 U =.*.&._ 6 . . o j                                                                                                                                                         ",
"                                                                                                  @ # O * b +.%.%.&.p.z.z.z.j.h.i.i.i.` M O O X : J $.X.! ! F A C I L 0 O O X 7 8.|.|.{.[.{..X*X.X6X7X8XrXrXrXeXeXeXeXeXeXeXrX8XeXeX8X8X8X8X8X8X8X8X8X8X8X8X8X7X7X6X6X6X0X6X6X0X6X6XQ.8.8.3.5.r # X X X ) c.n.v.v.>XfXgXlXfXoX=.%.+.+.v - O O @ j u.g.a.a.b u u 0 e 0 q 0 0 0 0 q q q q e e e u 0 s z V V V C F F F F E E E E E V r e e 0 w 6 ; < < < < < < < ; @ # O o O - < ; ; ; ; ; ; ; ; ; - < , 1 j l j l b ) @.` _ +.+._ @.@.@.@.O.O.@.@.O.+.+.+.+.%.%.&.i.+.O.) _ ) c s w w 9 < * # # # X * < ; * ; ; * * * * * * ; - < r B J J J K J J L d 0 9 6 9 < O O O O 1 v &.%.=.j.l.M.).).`.`.#XOXOXM.X.V V V C 4.w.w.q.5.F B V C C W._._._.W.L.0.0.0.7.7.0.0.0.q.q.q.0.0.0.L.L.P.q.q.S V B f f E I E E F ! ;.;.;.;.>.>.>.:.:.:.6.<.6.4.E C I P P f P z f f O.%.*.&._ 9 X . . j                                                                                                                                                         ",
"                                                                                                  # # O - b @.%.%.&.&.*.p.*.=.*.i.i.i.` q X X X & d Y I C A A A C K L 0 O O O 7 8._.|.{.{.*X7X7X7X9X8XrX8X8XrXeXeXeXeXeXeXeXrXrXrXeXeX8X8X8X8X8X8X9X8X8X8X8X7X0X*XXX{.{.XXXXXXXXXX|.} 8 8 7 e & O X . X ) z.v.v.m.<XfXgXlXsXv.s u q i q X @ @ , f.vXvXvXvXd.; = * % % % O X X X % % % % % % % % % w f P J C W { { } } | | | | | 3./ / ' ' ~ L z z x x x x x k k @ @ X O < j l k k s s d z z z z k l j 9 < * O - * - ; ; ; < 6 ; < < < < ; ; ; < ; ; 1 9 9 9 9 9 1 9 9 9 9 9 u z U ) b u - # o # ; w k k j k k k k k k k k k k k B J J J J J J J L J z z x x q ; O O O 1 n i.&.%.=.*.5.9.9.k.).`.OXOXM.o.B B N C ;.4.4.5.2.S V C C C W._./._.W.I.0.0.0.7.7.0.0.0.q.7.7.7.L.L.L.L.P.0.q.F C f f J ' $.$.X.X.;.;.;.;.;.:.:.>.:.:.<.7.7.q.4.F N V f P T *.*.#.O.p.%.*.&._ 6 X . . j                                                                                                                                                         ",
"                                                                                                  # # X * l @.+.%.%.&.&.=.=.&.=.&.&.i.) q O X X * u z f B V C C K K L w . o X 7 8.|.[.{.{.5X8XqXqXqXqXqXeXrXrXrXeXeXeXeXeXeXeXeXrXrXeXeX9X8X8X8X8X8X8X8X8X8X8X6XXX[.[.[.[.{.|.[.|._.W t $ $ X X o o . O ) c.n.l.m.>XgXgXkXsXz.; * * * @ @ @ @ 3 Z.HXIXKXIXf.* X . . . . . . . . . . X X X X X O X ; k U J K { 3.3.,.,.,.,.8.8.8.,.8.3.3.3.' ~ K K L L L L L L d , O O % < x L L L L L L J J J J v v k 6 X . . . . . . . . X X X X X X X X X . . X X X O % * * * @ @ @ @ O $ w z _ _ ) l ; X o o ; 0 x x x z L J J z z z z z x x B J J J J J K K J L L L L U k ; o @ @ q n u.+.&.%.=.=.=.=.k.).OXOXOXM.^ V V N C / 5.3.2./ C V C C C x.)._./.W.P.7.7.0.0.7.7.0.0.0.0.0.7.L.L.L.L.L.P.q.F N f f f 2.2.2.:.;.;.;.;.;.;.:.:.:.| :.,.7.7.q.8.S B a f f =.*.j.p.p.&.i.i.i._ 1 X . o j                                                                                                                                                         ",
"                                                                                                  # O o * b u.i.i.&.i.*.=.=.*.=.&.&.&.) q O X X * u z z f V J K K Y z w . . . 7 3._.[.[.{.5X7XqXqXqX9X9XeXeXeXrXeXeXeXeXeXrXrXrXrXrXeX9X9X8X8X8X8X8X8X8X8X8X8X6X.X{.[.[.[.|.{.|.|._.] 5 $ X O o o X o O ) c.c.l.m.1XgXlXkXsXd.: @ @ @ # @ # @ 1 Z.HXIXPXIXZ.* X . . . . . . . . . . . . . . . O X ; z U L J / 3.3.8.,.,.8.8.8.8.8.8.,.8.3./ E C C K J L L L L d , O O $ 6 l L L L J J J J J J J L L z 6 X . . . . . . . X X X X . X o X o X X X O @ @ * * * * * @ @ @ @ O $ w z _ _ Y s : X . . = 0 z z z L J J J B B B B d d d f V J J J J J K J J K L I U k 6 O @ O 2 n u.u.i.&.=.=.=.=.k.).`.OXOXM.^ V N a V / 3.2.2./ K C C C K x._._./.W.P.7.7.0.0.0.0.0.0.q.0.0.L.L.L.L.L.L.P.q.F Z B V f ;.;.;.;.;.;.;.;.;.;.:.:.:.| 3.8.7.7.q.8.I B f f V =.5.5.*.p.&.i.%.i.@.9 X . o j                                                                                                                                                         ",
"                                                                                                  3 , , 1 b ` u.+.#.i.i.&.&.*.&.&.&.&.) 9 O X X * i b b x z L L Y U z 9 . . . 6 | _.~.[.{.5X7X8XqXqX8X8X8X8XeXeXeXeXeXeXeXeXeXeXeXeXeX9X8X8X8X8X8X8X8X8X8X8X8X6XXX[.[.|.|.|.|.|.&X_.( 5 % O + # @ * * - ) c.m.m.M.>XfXlXkXsXd.; @ @ @ 4 3 < 3 j A.GXKXHXKXC.9 * 4 4 4 4 4 4 4 - 4 - - - , , , 3 , 1 b z U L ^ 5.3.3.3.3.3.3.3.3.,.,.:.8.3.W A A C C V J J J L d - O O X ; l z z J J V V V V V V V V d 7 $ X X . X X . X X X X X X X X X X O X O O * * * * * * * @ @ @ @ % % 6 f Y Y I s & X . . * q x x z J V J V B B B B B d d f f f J J J J J V V K K K Y k 5 O @ O 2 n u.u.i.&.&.=.=.=.k.).`.OX`.M.o.V V N V / 2./ / / K C C C F x.)./././.P.0.0.0.0.0.0.0.L.0.0.0.L.L.L.L.L.L.P.0.F Z V V f ;.;.;.;.;.;.;.;.;.;.:.:.| | 3.8.7.7.q.4.I B f f V =.5.5.*.s.&.i.i.i.) i - @ , m                                                                                                                                                         ",
"                                                                                                        f.` l b v v +.i.*.i.*.*.&.&.&.) 9 O X . @ 2 j j u k z U U U v 9 . . . 6 | _.[.[.[.5X7XqX8X8X8X8X8X8XeXeXeXeXeXeXeXeXeXeXeXeX9X8X8X8X8X8X8XqX8X8X8X8X8X6XXX[.~.[.[.Q.W.W.x.v.L = X # + M j j j k d.S.S.).@X2XgXlXkXsXd.; # # 4 j u.u.g.f.,XSXJXSXJXuXf.d.u.u.u.u.u.u.u.u.u.u.u.u.u.g.g.g.f.@.j j l s J I ~ ~ ~ E E E E ~ [ :.3.3.4.[ W W E E S K V J J s 4 o X X ; l z J J V V V V V V K K K V r 5 & % * * * * ; ; ; ; ; ; ; ; ; ; < < < 9 9 w w w w w 9 9 9 1 1 6 6 0 z Y I L s & X . . * q x z z J K I I E I C C K V V f d d J J J J J V C K K K I J t O O O 1 j n n n ) +.&.=.=.k.).`.`.`.).9.$.X.^ ^ ~ ~ I E E K V V C F x.^././.^.L.0.0.0.0.0.0.0.0.0.0.0.L.L.L.L.L.P.P.q.W F C I V { ;.;.;.;.;.;.;.;.;.;.:.;.| 3.8.1.7.q.4.I f f f V =.5.j.p.s._ ) ) ) v u.g.                                                                                                                                                              ",
"                                                                                                          f.< ; ; u U &.i.i.i.&.&.%.%.) w X X . o @ , * ; 6 s U U U x 9 . . . 6 | _.[.[.[.5X7XqX8X8X8X8X8XeXeXeXeXeXeXeXeXrXeXrXrXeXeX8X8X8X8X8X8XqX8XqX8X8XwX5XXX[.Q._.W.} N r d d 6 % X # @ K.c.c.c.c.+XsXsX2X2XfXlXgXkXsXd.: o O , @.,XpXpXpXjXcXxXzXcXzXcXcXvXzXzXzXzXzXzXzXvXvXvXvXvXvXvXvXvXuX< < ; ; 9 6 6 6 6 6 5 5 5 5 Z 2.3.3.6.:.:.;.;.;.E C V z z s @ o . X ; l L J J V V V V C I Q ^ ^ ~ K p e s s s s s s s s s s s s s s z z z z z v v L L L L L z z z x l k z U I K J e % . . . % q l z f I E / / / / ! / / Q E f d d z J J J J C C S I I I z t @ @ @ - 1 2 2 9 k ) %.&.=.j.N.).`.`.).M.m.m.x.k.I V B V V V V V C F x.^.^./.^.L.0.0.0.0.0.0.0.L.0.0.0.L.L.L.L.L.P.q.q.;.! Q Q E [ ;.;.;.;.;.;.;.;.;.;.;.;.| 3.3.1.7.0.4.I f f f V =.j.j.*.p.l 9 < 1 n                                                                                                                                                                   ",
"                                                                                                            O O $ 9 v &.i.i.i.&.&.#.%.) 9 X . . . o o . X % 0 z P U x 6 . . X 7 | _.[.[.[.5X7XwX8X8X8X8XeXeXeXeXeXeXeXeXrXrXeXrXrXeXeXeX9X8X8X8X8XqX8X8X8X8X7X5XXX[.Q._.W.C 5 $ $ % O O # X # g.S.S.S.N.<XfXfXfXgXgXnXgXlXsXd.& O O , g.jXzXzXkXxXkXkXhXhXVXGXGXGXGXGXGXGXGXGXGXGXGXHXHXHXHXPXPXPXbXO * O % * X % % % % % $ $ $ N | 3.3.8.,.6.6.8.3.W K V J z e @ . . X ; l L L J V V V V C E / / / / E V B J J L L L L L L L L L L P U I Y Y Y Y Y Y Y Y ~ Y Y I Y P U U L L P K K J e % . . . % q l z f I ^ ;.;.;.;.{ ;.;./ ! J d d z J J J V C C S I I Y z 6 @ @ O @ @ @ @ * q ) i.p.*.j.N.).).).).).).).N.v.J p d d d V B V C F x.^././.^.L.7.0.0.0.0.0.0.0.P.0.L.L.L.L.L.0.P.q.P.:.;./ / Q ;.;.;.;.;.;.;.;.;.;.;.;.;.;.:.:.1.7.q.4.I f f f c #.j.j.j.p.u $ O @ m                                                                                                                                                                   ",
"                                                                                                            - * $ w U &.i.i.*.&.%.%.%.) 9 X . . . . . . X % 0 L z z x 6 X X X 7 3._.[.[.[.5X7XwX8XqX8X8XeXeXeXeXeXeXeXeXrXeXeXeXrXrXeXeXeX8X8X8X8XqX8X8XwXwX7X6XXX~.Q./.x.V & X . X X O O O X a.B.B.B.N.2XgXgXgXgXMXgXfXgXsXs.: O O ; a.dXhXkXjXkXkXkXkXjXVXJXJXJXJXGXGXGXGXGXGXGXGXGXHXHXHXHXKXHXjXO * * @ @ O o o O o o o X O N | 5.3.8.<.<.7.8.3.W C B J L e @ . . X ; x L L J V C C C C E / / / / E C V J K J J J K K K K K K K K I I I I I E ~ E E E E I E I I I J L L J J J J V 0 % . . . % w k d B K / { { { { { { | { W J z d z L J B V V C S D I T z 6 O O @ @ @ @ @ O 9 ) i.p.*.j.N.).).).M.).V.N.N.k.P p d d d V B V Z A x.^././.^.L.7.0.0.0.0.0.0.0.0.L.0.L.L.L.P.P.q.q.q.;.{ / ! E { { { ;.;.;.{ { { ;.;.;.;.;.:.:.1.7.6.4.I f f f f #.j.j.j.s.u O O O m                                                                                                                                                                   ",
"                                                                                                            2 - : e U i.i.i.i.&.%.#.%.) 9 X . . . o o X O % 0 z z z z 6 . X X 7 | _.[.[.[.5X7XwX8X8X8X8XeXeXeXeXeXeXeXeXrXrXeXeXrXrXrXeXrX9X8XqX8XqX7X8XwXwX7X6X{.~.U./.x.V % O . o o # X @ X a.B.B.B.N.2XgXgXgXMXnXnXgXlXsXs.: O O ; i.jXjXkXkXkXkXkXjXdXSXJXGXJXJXJXJXJXJXJXJXGXGXGXHXHXHXHXKXHXjX, , , , @ , 4 , > > 4 4 4 , B | 3.3.8.| ,.8.,.| W C B J L r @ X X X ; x L J K K C C Z C E / X./ / ~ C V K K K K K K K K C C E E E E E E E E E ~ ~ E E E E E F F C V J J J J V J f 0 % . . + % w z d B K ( { { } } { | :.{ W L z d z L J J V V V D D I Y z 6 - O @ - @ 4 - @ 9 v i.i.*.j.M.M.).).M.V.V.V.N.l.P p d d d V f f Z F x.^././.^.L.7.7.0.0.0.0.L.0.L.L.L.L.L.L.P.P.I.q.q.;.[ ! ! E { { { { ;.{ { { { { ;.;.;.;.:.:.1.1.6.5.S f f f c #.j.j.j.s.u X X @ m                                                                                                                                                                   ",
"                                                                                                                    g.n n ` ` n n n n m 3 . . . O j n b n n b j k k q * . X . 7 3._.[.[.[.5X7XwX8XqX8X9XeX8X9X8XrX9XeXrXrXrXeXeXrXrXeXeXeX9X8XqX8XqX7X7X6X6X6X.X).2.p.i._ x 0 6 6 0 $ . X @ X a.m.N.N.B.2XgXgXgXgXnXnXlXkXsXz.6 O O ; &.dXkXkXkXlXkXkXfXjXxXVXVXVXVXVXVXVXVXVXVXSXSXSXSXSXSXSXSXJXhXg.f.u.u.u.u.u.u.u.u.u.g.g.g.i._ _ _ _ ' ' ' ' _ U z s s u 0 @ . . . * q l u s z I F A A [ [ { ;.{ W E F F A A W F A W W W W W [ [ ! ! ! { { [ [ [ [ W ! W W W E E ] ] ] C C J J z w O . . . * 1 j j u z ' { { :.;.;.;.;.[ [ E C C C C B B C V K K I ~ I V r 8 0 0 w - * * % 9 U %.&.&.p.c.n.n.c.m.B.B.B.M.x.^ T I P T p s f a I x.^./././.L.0.0.0.0.0.0.L.L.P.P.P.P.P.P.P.L.P.q.q.;.! ! Q E { { ;.;.;.{ { { { { ;.;.{ 2.2.{ $.2.$./ ^ I V P D =.j.k.j.d.j % O @ j                                                                                                                                                                   ",
"                                                                                                                      j < , < < 3 3 , > X . . . j             1 O % O X . . . 7 3._.[.[.XX6X8XqX8XqX8X9XrXeX8XrXrXrXrXrXrXrXeXeXrXrXrXrXrXrX8XqX8XqX7X5X.XXXXX~./ 8 5 ; 6 w z Y J L 6 O X # X u.m.N.B.B.2XgXgXgXgXgXgXlXkXsXz.6 * * < i.dXhXkXkXlXkXkXfXdXjXhXkXhXhXhXhXhXhXhXhXzXzXzXzXxXxXcXcXvXvXvXvXvXvXvXvXvXvXvXvXvXvXvXvX$Xv 6 : 6 6 6 0 7 6 = & % % % % # . O o X * ; * ; s ' 2.{ [ :.:.3.3.3.;.;.;.;.{ { { { { | | ;.3.:.:.:.3.3.3.3.3.:.:.:.:.:.;.{ { { { { { / / E K B z z w X . . . X @ * - - 0 ~ / { } :.;.;.:.:.:./ / / ^ E C V V V C K K I I I K J J L k < * O O 9 b %.=.%.%.%.i.&.&.j.v.M.B.N.M.x.l.l.k.k.J s s p I x.^./././.L.0.0.0.0.0.L.L.L.P.P.P.P.P.P.L.L.P.0.q.! E E I I { { { ;.{ { { { ;.;.;.;.;.2.{ ( I E ~ ^ ' =.=.5.*.5.9.*.s.d.j ; # - m                                                                                                                                                                   ",
"                                                                                                                      2 @ * @ * # o o o . . o # n             * X X . . . . X 7 3.|.|.|.XX6X8XqX8XqX8X9XeXeXeXrX8X9XrXrXeXeXeXeXrXrXrXeXeXeXeXqXqXqX7X*X{.[.[.E.~ 5 X X $ 6 U ' ^ T w O X X X u.M.N.M.M.2XlXlXgXnXMXnXlXkXsXz.6 - * 1 i.dXkXjXkXjXjXjXjXdXdXdXdXdXdXdXdXjXjXjXjXjXhXhXhXhXzXzXzXxXSXPXHXKXHXHXHXHXHXHXHXHXHXHXHXpXl % X $ % $ $ $ $ $ $ X O O X o . O o . X . X X 0 =.5.2.;.:.:.3.3.3.3.3.3.3.3.3.3.3.3.3.:.:.4.1.1.6.6.8.8.4.6.6.<.<.<.:.3.3.;.;.2.2.2.2.{ ~ K B z z w O . . . . . . . X 6 I / { :.;.;.;.:.:.:.2.2.2.2./ E C C K K K K K I I I Y T T z 9 @ O O 1 b +.+.+.#.+.` _ _ *.l.B.M.N.N.N.N.N.M.m.V 0 0 8 S x.^./././.L.0.0.0.0.L.L.L.L.P.P.P.P.L.P.L.L.0.0.w.W F C C S / { { { { { { { ;.{ ;.;.;.2.{ E V V V Y =.h.k.k.j.j.j.j.z.d.q * # - b                                                                                                                                                                   ",
"                                                                                                                      1 * * X X # o o . . . . X n             - . . . . . . X 0 8.|.|.{.XX6X9XqXqXqXrXqX8X9XrX9X8XrXrXrXeXeXrXrXrXrXrXrXrXrXrXqXqXqX7X5XXX|.|.~.Y & X X % 6 L Y Y Y w O X # X u.M.N.B.N.2XlXlXnXMXMXnXlXkXsXz.6 - * 1 i.dXkXjXjXjXgXfXjXdXsXdXdXdXdXdXdXdXdXjXjXjXjXhXhXhXhXzXzXxXVXPXGXHXHXHXHXGXHXHXHXHXHXHXHXiXi * X X X $ X X X X X O O . . # O # o . O . X X w p.5.2.2.2.4.3.3.3.3.3.3.3.3.3.3.3.:.:.:.:.:.,.,.<.<.3.3.:.<.:.:.:.:.:.:.:.;./ ;.2.;.2.2.^ K d z k w $ . . . X . . . X 6 Y 2.3.3.;.;.;.:.:.:.;.2.2.2./ F C C C K I K K K K I I I Y z 6 O O O < b O._ _ +.+.@._ _ *.v.M.M.M.M.N.M.N.N.m.z 0 p 8 I x.^._././.L.0.0.0.0.P.P.L.L.P.P.P.P.L.L.L.L.L.0.w.! C C C S / { { { { [ [ { { [ ;.;.;.2.{ E V V V I $.h.j.j.j.5.j.z.z.d.q ; @ @ b                                                                                                                                                                   ",
"                                                                                                                      3 . . . X o o o . . . . o n             - . . . + . . X 7 8.|.|.XX.X6X8XrXqXqXrXrX9XrXrX8X9X9X9X9XeXrXrXrXrXrXrXrXrXrXqXqXqXqX7X5XXX|.|.Q.U & X . X 6 P Y Y Y w $ X X X u.M.M.N.).2XgXlXgXgXMXMXnXkXsXz.6 * * ; +.dXjXdXdXjXfXfXdXdXsXdXdXdXdXdXdXdXdXdXdXjXjXjXhXhXhXhXhXzXSXKXKXLXHXKXKXHXKXKXHXHXKXKXKXaXj o o O . O O O O O O @ # # # . . X X o . . X X w i.p.5.5.2.5.3.3.3.5.2.2.2.3.3.3.:.:.<.,.:.,.1.1.<.<.:.:.<.<.:.:.,.:.:.:.;.;.2.2.2.X.$.$.^ K d d s 6 X . . . . . . . X ; Y $.2.3.:.:.:.:.:.:.;.;.2.;.! A Z C C C K I K K I I I I Y z 6 O X o , m @.@.@.` ` ` ' _ =.l.M.M.M.N.).N.N.N.m.z u s e I x.^./././.I.L.L.0.P.P.L.L.L.L.L.L.L.L.L.L.L.0.0.q.! C C C I { { { { { { { { { { ;.;.;.;.{ F V V V I $.h.j.j.j.*.*.d.d.a.k * - @ b                                                                                                                                                                   ",
"                                                                                                                                                                      m . o O 0 h.|.|.XX.X6X7X7X7X7XqXrXeXrX9X0X6X6X6X6X7XrXrXrXrX9X0X0X0X0X7X9X9XrX8X6XXX|.|.Q._ & X X X 6 U Y ^ Y w X X X X u.M.B.).N.>X2X3X3X2XgXMXlXkXsXz.6 * @ < u.dXjXdXdXdXfXfXdXdXdXdXdXdXdXdXdXjXjXjXjXhXhXhXhXhXhXzXhXzXvXSXJXSXSXSXSXSXSXSXSXSXSXSXSXaXg.K.n u.@.u.u.@.@.u.u.u.u.u.u.u.u.u.u.n @ . . X * v z U P P L I K J I I I I E ! :.6.<.1.<.1.1.1.1.,.<.<.:.:.:.,.,.:.:.:.:.;.;.2.X.^ E ^ Q I V f d s w : * * * * X . . . : L ^ / / / ;.:.:.:.:.:.:.:.:.[ W W W W E E K K K I E E I Y z 6 O o o @ j b b b b ) ` _ T *.l.M.M.N.N.).M.N.N.m.z 0 0 8 V 4.x.P.P.I.L.0.L.0.P.P.L.L.L.L.L.L.L.L.L.L.L.0.0.w.W C C K I { { ;.;.{ { { { { ;.;.;.{ ;./ F p d d J #.h.j.j.p.O.R O.@.@.d.                                                                                                                                                                          ",
"                                                                                                                                                                        @ # % e x.|.|.XXXX.X=X=X5X5X7XqXrXrX9X5XXXXXXX.X6X8XrXrXqX0X.X.X.X.X0X8XqXqX8X6XXXXXXX/.U $ X . X 6 U T T U 6 X X # X u.M.N.`.N.`.`.`.`.#X2XnXlXkXfXz.6 @ O ; +.pXdXsXdXsXsXfXfXdXsXdXdXdXdXdXdXdXdXdXjXhXhXhXhXhXhXkXkXzXzXzXzXzXzXzXzXzXzXzXzXzXzXzXzXvXvXvXzXvXvXvXvXvXvXvXvXvXvXvXvXvXvXvXzXuX2 # . . X * = = & 6 6 : = : : : 5 7 8 C { 8.<.1.1.1.1.,.,.,.:.:.:.:.:.:.:.} :.:.:.{ { 2.! C C C V B d f f f s u s s s 9 * . . . = d J C C E X.;.:.:.:.:.:.:.:.:.:.;.;.3./ E C K K I I ] I I z 6 % o o . @ - * - 9 l ) _ _ *.l.M.B.N.N.N.N.N.N.m.c 0 0 8 y / 3.:.,.1.1.0.L.L.L.L.L.L.L.L.L.L.L.L.L.L.L.0.0.w.W C C K I { { ;.;.;.{ { ;.{ ;.;.{ ;.:./ C e p p f _ p.j.j.=.g 6 ; 9 n                                                                                                                                                                             ",
"                                                                                                                                                                        @ # % e x.|.XX.XXXXX.XXXXX.X6XrXrXrX9X5XXX{.{.XX6X8XrXqX9X6X.X.X.X.X6X9X9XqX7X6XXXXXXXQ.) % X . . ; U Y T Y w $ X @ X u.M.N.`.B.).).).).).3XnXnXkXfXz.: O O - @.pXdXdXsXdXdXdXsXsXsXdXdXdXdXdXjXjXjXjXjXhXkXhXhXhXhXkXkXhXjXzXjXhXhXjXjXhXhXhXhXhXhXhXhXvXHXGXHXHXHXGXHXHXHXHXHXHXHXHXHXHXHXHXHXzX2 o . . . X O % X $ X O . . X X X $ & r { 8.7.1.1.1.1.,.,.:.:.:.:.:.:.:.:.} } } :.{ { 2.E C N N N a a f f z z z z z z j * . . X ; s d B Z F ! :.:.:.:.:.:.:.:.:.:.:.3.4.{ W F K I I I E I I d 6 O . o . . . . . - u ) T T =.l.B.B.N.N.N.N.).B.l.f 0 0 e r E / { [ <.7.0.0.L.L.L.L.L.L.L.L.L.L.L.L.L.L.L.0.w.! A C I I { { ;.;.;.;.;.;.{ { { / ;.2./ Z e e e d T p.j.s.p.i $ O - m                                                                                                                                                                             ",
"                                                                                                                                                                        - * : r x.|..XXX.X.X.XXXXX.X7XrXrXrX7X5XXX{.|.XX6XrXrXqXNX6XXX.XXX.X0X9X9XqX7X6X.XXXXX/.` = X . X < U _ ' U 0 X X X O u.M.).`.).).).).`.`.3XlXnXkXsXl.; @ X * ` pXdXdXsXdXdXdXdXdXdXdXdXdXdXjXdXjXjXjXjXjXjXhXhXkXkXkXkXkXkXjXjXjXhXhXjXjXjXhXkXkXhXjXhXvXGXKXGXHXKXHXHXHXHXHXHXHXHXHXHXKXHXKXHXbX3 # o o o o X X X X X # . o o . X $ & r 2.x.8.,.<.1.,.:.:.4.3.2.3.:.:.:.>.} } :.:.;.{ 2.( C N N N B f V V B B J L J J k * . . . ; s J V V F ;.:.:.3.,.:.:.:.:.:.<.:.4.3.{ W F C K K K C E I d 6 X . . . . . . . % j ) _ _ =.l.B.N.N.N.).M.N.N.m.z p 0 8 e / / ;.:.<.6.0.P.L.L.L.L.L.L.P.L.L.L.L.L.L.L.P.q.q.W C C I I { ;.;.;.{ { { [ { { ;./ X.2./ V 0 p 0 p T *.p.s.i.0 $ % * j                                                                                                                                                                             ",
"                                                                                                                                                                        , O % e x.|..X.XXXXXXX.X.X.X7XrXNXNX8X6X.X XXX.X6X9XqXrXCX6X.X.X.X.X6X9XrXrX9X6X.X|.XXQ.) % X . O 9 ) ' _ U w X X X O u.M.).).N.).`.`.`.`.2XnXnXnXjXc.: o o - @.iXdXdXdXdXdXdXdXdXdXdXdXdXdXdXjXjXjXjXhXhXhXhXkXkXkXkXkXjXjXjXjXhXhXhXjXjXjXhXhXkXkXhXhXVXGXKXHXKXKXHXKXKXKXHXHXHXHXHXHXHXGXHXGXbXj o . . o o # O # O X . . . o o O % % s ' h.x.8.4.3.3.5.4.5.2.2.2.;.5.;.:.:.} :.;.;.;.{ W C B B B B B B B B B V J J J k ; X . X ; k z B B S ;.:.:.3.,.:.:.,.,.:.,.:.:.:.{ F A C C C K K I K d 6 $ . . . . . . . * j ) O.O.*.l.B.N.N.).N.M.N.M.l.f 0 7 8 p / $.2.3.8.q.P.P.I.L.L.L.I.I.P.P.L.L.L.L.L.L.P.q.q.W C C I I { ;.;.;.{ { { { ;./ / / / $.^ V 7 0 7 p _ p.p.s.i.u % O * j                                                                                                                                                                             ",
"                                                                                                                                                                        - % : p q.|..X.XXX[.~.[.Q.[..X0X0X0X6XXXQ.Q.Q.Q.|.6X6X6X6X[.U.Q.I.Q.XX6X6X6X.X.X|.|.XX/._ ; X X X * q u s u ; X X O O u.m.m.m.m.B.).).).`.#X>X>X#X@X%.% o o * b A.S.S.F.F.F.F.F.F.F.F.F.F.F.,XdXhXhXhXjXhXkXkXkXhXhXhXhXjXhXkXjXjXjXjXdXjXjXjXhXhXhXhXhXcXVXSXVXSXSXVXSXSXSXSXSXSXSXSXSXSXVXSXSXzXn.g.g.f.f.f.f.f.f.f.f.Z.Z.Z.Z.Z.H.D.S.d._ z L P V V V V V B B V B B E { { { { { { ;.;.2./ ( E E E E ~ ~ ~ ~ K K K K K l ; O O O < l L J V E ;.:.:.:.:.:.:.,.,.,.,.,.:.:.;.W W E E E I K K K d 0 6 ; < * o . . . * j ) _ _ %.p.z.l.l.l.N.B.N.M.m.T P f f V I C I E ! 6.q.I.I.L.L.L.L.L.P.P.L.P.L.L.L.L.0.q.q.W C C I I [ ;.;.;.;.;.{ { / ! E S I Y I I L U P P =.p.p.p.i.q O * - j                                                                                                                                                                             ",
"                                                                                                                                                                        - - : p q.|.XX|.[.U.U.U.L.U.[..X.X.XXXU.L.7.7.L.Q.|.|..X|.U.1.} } 1.Q.|.|.XX|.{.[.{.|.Q.Y & X . . X % $ $ $ X . X O O ) j.k.k.l.m.N.).).`.M.l.v.m.z.b $ . . O j g.a.a.a.a.a.a.a.a.a.d.d.s.s.F.dXhXhXhXjXhXhXjXjXjXhXhXhXkXkXkXkXhXjXjXjXjXjXjXjXhXhXhXhXhXxXxXzXzXzXzXzXzXzXzXzXzXzXhXhXhXhXhXzXxXzXzXvXzXvXvXvXvXvXvXvXvXvXvXvXvXUXSXvX,X) : : : : : : 5 5 5 & 5 5 5 r / / { { { { ;.;.2./ / / / / / $.2.2.$./ E K K ] x ; O O O 1 l L J C E ;.>.:.:.,.:.:.:.,.,.,.:.:.:.:.;.;.:.;.Q I J K J V d s s k 9 @ . . . * l ) O._ O.%.&.=.=.*.M.B.B.M.B.k.j.5.j.=.P a V V F 4.P.I.I.I.I.I.L.L.P.P.P.P.L.L.L.L.0.0.q.W A C S I ! { ;.;.;.;.{ / / E C N a f V Y #.&.=.=.*.j.s.z.i.q X O * j                                                                                                                                                                             ",
"                                                                                                                                                                        - - : p x.&X&X|.|.Q.L.L.1.L./.XXXX.X[.I.1.| | ,.U.|.{.|.|.L.} } } | U.|.|.|.[.|.[.|.|.Q.Y 5 $ X # X % X X X X . o O O ) j.j.j.z.B.).`.`.`.b.9.j.z.p.l % o o O j u.u.u.a.a.a.i.a.a.a.a.d.a.a.A.pXhXhXhXhXhXhXhXhXhXhXhXhXjXjXjXjXjXjXjXdXjXjXjXjXjXjXhXhXkXhXhXhXhXjXjXhXhXhXhXhXhXhXhXjXjXjXjXjXcXGXJXJXGXGXGXGXGXGXGXGXGXGXGXGXGXHXHXJXiXn % - - % O % $ $ $ X $ $ & e ^ / / { / { { { $.$.2.2.2.2.2.2.2.2.2./ E K K E v 6 O O O 1 z U J C E ;.:.:.<.,.:.:.:.:.,.<.,.:.:.:.:.3.5.2./ S J J V B d d d k q * . . . * l ) O.O.O.+.O.' #.*.m.M.M.M.N.m.M.M.m.j.J p d N C 3.q.P.I.L.L.I.L.P.L.P.P.P.P.L.L.L.0.0.q.W A C I I [ ;.;.;.;.;.;./ / E V a a d f _ i.p.*.*.*.p.p.d.u.j @ X @ j                                                                                                                                                                             ",
"                                                                                                                                                                        4 @ - p 5._.&X|.|.W.L.7.7.P./.XX|.XX_.P.} } } | U.[.|.{./.8.[ [  .} W.|.|.[.[.[.[.|.|.Q.I 5 $ X X . X X O O O . . O O n j.j.j.j.B.oXoX`.`.m.j.j.z.a.l O . . X j u.u.u.u.u.u.u.u.u.u.a.a.d.d.S.aXzXzXzXhXhXhXhXhXhXhXhXhXhXhXhXhXhXjXjXjXjXjXjXjXjXjXhXhXhXjXjXjXjXjXjXhXhXhXhXjXjXjXjXjXhXjXdXhXcXGXGXGXGXGXGXGXGXGXGXGXGXGXGXGXHXHXHXJXpXn @ * O O O O O X X . X X % 0 ' ' X.X./ { { { / ' $.$.$.2.2.2.5.5.2./ ~ I I ~ v 6 % O @ 9 v U I K Q :.4.3.<.,.:.:.<.:.:.<.,.,.:.:.:.3.4.2.! S L L V B B d d d q * . . . - l ` @.@.@.+.+._ #.=.m.N.M.M.N.M.B.M.B.l.P p p a S 4.q.I.I.L.L.I.L.P.L.L.P.P.P.L.L.L.0.0.q.W F C S S { ;.;.;.;.;.;.X./ ^ V f f d z _ j.p.*.p.j.j.s.p.a.j X X @ q                                                                                                                                                                             ",
"                                                                                                                                                                        M 3 ; s x._.|.|.|.W.P.P.7.P./.XXXXXX_.U.} } } | U._.|.[._.7.} } } | U.|.|.[.[.[.[.[.|.Q.K 5 & * > # X X . X # # o O O v -.5.j.j.m.N.`.`.`.m.k.j.z.d.b O . . O j u.u.u.u.u.u.u.u.u.g.g.d.d.f.F.aXzXzXhXhXzXzXzXzXhXhXhXhXhXhXhXjXdXdXdXhXjXjXjXjXjXjXjXhXhXhXhXhXhXhXhXhXhXhXhXhXhXhXjXjXjXjXdXhXvXGXGXHXGXGXGXGXGXGXGXGXGXGXGXHXHXHXHXJXiXn - * @ * @ @ @ # @ # # @ * 6 _ ^ ^ ^ / / / / $.$.$.$.2.2.2.2.2.2.$./ ^ E E E L 9 * * @ 1 l L I K Q :.4.:.<.,.3.3.:.:.:.:.,.,.<.:.:.:.2.2./ S L L J V V B V z 0 % . . . * j n @.` @.+.#.O.#.=.m.N.N.N.N.M.M.M.B.l.P d p d I 2.q.I.P.L.I.I.I.I.I.I.P.P.P.L.L.L.0.0.w.! F C S S ;.;.;.;.;.;.;.X./ ^ V a d s f _ p.i.*.j.j.*.p.p.i.k - > , q                                                                                                                                                                             ",
"                                                                                                                                                                              B.v.W.7.7.7.} [ [ W } W.|.|.|._.U.} | } | W._.[.[._.P.8.7.7.8.U.U.U.U.U./.[.|.|./.k.~ _ ) n 2 @ X O - 2 M i i 1 @.*.5.*.j.m.N.`.`.`.j.T T O.O.b i 2 3 2 n d.f.f.d.f.f.f.f.f.f.f.n.c.c.S.,XpXiXiXpXiXiXiXiXiXiX<X<X,X,X,X,X,X,XiXdXdXdXdXjXjXjXjXhXjXjXhXhXjXhXhXjXjXjXjXjXjXjXjXjXdXhXhXjXzXSXSXSXSXSXSXSXSXSXSXSXSXSXSXJXJXJXJXSXbXn.f.f.u.a.u.u.u.u.u.u.u.u.@.` z f a a N N N N B V V V C C K ] I S I I I E ~ ~ U w % * O < s d d N S ;.4.6.<.1.6.6.<.:.<.:.,.,.:.:.:.:.4.2.! C L L J B B B f f 0 * X . . @ i b b b v ) _ _ #.=.m.N.M.N.N.M.N.N.N.m.#.' ' ' X.2.;.:.1.1.1.L.I.I.I.I.P.P.P.L.L.L.0.0.w.! F C S S ;.;.;.;.;.;.;.;.X.^ B p s s g _ p.p.j.p.T P P U ` d.                                                                                                                                                                                    ",
"                                                                                                                                                                                  b j i j u j u r C 8._.|.|.Q.U.} } } } U.~.[.[.[.~.Q.Q.Q.W.8.{ } | | Q.|.|.|.|././.Q./.x.V $ @ > , ` +._ _ O.+.p.p.*.j.m.N.N.N.N.O.9 1 1 i n u.u.u.u.d.f.n.n.n.Z.Z.Z.Z.Z.C.C.Z.C.H.C.Z.H.H.C.H.C.A.S.S.C.C.Z.Z.n.Z.Z.n.c.c.G.dXjXjXjXjXjXhXkXkXhXkXhXhXkXjXjXhXjXjXjXjXdXdXjXjXjXjXjXjXhXzXxXxXxXxXzXzXxXxXzXzXxXxXcXcXcXcXcXcXcXxXzXzXzXhXjXbXjXdXjXjXbXaXbXZ.2 , * * > * > , , , , < < 1 1 9 9 w 0 d J E ~ E v w * * * - , 1 ; 6 f $.4.6.1.1.<.<.<.<.<.:.:.<.:.:.:.3.3.3./ F C V B J J z z x u * . . . o 4 , < < q v @.O.O.&.m.B.B.N.N.N.N.M.B.M.m.v.v.m.l.^ I T S ! 4.P.I.I.I.I.L.L.L.P.P.I.0.q.q.! S S I I { :.;.;.;.;.;.;.;.^ a e s 0 u ) *.*.p.i.k ; < 3 m                                                                                                                                                                                       ",
"                                                                                                                                                                                  j 1 < < ; < < t r 3._._.[.Q.L.} } } } U.Q.[.[.[.~.~.~._.!.8.[ W [ | W.[.|.{.{.|.|.|. X^.I = O @ 3 u.d.i.&.&.i.&.p.*.p.l.N.N.N.B.U % X O 1 @.J.n.n.n.n.Z.Z.Z.Z.C.C.C.C.C.A.A.D.D.D.Z.n.f.f.f.c.c.c.c.c.f.f.f.f.d.d.a.d.d.d.F.dXjXjXjXjXjXhXkXkXhXkXhXhXkXhXjXhXjXjXjXjXjXjXdXdXjXjXjXjXhXhXhXhXhXhXhXhXhXhXhXhXzXhXzXzXzXzXzXzXSXJXGXGXJXJXGXGXGXJXJXJXJXJXJXuX* X . . . . . o X X X X O O O O O $ & 0 V E ^ ~ v w * * * * - - : : p / 3.,.1.1.6.6.:.:.<.:.:.:.:.:.:.;.3.3.! F K V V V J z z x u * X . . . o + O O ; l ) _ O.&.m.B.B.M.M.N.N.M.N.N.B.N.N.).B...V D S F 4.P.I.I.I.P.P.L.L.P.L.L.0.q.q.! S S I I { :.;.;.;.{ ;./ $.^ d e p 0 u ) *.&.p.+.u O @ @ m                                                                                                                                                                                       ",
"                                                                                                                                                                                  j * - - * - * & e 2.)._._.!.7.} [ { | P./.[.[.[.[./.[._.!.3.E F F | W.|.|.[.|.|.|.|. X_.~ 5 * * 1 u.z.j.p.p.p.&.*.=.*.l.B.B.N.B.v O . . - @.Z.Z.Z.Z.Z.Z.Z.Z.Z.C.C.H.A.A.D.D.D.G.D.Z.f.f.f.f.f.f.f.f.f.f.d.d.d.f.d.a.d.a.a.A.hXhXhXhXhXhXhXhXhXhXhXhXhXhXhXjXjXjXjXjXjXjXjXjXjXjXjXjXjXhXhXhXhXhXhXhXhXhXhXhXhXhXhXhXhXhXhXzXzXVXGXKXHXGXHXHXGXGXGXGXJXGXGXJX$X* X . . . . . . . . . o O o O O O $ % 0 U ' T Y v q * % * * @ O % & p ^ 5.6.6.7.6.6.:.:.:.:.;.:.;.;.;.;.:.;.! C V V V V V J z z s ; X X X o o . . X - l ) O._ &.B.N.B.B.M.N.N.N.N.N.).`.).@XM.^ V V Z F 4.q.I.I.I.P.I.P.P.P.L.L.0.q.q.! S S I I { :.;.;.;.{ ;.;.$.^ a 0 0 w u U *.*.p.+.9 X X X j                                                                                                                                                                                       ",
"                                                                                                                                                                                  j - - - * - - ; e ' x.!._.W.8.{ { ' 2.x._._._./._._._._.W.:.F F F | W.|.{.|.|.|.|.|.|./.W 5 * * 9 +.j.h.*.*.i.&.&.=.*.l.B.B.N.B.v % X . - n n.n.n.Z.Z.Z.Z.Z.C.C.C.H.A.A.D.D.D.D.D.Z.f.f.f.f.c.c.f.f.f.f.f.d.d.d.d.d.d.a.d.G.hXhXhXhXhXhXhXhXhXhXhXhXhXhXhXhXhXjXjXhXhXhXhXjXjXjXjXjXjXhXhXhXhXhXhXhXhXhXhXhXhXhXhXzXzXhXhXhXzXVXGXKXHXGXGXGXGXGXGXGXGXJXGXSXuXO X . . . . . o X X X X O O O O O O $ 6 z T _ T v q * * @ * * @ % : s ' 5.4.4.6.4.6.:.:.:.3.;.;.;.;.;.:.:.;.E C V V V V B V J L e ; X X X X X X O O < b ` ) ) &.m.B.N.M.M.N.N.N.N.B.).oX).oXM.^ V N N F 4.x.W.P.P.I.I.P.L.L.P.L.P.q.q.! S C S I { :.;.:.;./ X.X./ Y f e 0 0 s U *.*.p.+.q X X X j                                                                                                                                                                                       ",
"                                                                                                                                                                                                  c.c.h.5.3.| E K L L Y ' 5.5.8.6.W._._._.Q.,.W F W | W.|.{.{.XXXXXX|.XX_.W 5 & * 9 +.j.5.*.*.*.&.&.&.&.l.B.B.B.B.b X . . @ n n.Z.Z.Z.Z.Z.Z.C.C.A.A.A.A.D.D.D.D.D.D.C.n.n.n.n.n.n.n.n.c.f.f.f.f.f.f.f.f.f.c.F.uXuXuXuXiXiXiXuXiXiXiXiXiX<XpXjXhXjXjXjXjXjXjXjXjXjXjXjXjXhXhXhXhXhXhXhXhXhXhXhXhXhXhXhXhXhXhXhXhXcXVXSXSXSXSXSXSXVXcXVXVXcXvXvXpXd.a.u.u.u.u.a.g.g.g.g.g.g.g.g.g.g.g.a.) l s l z j < * @ @ @ 4 @ * - 9 z T Y E ^ :.:.:.:.3.3.:.;.;.;.;.;.;.;.! F C K K C C V V J d 0 5 : ; * O X O O - j b l l ) z.z.l.l.l.m.B.M.N.N.).`.).oXN.h.#.o.X.X.4.4.:.:.<.7.P.P.L.P.L.L.0.q.q.W F C S S { :.:.:./ E E Y I P P z z z c _ &.&.i.+.q X X # j                                                                                                                                                                                       ",
"                                                                                                                                                                                                      _ e r 8 5 5 6 ; ; 0 e r 8 H 8./._.|.Q.,.W F W :.W.|.|.{.XXXXXXXX.X_.W 5 % % 9 %.j.j.5.*.*.&.&.%.=.z.m.B.m.B.b X . . @ n n.Z.Z.Z.Z.Z.C.C.C.A.A.A.A.D.D.D.D.D.G.D.A.D.D.D.D.A.A.H.H.Z.Z.Z.Z.C.C.Z.Z.C.C.C.n.n.n.n.n.n.n.n.n.n.n.n.c.n.$XpXdXjXjXjXjXdXdXdXdXjXjXjXjXhXhXhXhXhXhXhXhXhXhXhXhXhXhXhXhXhXhXhXhXhXhXhXhXzXhXjXhXhXjXjXjXjXjXhXhXvXvXvXvXvXvXvXvXvXvXvXvXvXvXvXvXvXUXzXD.b * * ; - @ @ @ @ @ @ @ @ * : 6 0 7 7 p [ :.:.:.:.:.;.;.;.;.;.;.;.;.{ ! ( / / E K C C I J J d z x q * X o . O - 1 - ; i +.%.%.#.*.l.B.B.N.).).`.`.oXoXM.M.N.).x.X.S A Z G :.0.P.P.L.P.L.0.q.q.W F C S S ;.:.:.3.! Z a a d J T #.#.O.#.%.i.i.p.+.q . X X j                                                                                                                                                                                       ",
"                                                                                                                                                                                                      j $ $ $ X X X X X $ $ $ & t :._._.|.Q.,.W W W :.W.|.XX{.{.XXXXXX.X_.W 5 % % < +.j.j.5.*.*.&.&.#.=.j.m.m.m.n.b O . . @ n n.Z.Z.Z.Z.H.A.D.D.A.A.D.D.D.D.D.D.D.F.D.A.F.F.D.D.D.D.H.H.H.C.Z.Z.Z.Z.Z.Z.A.D.Z.f.f.f.f.f.f.f.f.f.f.d.d.d.d.F.pXjXjXjXjXdXdXdXdXdXjXjXhXhXhXhXhXhXhXhXhXhXhXhXhXhXhXhXhXhXhXhXhXhXhXhXhXjXhXjXdXjXjXdXdXdXdXdXjXcXGXGXGXGXHXHXHXHXHXHXHXHXHXHXHXHXGXHXJX,Xj . O * O O @ 4 @ @ @ # @ - * % % $ & 9 G :.:.:.:.:.;.;.;.{ { { { { { { / 2.{ ( E C C I V K J U U s & X o o o O X . X : ) ) ) U #.z.B.B.B.`.).oXoXoX@XoXoX@X+XM.X.C N N A :.q.q.0.P.P.L.P.q.q.W F F F F ;.:.3.4.Q N r 8 p z _ p.p.*.*.*.a.a.s.u.u X O # m                                                                                                                                                                                       ",
"                                                                                                                                                                                                      q X X X X . X o . X X X $ 5 2._._._.Q.8.W E ( 3.!.|.XXXXXX.X.XXX X_.~ 5 % * 1 +.j.j.*.p.i.&.i.%.=.j.m.m.n.n.b O . . @ n n.Z.Z.Z.C.C.C.H.H.D.D.D.D.D.D.D.D.D.G.D.D.D.D.D.D.A.D.H.H.H.C.Z.Z.C.C.H.H.C.C.n.f.f.f.f.f.f.f.f.f.f.d.f.d.d.F.pXjXjXjXjXjXjXdXdXdXjXhXhXhXhXhXhXhXhXhXhXhXhXhXhXhXhXhXhXhXhXhXhXjXdXjXjXjXjXjXdXjXdXjXdXdXjXdXdXxXGXGXGXGXHXHXHXHXHXHXHXHXHXHXHXHXKXKXJX,Xj O - O @ O @ 4 @ @ 4 @ @ - - * - O % 9 F ;.3.3.3.3.;.2.2.| { { { { { { ' 2.2./ ] C C K I I I P P s & $ . o O o . . O - n @.O._ =.z.B.B.N.`.).`.@XoXoX@X@X@XOXB.$.C N y F :.q.q.0.q.P.P.P.q.q.W F F E E ;.:.5.5./ B p p e z _ i.*.&.*.*.i.a.d.u.u X @ @ j                                                                                                                                                                                       ",
"                                                                                                                                                                                                      j * * O * @ @ @ @ @ * * * 5 =.)._._.!.3.~ ~ ^ 2.W._.|.|.XX X|.|. X).E ; * @ 1 +.j.s.*.p.i.&.i.%.=.z.m.n.n.n.b @ . . @ n n.n.Z.n.Z.D.D.D.D.D.D.D.D.D.D.G.D.G.A.G.D.A.D.C.D.A.A.C.H.H.H.C.Z.Z.Z.C.H.H.D.Z.f.f.f.f.f.f.f.f.f.f.g.f.f.d.F.aXdXdXdXdXdXjXjXjXjXjXjXhXhXhXhXzXzXzXzXzXhXzXhXhXzXhXhXhXhXhXjXjXjXhXjXdXdXdXdXdXjXdXdXdXdXjXdXjXzXGXGXGXGXHXHXHXHXHXHXHXHXHXHXHXHXHXKXJXuXb , < , , , , 3 3 3 3 3 , 3 3 1 2 - - i / 2.2.5.2.2.5.2.2.' / ' ' ' ' ' ' $.$.^ K C F E E K V I P e & $ o . O @ - @ O - ) ) ) O.O.m.N.N.N.N.oXoXoXN.@XoXoX@X@XM.$.V N N S ;.9.q.w.0.q.q.P.q.w.[ F E E Q :.4.5.5.X.J p p d s O.p.&.*.=.p.a.d.a.a.j * , 3 m                                                                                                                                                                                       ",
"                                                                                                                                                                                                                                s.z.h.h.x.h.' J J J Y 2.x.x.W.W.x.x.W.x.5.J ; * @ 1 +.s.s.p.p.i.&.i.%.%.s.z.z.c.n.b O . . # j u.@.u.u.f.G.D.D.G.G.G.G.G.G.G.G.G.$XG.G.G.G.G.G.D.A.C.C.C.C.C.C.Z.H.C.H.H.H.H.Z.n.c.c.c.c.c.f.f.f.n.f.f.f.f.C.,XuXuXuX,XiXuXiXiXiXiXiXiXpXpXpXpXaXdXdXcXzXcXcXzXzXhXhXhXhXjXjXjXdXjXjXdXjXhXjXdXdXdXdXdXdXdXdXjXzXSXSXJXJXJXJXJXJXJXJXJXJXJXJXJXJXGXGXJXaXn.u.u.u.u.u.u.u.g.g.g.g.g.g.u.u.u.u.g.u.#.^ ' ' T T T Y Y Y Y Y U U U U P T T I I E E E E K K Y U s & $ # O 3 n n n @.@.n b b l v d.m.B.m.B.oXoXoX).@XoXoXoXoXB.5...^ Q Q / X.:.;.:.6.6.w.w.6.! F E E Q ! / X.X.^ Y P P c _ i.p.p.p.&.#.@.@.@.u.u.g.u.                                                                                                                                                                                          ",
"                                                                                                                                                                                                                                    e e r e 0 6 6 ; 6 0 r r r r d N N r 8 ; O O @ 3 +.s.s.p.p.i.i.i.%.O.%.&.%.i.u.j o . . . O # @ @ , n ,XuXuXuXuXuXuXuXuXuXuXuXuX,XuXuX,X,X,XD.A.A.C.C.C.C.H.H.A.H.A.D.A.D.D.H.H.H.H.C.C.C.C.C.Z.Z.Z.Z.n.n.c.f.f.f.f.f.f.c.c.c.n.n.n.n.n.n.n.C.S.,XHXHXHXGXVXzXhXhXhXhXjXjXjXjXjXdXdXdXdXdXdXjXjXjXdXjXjXdXdXhXzXzXxXxXcXcXcXcXcXcXcXcXcXcXcXcXcXcXvXvXvXvXvXvXvXvXvXUXUXUXUXUXvXvXvXvXvXvXvXaX+.i w 9 ; 6 ; ; ; ; ; = = = = = 6 6 7 e K ~ E E I K K Y P 0 % X . @ u.pXvXvXvXiXj < * ; u %.s.s.-.z.N.N.oX).oX`.oXoXoXoXB.m.m.v.9.Q Z Z Z F ;.4.6.6.4.! F E E Q S S S I I ^ =.=.=.*.&.%.i.p.%.c i q q n                                                                                                                                                                                                 ",
"                                                                                                                                                                                                                                    * $ $ $ $ O @ O % * = & & 5 ; & & 5 & % @ 4 @ , @.s.s.p.p.a.&.&.%.+.%.%.+.u.u.j # . . . . . O . @ n uXpXiXuXiXiXiXiXiXiXiXiXuXuXuXiXuX,XuXG.C.C.C.Z.Z.Z.Z.C.C.Z.H.D.A.A.D.D.D.D.D.D.D.D.F.F.A.D.H.H.C.f.a.u.a.a.a.a.a.i.a.d.d.d.d.d.d.f.f.c.n.G.PXPXHXKXSXzXhXjXjXjXjXjXjXdXdXjXjXjXdXdXdXdXdXdXdXdXjXjXjXjXjXhXhXhXhXhXhXhXhXhXhXhXhXhXhXhXhXhXzXvXGXHXHXHXHXHXHXHXKXKXKXKXHXHXKXHXHXHXHXbX+.- O O X O . O X X . . . . . . X X $ 7 J ~ E ~ E I J U U u % X # , g.vXGXHXHXbXm . . X ; ) +.i.&.s.N.N.oXoXoXoXoXN.`.oX`.`.`.N.m.^ a N N C ;.4.4.4.4.! S E Q ^ S V V V V #.j.p.p.p.&.s.p.p.%.0 O O O j                                                                                                                                                                                                 ",
"                                                                                                                                                                                                                                    - O X X @ o 4 @ @ * * - - - - * = = % O @ # @ , @.s.p.p.p.a.i.&.%.%.#.+.+.u.u.j o . . . . o . . @ n uXiXiXiXiXuXuXuXuXuXuXuXiXiXuXuXuXuXuXG.C.C.C.C.C.C.C.A.A.A.D.G.D.D.D.D.D.D.D.A.A.A.D.D.D.D.C.C.C.n.g.g.u.u.u.u.u.g.g.d.d.d.d.d.f.f.f.f.n.G.PXPXKXPXSXjXhXjXjXjXjXjXjXdXdXdXdXdXdXdXdXdXdXdXdXdXdXdXjXjXhXhXhXhXhXhXhXhXhXhXhXhXhXhXhXhXhXhXhXVXHXKXHXKXKXKXKXPXPXPXPXPXPXPXPXHXHXHXIXbXK.O . o . o . . . . . . . . . . . . X : z Y ^ ^ I K J P v u * . . * f.vXHXHXHXvXm . @ O < @.a.d.&.s.N.F.oXoX`.`.oX`.N.`.N.N.N.N.v.T p f a C Q ;.4.4.2.Q E Q ^ ^ V B V P P #.h.*.*.&.&.p.+.i.&.i . . O j                                                                                                                                                                                                 ",
"                                                                                                                                                                                                                                    , * < - - , 3 3 1 1 1 < 1 3 3 2 1 - - - @ # # , @.s.*.*.i.i.i.%.%.%.O.@.+.+.u.j o . . . . . . X - n ,XiXiXuXuXuXuXuXuXuXuXuXuXiXuX,XuXuX,XD.Z.C.Z.Z.Z.C.C.A.A.A.D.D.D.D.D.D.D.D.F.D.D.D.D.D.A.A.C.Z.Z.f.u.u.u.u.u.u.u.g.g.d.d.d.f.f.f.f.f.f.c.G.HXPXHXHXSXzXjXjXjXjXjXdXdXdXjXdXdXdXdXdXdXaXdXdXdXdXdXjXjXdXjXhXhXhXhXhXhXhXhXhXhXhXhXhXjXjXhXhXhXVXGXHXGXKXHXKXKXPXKXKXKXPXPXHXHXKXKXKXKXhX@.1 @ @ O @ o @ @ @ # # o O O O 4 O O 6 x _ ' I I I P U v i O . . * g.vXHXHXHXvXn , 1 @ 1 @.a.a.&.s.F.oXoXoXN.`.oX`.N.F.N.N.N.N.n._ p p a V / 4.5.5.5./ Q ^ ^ ^ V V V V P #.h.*.*.*.*.i.+.a.&.u - * * b                                                                                                                                                                                                 ",
"                                                                                                                                                                                                                                                                          j @ # # - O.p.*.*.&.&.+.+.%.%.U v U n n 2 . . . . . o . . # b Z.G.D.D.D.D.A.A.A.D.D.D.H.D.D.H.D.H.Z.D.Z.C.C.S.S.A.A.A.D.D.D.D.D.G.G.A.F.F.A.A.C.C.C.S.C.A.A.C.Z.n.d.u.g.g.g.g.g.d.f.f.f.f.f.f.f.f.f.f.n.G.VXJXJXvXzXaXpXpXpXpXpXpXiXiX<XiXiXiXiXpXdXjXdXjXjXdXdXjXjXjXhXhXhXhXhXhXhXhXhXhXhXhXhXhXkXhXjXhXhXcXSXJXGXGXJXJXGXGXGXGXGXGXGXJXGXGXGXGXJXzXf.u.n n n n n n n n n n n n n n n n n v l L Y J J f d s j 1 O . . * u.pXvXvXvXbXg.u.n n u.n @.u.O.&.B.N.N.B.B.oXN.N.N.N.N.B.N.N.c.+.z f f V I Q / / / Q E ^ I I T T T T T =.j.j.*.*.%.O.+.@.@.u.                                                                                                                                                                                                        ",
"                                                                                                                                                                                                                                                                            3 # o - _ *.*.*.=.%.&.%.%.) 0 % $ O O . . . . . . . o @ o , 2 3 , 3 < < , , - - - , , - - - - O 1 u.G.G.$X,X$X,X,XuXuXuXuXuXuXuX,XG.D.D.F.D.A.A.A.S.C.C.C.Z.Z.Z.Z.n.Z.Z.Z.Z.C.C.H.H.A.A.A.A.A.A.D.D.A.n.n.f.f.f.c.f.d.d.d.d.d.d.s.s.s.d.d.i.d.$XzXGXGXJXVXhXdXdXjXhXhXhXhXhXjXjXhXhXhXhXhXhXhXhXhXhXhXkXhXhXzXzXzXhXzXzXzXxXzXzXxXzXzXxXcXzXhXzXcXcXJXJXSXJXJXJXJXJXJXJXJXJXJXJXJXJXUXJXJXpX) & & & & & $ $ $ . . . . . @ 2 j M m g.vXHXGXHXvX` 1 < ; 7 O.=.#.#.*.m.oX`.N.N.N.N.N.B.C.n.c.m.m.5.I N a N V V K Y P P *.j.j.j.j.j.j.j.j.#.p : : - b                                                                                                                                                                                                           ",
"                                                                                                                                                                                                                                                                            , O X - ` a.a.i.&.&.%.%.+.` 1 . . . . . . . . . . X # # # @ @ # # # . . . . . . o . . o . . . . . u.G.$X,X,X,X,XiXiXuXuXuXpXiXiXuXD.D.F.F.A.C.C.C.C.C.Z.Z.Z.Z.Z.Z.Z.Z.Z.Z.C.C.H.H.A.D.D.A.H.D.D.D.D.D.Z.d.g.d.g.d.g.d.d.g.a.a.a.a.a.u.d.u.g.g.D.vXHXGXGXSXzXjXjXhXhXhXhXhXhXkXkXjXjXhXhXhXhXhXhXhXhXhXhXhXhXhXhXhXhXkXkXhXhXhXhXhXhXhXzXhXhXzXhXhXVXGXHXKXHXHXHXHXHXHXHXGXGXHXGXGXGXGXGXHXjXn . o o . . . . . . . . . . . o O 4 , u.JXIXIXIXGXu.3 @ - - n u.O.#.&.B.oXoXoXoXN.N.N.B.B.m.N.B.B.l.P p s s s z J J P P 5.k.j.k.j.j.j.j.z.+.9 % O @ n                                                                                                                                                                                                           ",
"                                                                                                                                                                                                                                                                            , o X - ) a.i.i.&.%.%.%.+.@.1 . . . . . . . . . . X # # # # # # # # . . . . . . . . o . . . . . . u.G.$X,X,X,X,XuXuXuXiXiXpXiXiXuXD.D.F.D.A.C.C.C.C.C.Z.Z.Z.Z.Z.Z.Z.Z.Z.Z.C.H.H.H.A.D.D.D.A.D.D.D.D.D.Z.f.d.f.d.f.f.d.d.d.a.a.a.a.a.a.g.u.g.f.G.vXGXGXGXSXzXjXhXzXzXhXhXhXhXhXhXhXkXhXhXhXhXhXhXhXhXhXhXhXhXhXhXhXhXhXhXhXhXhXhXhXhXhXzXhXhXzXhXzXVXGXHXHXHXHXHXHXGXGXHXGXGXHXGXGXGXGXGXGXjXn . O . o o . . . . . . . . . o # @ @ u.JXIXIXIXHXg., # - - n u.@.+.i.B.oXoXoXoXN.B.B.B.N.B.B.m.m.l.P s s s s z z J J P *.k.j.l.k.l.j.j.j.+.i % - @ m                                                                                                                                                                                                           ",
"                                                                                                                                                                                                                                                                            , o . - ) i.i.&.&.%.%.%.+.@.1 . . . . . . . . o o X # # # # # # # o . . o . o . . . . . . . . . . u.G.,XuXuXuXuXiXiXiXiXiXpXpXiXuXA.A.A.C.C.C.C.Z.Z.Z.Z.Z.Z.Z.Z.Z.Z.Z.Z.Z.C.H.D.D.D.D.D.D.D.D.D.D.D.D.Z.f.d.d.g.d.g.d.d.g.g.g.g.a.a.d.d.g.g.g.D.vXHXKXHXSXcXhXzXzXzXhXhXhXhXhXhXhXhXzXhXhXhXhXhXhXjXhXhXhXhXhXhXhXhXhXhXhXhXhXhXhXhXhXzXhXhXzXhXzXVXGXGXGXGXGXGXHXGXGXHXGXHXHXGXGXGXHXGXKXzXn . X . . . . . . . . . . o . . O O 4 u.JXIXIXIXGXg.3 3 @ - n +.@.%.p.B.@XoXoXS.N.N.B.B.B.m.B.m.m.z.P p p p s f f z J P 5.l.j.j.j.z.z.z.z.i.u * - @ n                                                                                                                                                                                                           ",
"                                                                                                                                                                                                                                                                            , . . * n i.%.%.=.%.+.+.+.@.1 . . . . . . . o + o # # # # # # o o . o . . . . . . . . . . . . . . n n.Z.Z.C.C.A.D.A.D.D.A.D.G.G.G.G.G.G.D.F.D.D.A.A.A.H.H.H.H.H.H.H.H.H.H.H.A.D.D.D.D.D.D.D.D.D.D.D.A.Z.f.f.f.f.f.d.d.d.g.g.g.g.a.a.a.d.g.g.d.D.hXSXSXSXcXjXaXaXpXpXpXpXpXpXpXaXaXpXdXhXxXcXxXxXzXhXhXjXhXjXhXhXhXhXhXhXhXhXhXhXhXhXhXhXhXhXzXhXzXcXSXSXSXSXSXGXGXGXGXHXHXHXHXGXGXSXVXVXSXdXd.b b b b b b b j j m m b n n n n n n f.bXvXvXvXbXn , @ - , b ) ) ) O.z.l.l.z.l.m.N.B.N.B.m.B.m.m.l.O.P z z c z z P P Y 5.k.j.l.z.s.s.d.d.a.+.n n n                                                                                                                                                                                                             ",
"                                                                                                                                                                                                                                                                            , . . * n +.%.%.%.#.+.+.@.@.9 X . o . . + + + + # # o o o o o o o o o . . . . . . . . . . . . . . - , , 3 3 1 1 2 2 2 2 2 i 2 j u.G.uXuX,X,X$X$X$X$X$X$XG.G.G.$X$X,X,X,XG.D.F.F.D.F.D.D.D.D.D.D.D.D.D.A.Z.C.C.Z.C.Z.Z.Z.Z.Z.Z.n.n.n.Z.Z.n.Z.n.n.Z.n.Z.C.n.c.n.n.n.c.n.n.c.n.C.F.G.F.,XhXSXGXGXGXSXzXjXjXjXhXhXhXhXhXhXhXhXhXhXhXhXhXhXhXhXzXzXhXhXzXzXzXzXzXcXSXGXGXGXGXGXGXGXGXJXcXjXhXhXzXxXvXvXvXvXvXvXvXvXvXvXvXcXvXvXSXSXSXvXjXu.m m m m , , , @ O 1 1 1 9 9 s v P c _ z.B.B.S.V.B.m.m.B.m.l.z.l.l.z.*.*.*.*.p.j.j.j.z.p.s 6 ; 9 u.                                                                                                                                                                                                                    ",
"                                                                                                                                                                                                                                                                            , . . * v +.+.#.#.#.+.+.@.@.9 X . o o + # # # # # # # o o o o o o o o . . . . . . . . . . . . . . . . . o o o O # # @ O O @ O - n uXiXuXuXuXuX,X,X,X,X,X,X,X,X,XuXuXuXuX$XG.F.D.D.D.D.D.D.D.D.D.D.D.D.D.A.F.D.A.D.A.Z.Z.Z.Z.Z.Z.Z.Z.n.n.Z.Z.C.n.f.d.d.f.f.f.c.c.c.c.f.f.d.d.n.F.D.S.F.jXGXPXPXKXJXxXjXjXjXjXhXhXhXhXhXhXhXhXhXhXhXhXhXhXzXzXzXhXhXhXhXhXjXjXzXSXGXGXHXGXGXGXGXGXSXxXjXjXdXhXSXGXJXGXGXGXGXGXGXGXGXGXHXGXHXPXKXPXPXzXn , , , , 4 , @ , 4 @ @ * - - u s s u v s.B.B.B.B.B.m.m.B.m.m.m.n.B.l.j.*.*.*.j.j.s.j.c.p.u : - - u.                                                                                                                                                                                                                    ",
"                                                                                                                                                                                                                                                                            - . . % v +.+.+.#.#.O.+.+.@.9 X X o # # # # # # # # # + + + + + + + + + . . . . . . . . . . . . . . . . . o # # # # # o o o # @ b G.uXuXuX,X,X$X$X$X$X$X$X$X$X,X,X,XuX,X$XD.F.D.G.D.G.D.F.F.D.D.D.D.A.D.A.A.A.Z.C.Z.Z.Z.Z.Z.Z.Z.Z.Z.Z.Z.C.Z.Z.n.f.c.f.f.f.f.f.f.f.f.f.f.d.d.n.A.D.A.D.jXJXKXHXGXSXzXjXjXjXhXhXhXhXhXhXhXhXhXhXhXhXhXzXhXhXzXhXhXhXhXhXhXhXhXxXSXGXGXGXGXGXGXGXGXJXzXjXjXjXzXSXGXGXGXGXGXGXGXGXGXGXGXHXHXHXKXPXIXIXvXn 4 , , @ @ 4 @ 4 4 @ O @ * * 9 k l u b d.B.B.B.m.B.m.m.B.m.l.l.l.m.l.p.=.*.*.*.j.s.z.z.i.q - - 3 u.                                                                                                                                                                                                                    ",
"                                                                                                                                                                                                                                                                            @ . . O v +.+.+.#.#.#.%.%.+.9 X X X O # # # # # # # # # + + + o + + + + . . . . . . . . . . . . . . . . . . o # o o o o o o O @ b ,XuXuXuX,X,X,X,X,X,X$X$X,X,X,X,XuXuX,X$XG.F.D.G.D.G.G.F.F.D.D.D.D.A.D.A.A.A.C.A.C.Z.Z.Z.Z.Z.Z.Z.Z.Z.Z.C.C.A.Z.f.d.f.c.f.f.c.c.f.f.f.d.d.d.n.C.D.C.G.dXJXKXKXGXSXzXdXdXjXjXhXhXhXhXhXhXhXhXhXhXhXhXzXhXhXzXhXhXzXhXhXhXhXhXxXSXGXGXGXGXGXGXGXGXJXxXjXdXjXzXSXGXGXGXGXGXGXGXGXGXGXGXHXKXKXPXPXPXPXzXn 4 4 @ 4 , @ 4 # 4 4 @ @ O O 1 i u i l s.B.B.C.B.B.m.m.B.m.m.v.l.m.l.j.=.*.*.*.s.s.z.z.a.i - , 3 u.                                                                                                                                                                                                                    ",
"                                                                                                                                                                                                                                                                            - . . % ) a.&.i.*.p.*.=.p.p.s 6 ; ; 1 @ O # # # @ # o # o . o o o o o o . . . . . . . . . . . . . . . . o o + + # # o o o # . o j f.Z.c.c.c.c.c.c.c.f.n.f.f.c.D.$XuXuX,X$XG.G.G.G.G.G.G.G.G.G.G.G.D.D.A.D.A.Z.Z.A.Z.Z.Z.Z.Z.Z.Z.Z.Z.Z.C.A.A.C.C.n.n.n.n.c.c.n.n.c.c.f.f.f.c.Z.H.H.H.D.iXzXvXvXvXjXpXpXpXpXpXpXpXpXpXpXpXdXaXpXhXxXzXxXcXzXhXhXhXhXhXhXhXhXhXzXVXSXSXSXSXGXGXGXGXJXVXzXkXkXcXVXSXSXSXSXSXSXSXSXSXSXJXJXJXGXKXKXHXJXvXn.g.u.@.u.u.@.u.u.K.K.K.K.@.@.+.a.d.d.d.d.a.a.d.s.z.z.z.z.l.v.l.v.v.l.p.=.=.=.p.+.) O.+.u.f.g.                                                                                                                                                                                                                          ",
"                                                                                                                                                                                                                                                                            - . . * a.n.n.n.c.c.m.m.B.m.O.c c b l 1 - @ @ # # # o # o . o . . o o o . . . . . . . . . . . . . . . . o o o + # # o o # @ o o , i 2 2 3 2 1 1 2 1 2 2 1 2 j a.D.,XuXuXuXuX,X,XuXuXuXuXuXuXuXuXuX,X,X$X$XG.G.G.A.Z.Z.Z.Z.Z.Z.Z.Z.Z.Z.C.C.C.A.A.A.A.A.A.A.A.A.A.C.C.H.C.Z.Z.C.H.H.H.C.D.D.C.Z.Z.n.c.c.n.n.n.n.n.n.n.S.G.,X,X,XhXGXHXHXGXSXcXzXzXzXzXhXhXhXhXhXzXzXzXzXcXSXGXGXGXGXSXSXSXSXVXxXhXhXhXhXhXhXhXkXzXxXxXcXcXSXGXLXKXHXGXSXvXvXvXvXvXvXvXvXvXvXvXvXvXvXvXvXvXvXiXa.q ; < 0 z _ +._ #.h.l.l.v.l.p.#.#.#.&.9 < ; 9 u.                                                                                                                                                                                                                              ",
"                                                                                                                                                                                                                                                                            @ . . O d.S.C.C.S.S.N.N.F.S.i.) ) @.n i - * @ @ @ # # # # o o . . X . . . . . . . . . . . . . . . . . o o o o o o o o o o o o o o . o o . . . . . . . . . . # n A.uXuXuXuXuXuXuXiXiXiXiXiXiXiXuXuXuXuXuX$X$X,X$XG.Z.Z.Z.Z.Z.Z.Z.Z.C.A.A.A.A.A.A.F.D.D.D.D.D.D.D.D.D.D.D.A.A.A.A.A.A.A.Z.f.a.u.a.g.g.d.d.d.d.d.d.d.d.f.C.G.G.D.dXLXIXPXPXJXcXzXzXzXhXhXhXhXhXjXjXjXjXjXzXSXGXGXGXGXGXGXGXLXSXhXdXdXdXdXdXjXjXjXhXhXhXhXzXVXGXLXKXKXHXKXPXPXPXPXPXPXPXPXPXPXPXPXPXKXKXKXKXPXxXa.* X X & s U U U _ p.v.v.v.c.p.#.%.#.%.* O O O `                                                                                                                                                                                                                               ",
"                                                                                                                                                                                                                                                                            @ . . @ d.S.C.C.S.S.F.F.F.F.i.@.) @.) i * O @ @ @ @ # # o . o . . o . . . . . . . . . . . . . . . . o o o o o o o o o # o . . o o o . . . . . . . . . . . . o n D.,XuXuXuXuXuXuXuXuXuXiXiXiXiXuXuXuXuXuX$X$X$X$XD.Z.Z.Z.Z.Z.Z.Z.Z.C.C.A.D.D.D.D.F.F.D.D.F.D.D.D.D.A.H.H.H.H.H.H.A.D.Z.f.d.a.a.d.g.a.a.d.d.d.d.d.d.d.c.A.G.G.G.jXPXPXPXPXJXcXzXzXzXzXhXhXhXhXhXjXjXhXjXzXSXLXGXGXGXGXGXGXGXSXkXjXjXdXdXdXjXjXhXhXhXhXzXzXVXGXLXLXKXKXKXPXPXPXPXPXPXPXPXPXPXKXPXKXKXHXHXGXHXzXu.O X . % j ) ) ) ` p.c.c.c.c.i.+.%.+.+.* . X @ n                                                                                                                                                                                                                               ",
"                                                                                                                                                                                                                                                                            , . . , g.C.S.S.C.B.F.F.F.S.a.@.) @.n i @ @ @ @ @ # o o . . O . . . . . . . . . . . . . . . . o o o o o o o . . . . . + + + + . . o . . . . . . . . . . . . o n H.$XuXuXuXuXuXuXuXuXuXuXiXiXiXuXuXuXuX,XuX$X$X$XA.Z.Z.Z.Z.Z.Z.C.C.C.C.A.A.D.F.D.F.F.F.F.F.F.D.D.D.A.A.A.D.A.A.A.H.H.C.n.f.d.d.d.d.d.d.d.d.f.d.d.d.f.f.C.A.D.G.jXPXIXIXPXJXcXzXzXzXzXhXhXhXhXhXhXjXjXhXzXSXLXGXGXGXGXLXGXGXSXhXjXjXdXjXjXjXhXhXhXhXhXzXzXVXJXLXLXLXLXLXKXKXLXKXPXPXKXLXLXHXHXHXGXGXGXHXGXHXzXu.O . . * j ) ` ) ` p.c.c.c.c.p.+.i.+.u., . . O n                                                                                                                                                                                                                               ",
"                                                                                                                                                                                                                                                                                u.g.u.u.u.a.i.&.i.i.i.u.v b l b j 1 @ @ @ @ @ # O o o @ 3 2 1 1 @ . . . . . . . . . . . o o o o o o o o . . . . + + + + # + . . . . . . . . . . . . . + + j g.f.f.f.f.f.c.c.n.n.Z.Z.Z.Z.Z.Z.Z.n.c.c.uX$X$X$XG.S.A.A.A.A.A.D.D.D.G.G.G.G.G.G.D.F.F.F.D.D.D.A.A.A.A.A.A.A.A.C.C.C.C.n.f.f.d.d.f.f.f.f.f.f.f.f.f.f.f.Z.A.A.A.uXvXvXvXvXhXpXpXiXiXiXiXiX,X,XpXhXcXcXcXVXSXGXGXGXGXGXGXLXLXJXcXzXxXxXxXkXhXhXhXzXzXzXzXhXcXSXJXJXJXJXGXGXGXJXGXGXGXJXJXSXSXSXSXSXJXGXGXGXHXVXG.a.u.u.@.n j b l v ` +.+.+.+.` n v b n u.g.u.u.                                                                                                                                                                                                                                ",
"                                                                                                                                                                                                                                                                                    u.i - ; : ; 1 1 1 9 < < < 1 , 4 @ @ @ @ @ # O . O 1 j n b b 1 . . . . . . . . . . o o o o o . o o o . . . . # + . . o + o . . . . . . . . . . . . . . > 3 3 2 2 q q q j j j j j j j j j j i j v $X,X$XuX$X$X$X$X$X$X$X$X,X,XuXuXuXuX,X$XG.A.D.A.A.A.A.A.A.C.C.C.C.C.C.C.C.C.C.Z.Z.Z.n.Z.Z.Z.Z.Z.Z.Z.Z.Z.Z.Z.Z.Z.D.A.H.H.D.D.D.D.A.C.S.C.Z.n.n.n.c.n.,XxXJXGXJXJXGXLXGXGXGXGXGXGXGXGXJXSXJXGXVXcXhXhXhXhXzXzXzXzXxXcXcXVXVXVXVXVXVXVXVXVXcXcXcXxXxXcXxXzXcXSXGXGXHXGXvXvXzXzXuXu., - , < 9 w w < 9 1 < < < q                                                                                                                                                                                                                                         ",
"                                                                                                                                                                                                                                                                                    u.@ . X . X O O O * O * @ * @ @ 4 @ # # # + o . O 2 n @.n n q X . . . . . . . . o o o o o . . . o o . . . . . + + . . o . . . . . . . . . . . . . . . + . o . o X X X X O O O O O O O O X X X 9 uXuXuXuX$XuXuXuXuXuXuXuXiXiXiXpXpXpXiXuXG.A.D.D.A.A.A.A.A.A.A.A.C.C.C.C.C.C.C.C.C.C.Z.C.A.C.A.A.A.A.Z.Z.A.A.A.Z.A.A.A.Z.f.f.f.f.f.f.f.f.d.f.s.d.s.d.$XVXLXLXLXGXGXGXGXGXHXGXHXGXGXGXLXLXLXKXJXVXzXzXzXzXzXzXzXzXzXzXzXzXxXxXzXzXzXxXzXzXxXxXzXhXhXzXhXhXcXSXGXHXGXGXGXGXGXHXzXu.O # O X O % % X X X X X O <                                                                                                                                                                                                                                         ",
"                                                                                                                                                                                                                                                                                    g.@ . . . o # # O @ @ @ @ 4 4 4 # # 4 @ O @ X . X 1 ) ` ) ) q X . . . o . . o + + + # o o o o o . . . . o o + o . . o o o . . . . . . . . . . . . . . . . . . o o . o o . o o X X o o . . . X 2 uXuXuXuXuXuXuXuXuXuXuXiXiXiXpXpXpXpXiX,XG.S.A.A.A.A.A.A.C.C.H.H.C.C.C.C.C.C.Z.Z.S.S.C.C.C.A.A.A.A.A.A.A.A.A.A.A.A.D.A.Z.c.f.f.f.f.f.f.f.d.d.d.f.g.f.,XvXHXHXGXHXGXGXGXGXGXGXGXGXGXGXHXKXKXKXGXcXhXzXzXzXzXhXhXhXzXzXzXzXzXzXzXzXzXzXzXzXzXzXzXhXhXzXhXjXcXJXGXHXHXGXHXHXHXKXvXu.@ @ # o @ + @ o # . O O . 3                                                                                                                                                                                                                                         ",
"                                                                                                                                                                                                                                                                                      O o o o . o # O O O @ @ @ @ @ @ > @ # o O O . O 1 n ) ) ) q X . . . . . o . . o # X X o X . . . . . . . . . . . . o o o o . . . . . . . . . . . . . . . . . . . . o # o # o o X o . . . . . q uXuXuXuXuXuXuXuXuXuXiXiXpXpXpXpXiXiXpXuX$XF.A.A.A.A.A.A.H.C.H.H.C.C.C.C.C.C.Z.C.C.C.A.A.A.A.A.A.A.A.A.A.A.A.A.A.A.D.A.Z.c.f.f.f.f.f.d.d.d.d.a.d.g.f.,XvXKXPXKXHXGXGXGXGXHXHXHXKXHXHXKXKXKXPXGXSXzXzXzXzXzXzXzXzXzXzXzXzXzXzXzXzXzXzXzXzXzXzXhXhXhXhXhXjXcXJXLXLXHXGXHXHXHXKXvXu.# # @ @ @ @ o # # # . o O ,                                                                                                                                                                                                                                         ",
"                                                                                                                                                                                                                                                                                        u.u.u.u.u.g.u.g.a.g.g.g.g.j 4 # @ @ @ O o . X 1 n ) ) ) k ; ; < - < < 3 < < 1 1 1 1 1 1 1 1 < < < < < < , , , , , < < , , , < < < < < < < < < < < ; - - - - O . . . . o # # o o . . . . X 1 c.Z.Z.Z.Z.Z.Z.Z.Z.Z.Z.C.Z.A.D.uXpXpXpXuXG.G.G.F.D.D.D.D.D.D.D.D.A.A.S.S.S.A.D.A.C.C.A.C.A.Z.A.H.H.H.H.H.H.H.A.A.A.D.A.C.n.f.f.f.f.f.f.f.f.f.f.f.f.c.G.jXvXvXvXvXcXxXcXcXxXcXxXcXvXcXSXSXSXJXSXSXvXvXVXvXzXzXzXzXhXhXzXzXzXzXzXzXzXzXhXzXhXhXhXhXhXhXhXhXzXVXSXSXSXJXGXHXHXKXVXG.u.u.g.u.2 @ 3 , 3 u.u.u.u.                                                                                                                                                                                                                                          ",
"                                                                                                                                                                                                                                                                                                                  f.3 # # # O . o . X < n ) ) ) v l l b b b b b v v v v v v v v v v v v b b b b b b b b b b b b b b b v v v v v v v v v b b b b j j , O . . . . . o o . . . . . . X q 9 q q 2 2 q j j j j j j j @.G.pXpXaXiXuXuX,X,X,X$X$X$XG.G.G.G.G.G.G.G.G.$XG.D.A.C.A.A.A.Z.H.H.H.H.H.H.H.H.A.A.A.D.D.A.C.Z.Z.Z.Z.Z.Z.Z.n.n.Z.Z.n.n.C.G.$X$XG.S.n.n.n.n.n.n.Z.C.A.G.uXaXaXaXcXJXGXHXKXJXvXzXzXzXzXzXzXzXzXzXzXzXzXzXhXhXzXzXjXhXhXjXjXjXhXzXzXzXzXcXJXHXKXKXHXVXvXvXvXbXu.< @ > m                                                                                                                                                                                                                                                   ",
"                                                                                                                                                                                                                                                                                                                    3 # # + # # # o @ < n ) n v ) ) ) ) ) ) ` ` ) ) O.O.O.O.@.@.@.@.` ` ) ) ) ) ) ) ) ) ) ) ) ) ) ) ) ) @.O.O.O.@.` ` @.@.` n n n b 1 O . . o o . . . . . . . . . . o . . . . o o # @ @ @ * - , n A.pXpXpXaXiXiXiXiXuXuXuXuXuXuX,X,X,X,X,X,X,XuX,XG.D.C.C.D.A.H.H.H.H.H.H.A.H.H.D.D.A.D.D.D.D.A.A.A.A.A.A.A.A.C.C.C.C.C.C.C.n.n.n.f.a.u.a.a.a.a.d.d.f.Z.$XuXuXuXhXJXPXIXIXGXcXcXzXzXzXzXzXhXhXhXzXzXhXkXkXhXhXhXhXhXhXhXkXhXjXhXjXjXjXxXJXHXLXKXKXHXKXHXKXJXg.3 , 3 n                                                                                                                                                                                                                                                   ",
"                                                                                                                                                                                                                                                                                                                    > + @ # # # . . X < n ` ) ) ) ) ) ) ) ) _ ) _ _ O._ O._ O.+.@.+.@._ _ _ _ _ @.) ) ) @.) ) ) ) _ _ _ O.O._ _ +.` ` +.` ` ) n v b 1 . . . . . . . . . . . . . o . . . . . X X o o # # @ @ - - n D.aXaXpXpXpXiXuXuXuXuXuXuXuXuXuXuXuXuXuXuXuX,X,XG.H.C.C.C.H.H.H.H.H.H.H.H.A.A.D.D.D.A.D.D.D.D.D.A.A.A.A.A.A.A.C.C.C.C.C.n.n.n.n.d.u.+.u.u.u.a.a.u.a.n.$XuXuX,XjXJXPXIXIXGXcXxXzXzXzXzXzXzXzXzXhXhXhXhXhXkXhXhXjXhXhXjXhXkXjXjXjXjXdXcXJXKXKXKXIXKXKXKXIXJXg.< , 3 n                                                                                                                                                                                                                                                   ",
"                                                                                                                                                                                                                                                                                                                    , + # + o O O # * < b v b v v _ ) ` _ ) _ _ O._ O._ O._ _ +._ _ _ _ _ _ _ _ O._ _ ) ) _ ) ) _ _ _ O.O.O.O.O.+.` _ +.+.O.) ) v b 1 X . . . . . . . . . . . . . . - O @ @ @ X 4 , , , 3 3 3 3 n Z.pXpXiXiXiXiXuXuXuXuXuXuXuXuXuX$X$X$X$XuXuXuX,XG.A.C.A.A.A.A.A.A.A.A.A.D.A.A.D.D.D.D.D.D.D.A.A.A.A.A.A.A.A.C.C.C.Z.Z.n.n.n.n.c.d.u.u.u.u.u.a.d.g.f.C.,XiXuXuXjXJXPXIXIXGXvXvXzXzXzXzXzXzXzXzXhXhXhXhXkXkXkXkXjXhXjXjXkXjXjXjXhXhXhXcXJXLXKXKXHXHXHXKXPXJXf.q , 3 n                                                                                                                                                                                                                                                   ",
"                                                                                                                                                                                                                                                                                                                  g.4 . . # , 2 2 2 1 < j u u u l ) ) _ ` _ #._ O._ O.O._ _ O.O._ _ _ O._ _ _ _ O.O._ _ _ _ _ _ _ _ _ _ O.O.O.O.#.` O.` +._ ) U v b 9 * * * @ X . . . . . . . . o 3 u.u.u.u.u.u.u.u.u.u.g.g.u.u.u.Z.G.G.G.D.D.H.A.A.H.H.H.H.Z.Z.Z.Z.Z.C.F.$X,XuXuX,XG.F.F.F.F.F.D.D.D.D.D.F.G.D.D.D.D.D.D.D.D.D.D.A.A.A.A.A.A.A.C.C.C.C.C.C.n.n.n.f.a.a.a.a.d.d.d.d.f.C.,XuX,X,XpXxXVXSXSXvXhXdXdXdXdXdXdXdXdXdXzXzXzXzXxXxXxXxXxXxXzXzXxXxXzXxXzXzXzXcXSXJXGXGXGXPXKXKXPXGXD.u.n u.g.                                                                                                                                                                                                                                                  ",
"                                                                                                                                                                                                                                                                                                K.n n n n n n n m 2 # . . @ j ` @.@.n q O O X % 9 ) _ _ _ O.p.p.*.*.%.O.O.O.+.O._ _ _ _ _ _ _ _ _ _ _ ) ) ) _ _ _ _ _ _ _ +.O.` #.' ' _ _ _ _ ) U v v b x l l 9 # . . . . . . o @ m                               n m m j j j j j M j j i i q j i 9 9 j u.G.uXuXuXuX,X,X,X,X,X,X,X$X,XuXuXuXuX,XG.D.D.D.D.A.A.A.A.A.A.A.A.C.C.A.C.C.C.Z.C.C.Z.Z.n.n.n.n.n.n.n.Z.Z.Z.C.D.D.G.G.G.D.A.H.A.D.A.A.D.A.F.D.C.F.S.A.$XzXcXxXxXcXSXSXSXSXSXJXSXJXJXSXJXJXJXJXSXcXcXVXcXVXHXPXPXIXHXVXvXvXvXbXg.u.u.u.                                                                                                                                                                                                                                          ",
"                                                                                                                                                                                                                                                                                                , @ # O X X . . o . . . . @ j u.a.a.@.j * O X X w ) ) _ _ %.p.j.j.j.p.#.O.O._ _ _ _ _ _ _ _ _ _ _ _ _ _ _ _ _ _ _ _ _ _ _ +.+.` ' ' ' ' _ _ _ _ O._ ) ) ) ) n k # . . . . o . o @ n                               n # # # @ # o # # # . . O . . . . . * n F.uXuXuXuXiXiXuXiXuXuXiXuXuXuXiXpXiXuX$XD.D.D.A.A.A.A.A.A.A.A.A.A.A.A.C.C.C.C.C.C.Z.Z.Z.Z.Z.Z.Z.Z.Z.Z.D.D.D.D.D.D.D.D.D.Z.n.n.n.n.c.n.n.c.c.f.c.f.f.A.hXxXxXcXVXGXGXGXGXGXGXGXGXGXGXGXGXGXGXSXVXcXcXzXVXGXKXKXIXIXPXPXPXPXJXn 2 3 3 u.                                                                                                                                                                                                                                        ",
"                                                                                                                                                                                                                                                                                                # . . . . . . . . . . . . O j +.u.i.` u % $ $ % 9 ) ) ) U %.p.z.z.z.s.%.O.O._ _ _ _ _ _ _ _ _ _ ) ) ) ) ) _ _ _ _ _ _ _ _ _ _ _ ' ' ' ' ' _ _ _ ) _ ) ) ) ) ) k # . . o . o . o o m                               n , 3 @ # # @ o O O . . . . . . . . X n G.iXuXuXuXuXuXuXuXiXiXuXuXiXiXpXpXpXpX$XF.A.A.A.A.A.A.S.C.C.S.C.C.C.C.C.C.C.C.C.C.C.Z.Z.Z.Z.Z.Z.H.H.D.D.D.D.D.D.D.D.D.D.Z.f.f.c.c.c.c.n.f.f.f.f.f.f.A.zXcXcXcXVXJXGXJXGXGXGXJXGXGXGXGXGXGXGXJXcXzXcXcXVXGXPXPXPXPXPXIXPXKXVXj q q 1 u.                                                                                                                                                                                                                                        ",
"                                                                                                                                                                                                                                                                                                , # o . . X . . . . . . . X j @.i.i.O.9 X X X O u ) ) _ ) &.s.l.z.z.s.%.O.O._ +._ _ _ _ _ _ T T _ _ _ _ O.O.O.O._ _ _ _ O.O.+.+._ _ _ _ _ _ _ _ ) _ ) ) ) ) ) k # . . o . . . o # n                               n # @ @ @ # o # X o o . . . . . . . O n G.iXuXuXuXuXuXuXuXuXuXuXiXiXiXiXiXiXiX$XD.A.A.S.A.A.C.A.A.A.A.A.S.C.C.C.Z.Z.C.C.C.C.Z.Z.Z.Z.C.C.H.H.H.D.D.D.D.D.D.G.G.D.Z.f.f.c.c.c.c.n.f.f.f.f.f.f.A.hXzXxXxXcXJXGXGXGXGXGXGXGXGXGXGXGXLXLXJXVXzXcXcXvXGXKXPXPXKXHXKXHXKXVXj 1 , 1 @.                                                                                                                                                                                                                                        ",
"                                                                                                                                                                                                                                                                                                @ o . . X * * * X . . . . O j @.+.%._ u : : ; ; k b n ) U %.s.z.z.z.s.#._ _ _ +.O.O.O.O.O.O.....O.O.O.#.O.#.#.#.O.#.#.#.#.#.#.#.&.#._ _ _ _ _ _ _ _ _ _ ` ` ) l @ . o o . o . o O n                               u.j j j m m 2 q 2 2 2 j 2 j @ . . o > n Z.G.G.G.G.G.$XG.$XG.G.G.$XG.$XiXpXiXiX$XG.D.A.A.A.D.A.A.A.A.S.S.C.Z.Z.C.Z.Z.C.C.C.C.C.Z.Z.C.H.H.H.H.H.D.D.D.D.D.D.F.D.C.Z.c.f.c.c.f.f.c.f.f.f.f.d.d.n.dXzXhXzXzXSXSXSXVXSXVXSXSXSXSXJXJXJXJXSXVXVXcXcXJXGXKXKXKXKXKXKXHXGXcXa.n b ` d.                                                                                                                                                                                                                                        ",
"                                                                                                                                                                                                                                                                                                @ O X % 9 l x b q - X . . % u ) #.&.i.+.) @.@.+.l i 9 9 9 ) s.z.z.z.-.#.T T _ %.z.j.z.z.j.j.j.j.z.j.z.l.z.l.z.z.l.l.l.l.k.k.l.l.p.&._ _ _ _ _ _ _ _ U ) ) ` ) l @ . X X o # o o @ n                                                             @ o . . # , , * - - , , , < , , - , 2 ` A.iXiXiXuX,X,X,X$X,X,X$X,X,X,X$X$X$XG.G.C.Z.Z.C.C.C.C.C.Z.Z.C.H.A.D.D.D.F.F.D.D.F.F.D.D.G.G.D.D.D.D.D.D.D.A.A.A.C.C.Z.A.C.A.C.C.n.A.C.C.S.S.S.S.F.F.$XuXpXpXaXzXJXKXPXPXPXPXPXKXKXKXHXHXGXHXKXHXPXPXKXVXu.u.n n                                                                                                                                                                                                                                 ",
"                                                                                                                                                                                                                                                                                                , O X O 9 l l l k ; . . . X u @.=.=.&.&.%.i.i.i.l - O X O v s.c.z.j.*.#.T T _ *.j.j.j.j.k.k.k.k.k.k.k.l.l.k.k.k.k.k.k.k.k.k.k.k.p.%._ ` _ _ _ _ _ _ _ _ ` _ ` x @ . X X o X o # # n                                                             @ o o . o # . o o o # # # @ # @ , * , n D.pXiXuXiXiXiXiXuXuXiXuXuXuXuXuXuXuX,X$XA.Z.Z.Z.C.C.C.A.Z.C.H.A.D.D.D.D.D.D.D.F.D.D.G.G.F.F.D.D.D.D.D.D.F.C.A.C.Z.S.Z.Z.A.A.C.A.C.A.C.A.A.A.S.A.F.F.$XpXaXaXaXzXGXIXIXPXPXPXPXPXKXHXHXHXKXHXGXHXKXLXKXVXj # @ , u.                                                                                                                                                                                                                              ",
"                                                                                                                                                                                                                                                                                                , # X % 9 v v b j ; X X X X i O.=.#.%.%.%.i.+.u.l O X O % U d.f.k.z.*...T T _ =.j.j.j.k.k.k.k.k.k.k.k.l.k.k.k.k.k.k.k.k.k.k.k.k.p.+.) _ _ _ _ _ _ _ U _ ` ` ) z @ . o X o X o # @ n                                                             @ . # o o # + @ o o # # # # # # # @ , n D.iXiXiXuXuXuXuXuXuXuXuXuXuXuXuXuXuX,X$XA.C.Z.Z.C.Z.C.A.H.H.D.D.D.D.D.D.F.F.F.F.F.F.F.F.G.D.D.D.D.D.D.A.A.C.A.C.C.A.S.C.C.C.Z.A.C.C.C.A.C.S.S.A.F.F.$XpXdXaXdXxXGXPXPXPXPXPXPXPXHXHXKXHXHXGXKXKXKXLXKXcXm o # , n                                                                                                                                                                                                                               ",
"                                                                                                                                                                                                                                                                                              f.< % $ & 0 z L z k ; X X . X u @.O.#.#.=.*.*.&.+.u % O X O ) p.c.z.z.&.R _ U P #.j.j.9.k.k.k.k.k.k.k.k.k.k.k.k.k.k.k.k.k.k.k.k.k.*.T Y T _ _ _ _ U _ _ _ _ _ ) l > o o o # o O . # n                                                             - o . . o o # + O X X O O O * % % * * n D.iXuXuXuXuXuXuXuXuXuXuXuXuXuXiXuXuXuX$XA.C.n.n.Z.Z.C.C.H.D.D.D.H.D.D.D.D.D.D.D.D.D.D.D.D.D.D.D.D.D.D.D.S.A.A.A.A.C.C.A.C.C.C.C.A.A.A.A.A.A.A.F.D.D.,XaXdXaXaXxXGXIXIXPXIXPXPXPXHXHXLXHXLXLXLXGXLXLXGXcXi * @ O n                                                                                                                                                                                                                               ",
"                                                                                                                                                                                                                                                                                              f.< = & 6 e J P L l ; . . . X u @.&.=.=.=.&.&.&.%.g ; ; - 9 ) i.z.&.&.O._ O._ R =.j.9.9.k.k.k.k.k.k.k.k.k.k.k.k.k.k.k.k.k.k.k.k.k.*.#.T ' ' _ _ _ _ _ ) _ _ _ _ z > . # # , m b j j                                                               @ o o # o . + + X O - < - * * * ; < 9 n Z.$X$X$XG.G.G.G.$XG.G.G.G.G.G.$XG.G.G.G.A.A.C.S.A.A.D.D.D.D.G.G.G.G.G.G.D.G.G.D.D.D.D.D.D.D.D.D.D.D.A.A.A.A.A.A.A.C.C.C.C.C.A.A.A.A.A.A.A.A.A.D.D.F.$XuXpXpXaXhXSXJXGXGXJXJXJXJXJXSXSXJXSXSXSXSXSXSXSXcX@.b l b u.                                                                                                                                                                                                                              ",
"                                                                                                                                                                                                                                                                                      m m m n m v v z z L P L L k < O X . * j ` +.+.#.=.*.*.*.*.s.&.&.i.i.) v z s s U %.p.p.-.z.j.k.9.9.k.k.k.k.k.k.k.k.b.k.k.k.k.k.k.k.k.k.k.k.k.j.h.j.z.&._ _ _ _ ) _ _ ) ) l @ . + , u.                                                                      , O o # o o + + * 1 b n ) ) ) ` ) ) v l i 1 < , 3 < < < < < , < 1 < < < - < 1 n F.$XG.$X,X,XuXuXuXuXiXiXpXiXiXiXuXiXuX,XG.D.D.D.D.D.D.D.D.D.A.A.A.A.A.A.A.A.A.A.A.A.A.A.A.A.A.A.A.A.D.D.D.D.G.G.G.$XG.G.$XG.G.G.G.D.D.D.A.F.$X,XiXiXiXiXiXiXpXpXVXvXvXvXaXu.i 1 2 u.                                                                                                                                                                                                                    ",
"                                                                                                                                                                                                                                                                                    f.2 2 , O b ) _ U Y Y Y I U l ; X . . X u @.%.%.&.i.*.*.*.*.-.&.s.d.z.U z s s u U p.z.s.*.j.j.k.9.9.9.k.k.k.k.k.k.k.b.k.k.k.k.k.k.k.k.k.k.k.k.k.j.l.l.&.) ) _ ) _ _ ) ) ) l , o # 3                                                                         - O o o o # @ # O 1 v @.@.` +.+._ +.@.l * . X X X X X X X X X X X . . . . . . n S.,X,X$XuXuXuXiXiXiXpXpXpXiXpXaXaXaXpXuXG.D.D.D.D.D.A.A.A.A.H.H.A.A.C.C.C.C.C.C.A.A.A.A.A.A.A.A.A.D.D.D.D.D.D.D.D.G.G.G.G.G.G.G.D.D.D.A.S.D.,XiX,XuX,X,X,XiXpXpXvXJXJXJXjXj @ @ - @.                                                                                                                                                                                                                    ",
"                                                                                                                                                                                                                                                                                    u.1 O * ; x U U Y I I L I U z ; X X . X i @.+.+.i.i.*.*.*.*.5.-.-.s.z.z z d s p U p.z.z.j.z.k.k.9.9.9.k.k.k.k.k.k.k.l.k.k.k.k.k.k.k.k.k.k.k.k.j.j.j.j.#._ _ _ _ _ ) ) @.) l @ . o 3                                                                         @ @ @ # o o # o % q n +.+._ ' ' _ _ ) j * O # . . . . . . . . . . . o . . . . n C.$X,X,XuXuXuXiXuXiXiXiXpXpXpXpXpXpXpXuXG.D.D.D.D.D.D.D.D.D.A.A.D.H.H.H.C.C.C.C.A.A.A.A.A.A.A.A.A.D.D.D.D.D.D.D.G.G.G.G.G.G.D.G.D.D.D.D.A.F.$X,XiXuXuXuXuXuXuXiXvXJXSXvXjXb - @ - n                                                                                                                                                                                                                     ",
"                                                                                                                                                                                                                                                                                    d.q * ; 6 s Y Y Y I K K J P d ; X X X O j @.+.+.%.i.i.*.*.5.*.*.j.j.l.U z d s p R p.s.s.s.j.k.k.9.k.k.k.k.k.k.k.k.k.k.k.k.k.k.k.k.k.k.k.k.k.l.k.j.l.z.&._ _ _ _ _ ) ` @.v k o @ @ 2                                                                         , # o # # @ 4 4 O 9 v +.#._ #.#.#.#.` j % X . . . . . . . . . . . . . . . . o m H.$XuXuXuXuXuXuXuXpXiXiXaXpXiXiXpXaXpXuXG.D.D.D.D.A.A.A.A.A.H.A.H.H.H.H.C.C.H.H.C.A.A.A.A.A.A.A.A.A.D.D.D.D.D.D.D.G.D.G.G.G.G.G.G.D.D.D.A.G.,XiXiXuXuXuXiXuXuXpXvXSXSXJXbXb O O - n                                                                                                                                                                                                                     ",
"                                                                                                                                                                                                                                                                                    d.< % = = z L K K K K K I P z 7 % X O - u b ) ) ) %.s.j.*.*.5.*.*.*.*.U P z p s R &.p.s.s.z.j.k.9.k.k.k.k.k.k.k.k.k.k.k.k.k.k.k.k.k.k.k.k.k.j.*.*.j.*.' _ U ) ) ) b x l j v n u.@.                                                                            n n n j @ o # * q v +.' _ ' ' _ ' _ s % . . . . . . . . . . . . # . . . o @ m f.Z.Z.H.H.H.G.D.D.D.H.D.G.D.G.pXpXpXpXuX$XG.D.D.D.D.D.D.D.D.A.A.H.A.A.H.Z.Z.Z.C.C.C.A.A.A.A.A.A.A.A.A.D.D.D.D.D.D.D.D.G.$X$X$X$X$XG.G.D.A.G.,XuXiXuXuXZ.C.Z.D.G.pXpXaXbXG.g.n n j g.                                                                                                                                                                                                                    ",
"                                                                                                                                                                                                                                                                            n n n n b l z z s Y I I I I I K K J J z z z l k u ; ; ; 9 v &.j.s.*.-.*.j.5.j.*.*.*.*.#.#.O.U _ _ #.j.k.k.k.k.k.k.k.k.k.k.k.k.k.k.k.k.k.k.k.k.k.k.k.j.' T _ _ _ _ ` ` ` b 9 * * 1 u.                                                                                          m @ , % 9 v +.#.' ' ' #.#.U u * . . . . . o o . . . . . o . . . . . @ , 3 3 M 2 2 j j j j M j j j u.G.iXpXpXpXiXuXuXuXuX,X,X,X,X,X,X,X,X,X,XG.D.H.C.C.H.C.A.A.A.A.A.A.A.A.A.D.D.D.D.D.D.D.G.$XuXpXaXaXpXpXpXpXuXuXiXpXiXiXG.j 2 2 j 3 i j i j u.                                                                                                                                                                                                                              ",
"                                                                                                                                                                                                                                                                            , O O ; l ) U U I I I K K K K K K K J P U U U v 9 $ O % : v s.s.s.-.*.*.*.5.*.j.j.z.z.j.=.U U U T =.j.k.k.k.k.k.k.k.k.k.k.k.k.k.k.k.k.k.k.k.k.k.k.k.*.#.T T _ _ _ _ ` ` l * X X , f.                                                                                          m @ # % 9 v +._ #.#.#.#.' ) j * . . . . o . . o . . o . . . . . . . . . . . . o O # @ @ @ 4 # 4 , j G.iXiXiXiXiXiXiXiXuXuXuXuXuXuXuXuXuXuXuXG.H.Z.Z.Z.C.C.Z.S.C.A.C.C.C.A.A.A.A.A.A.A.A.G.G.G.iXaXaXdXaXaXaXaXpXpXiXiXiXiXD., O o @ . o . . O m                                                                                                                                                                                                                               ",
"                                                                                                                                                                                                                                                                            , O O * l U U I I I I K K K K K K K I I I Y T U u & % % : b i.s.s.&.-.*.*.*.*.j.z.k.z.z.=._ U U T =.j.j.k.k.k.k.k.k.k.k.k.k.k.k.k.k.k.k.k.k.k.k.k.k.j.#.T _ _ _ _ ` _ ` k * X X > f.                                                                                          m @ , - q ) +.#.#.' ' ' ' ) j * . o + . o . . o o . . . . . . . . . . . . . o O O @ @ @ @ - @ 4 4 j G.pXpXiXiXiXiXiXiXuXuXuXuXuXuXuXuXuXuX,XD.Z.Z.H.Z.Z.Z.A.A.A.A.A.A.A.A.A.A.A.D.D.A.A.A.D.G.uXaXpXaXaXaXaXaXpXpXiXiXpXiXG.3 - o . o . . . o j                                                                                                                                                                                                                               ",
"                                                                                                                                                                                                                                                                            , o X * k U L P K I K K K K K K I I I I I I Y P e & $ % ; b i.d.s.s.p.s.*.*.#.j.z.l.z.z.*._ _ _ _ =.j.z.k.l.k.z.z.z.k.k.k.k.k.k.k.l.l.l.b.b.b.b.k.l.j.#._ _ _ _ _ ` ` ) k * X # , g.                                                                                          m @ > O q ) i.%.+.O.%.+.+.) k * . . o . . . . X X . . X . X X . . . . . . X X X X X O $ O O O O @ j D.iXiXiXuXuXuXuXuXuXuXuXuXuXuXuXuXuXuXG.D.Z.Z.Z.Z.Z.Z.C.C.C.C.C.S.C.C.C.C.C.Z.H.H.D.D.D.G.iXaXaXaXaXaXaXaXpXpXpXpXuXiXD.4 # @ # @ . . . o m                                                                                                                                                                                                                               ",
"                                                                                                                                                                                                                                                                            , . X % u v L L K K K K K K K K I I E E E E E I p 5 & : 9 l @.+.+.+.O.p.&.=.#.-.z.z.k.k.*.O._ _ _ %.j.j.j.j.j.j.-.s.5.5.5.5.j.j.j.j.j.j.k.k.k.k.k.k.p.#._ ' _ _ ` ` ` ` l * X # , f.                                                                                            n n n n v ) ) v v ) ) v b i @ . . . . @ * - - ; * = = = ; : : 5 = 5 : : : 6 6 6 6 6 6 : ; : ; 9 b c.G.D.D.D.D.D.D.D.D.D.D.D.A.A.H.H.Z.Z.Z.H.Z.Z.Z.Z.Z.Z.A.A.A.S.S.A.A.A.S.S.A.A.A.A.A.A.G.G.G.,X,XuXuXuXuXuX,X,X,XG.,XG.H.K.n n n n n n n n                                                                                                                                                                                                                                 ",
"                                                                                                                                                                                                                                                                            @ . . % 0 z J L K K K K K L L K K E C E ! { ;./ I a s d s u i i i i b &.&.&.=.*.z.k.k.k.-.O.O._ _ #.=.=.=.=.#.#.#.#.O.#.O.#.#.#.=.=.=.=.=.*.*.*.=.=.&.' ' #.' ' ` ` ` ` j * . # , f.                                                                                                    v 1 q q 9 1 2 1 1 * X . . . O 1 u u u s s s s d z P Y I I I Y Y Y Y Y I I Y I P P U U U l c j j j j j j j j j m m m j j j j j j n f.D.G.G.G.G.G.G.G.G.G.G.G.G.G.G.G.G.G.G.G.G.G.G.Z.u.n n n n n n n n n n n n b g.                                                                                                                                                                                                                                                  ",
"                                                                                                                                                                                                                                                                            @ . . X q z z J C C V J J L L K K K F ! :.3.3.2./ E Y Y z 6 O O X O u +.%.*.=.*.z.l.k.k.-.O.+.+._ #._ _ _ _ T T T T U U U U U T _ _ _ _ #.#.#.#.' ' %.' ' #.' ' ` ` ` ) j @ . # , f.                                                                                                    n @ @ # @ # # + + o . . . . % q l z z z L L J K ~ $.5.2.2.3.2.2.2.2.2.2.2.2.2.2.$.$.*.=.z 6 o o o X O O O O # # # O O X . . . . q f.G.$X$X,X$X$X$X$X$X$X$X$X$X$X$X$X$X$X$X$X$XuXuXZ.m @ O # 4 4 4 - , , - * 4 4 n                                                                                                                                                                                                                                                   ",
"                                                                                                                                                                                                                                                                            @ . . X q z z J V V J J J L L L K K F { 6.8.4.3./ E ~ Y z : X X . O u +.%.=.=.*.j.k.k.k.-.#.#.#.#.#.#.#.' _ _ _ _ _ ) ) ) ) ) _ _ _ _ _ _ #.#.#.%.%.%.' #.#.` ` ` ` ` ` j @ . # ,                                                                                                       n @ @ # > > # + + . . . . . % 0 z z z J J J C K ( | 3.3.:.:.:.:.;.;.} } { { ;.;.;.2.$.$.J 5 # + o O # # # # # # # # o o . . . . j f.G.$X$X$X$X$X$X$X$X$X$X$X$X$X$X$X$X$X$X$XG.$XuXZ.m @ @ @ @ > 4 4 , - - @ 4 , @.                                                                                                                                                                                                                                                  ",
"                                                                                                                                                                                                                                                                          f.@ . . X w l d J V V J J J L L L K K A [ 3.6.4.3./ E K I J 5 X O . O j i.#.=.=.*.j.j.k.k.-.#.#.%.#.%.#.#.#.' _ _ _ _ ) ) ) ) ) ) ` ` _ _ _ _ #.#.%.%.i.#.#.#.` ' %.` +.` j * X # 3                                                                                                       m @ , > > @ @ + + + . . . . % 0 z z f J V V C C W | 8.3.:.,.| | } } } } } } { { ;.2.2./ V 5 # # # o O # # # @ @ @ @ # # o . . . j f.G.$X$X,X$X$X$X$X$X$X$X$X$X$X$X$X$X$X$X$X,X,XiXH.j @ @ # 4 4 4 , 3 , , , , 3 u.                                                                                                                                                                                                                                                  ",
"                                                                                                                                                                                                                                                                          f.@ . . X w z z V B V J J J J K K K I E / ;.2.;./ ! ! ^ Q V 8 5 5 6 : u b n b v ) _ O.i.a.+.+.+.+.*.' #.o.' ' ' _ _ ) _ ) ) ) ) ) ) ) ) ) _ O.+.+.+.+.@.) ) ) ) v n n n n n n n n u.                                                                                                      m @ @ * - ; ; ; = % % % % X : 0 g l f z J J V C E X.2.;.;.;.;.;.;.;.;.;.;.;.;.;.;.;.2./ C 8 6 6 6 6 6 6 7 7 7 7 6 6 6 6 : : & 6 s i.c.Z.Z.J.Z.Z.Z.n.c.c.Z.J.n.n.J.J.J.J.n.n.f.Z.C.f.@.n n n n K.u.u.@.@.@.@.n u.                                                                                                                                                                                                                                                    ",
"                                                                                                                                                                                                                                                                            @ . . X 9 k d f V V J J J J J K I I I E ~ ! W ! / ;.;.2./ E I P P l 9 1 1 < ; 9 9 9 i u b @.+.+.&.#.#.#.#.#.' _ _ ) _ _ ) ) ) ) ) ) ) ) ) _ _ O.+.+.U l u u l i 1 < 3 j f.                                                                                                      u.n n j , @ - - 9 u u u 0 w w w w 9 0 s g l f z z V f V I Q / ! ! ! ;.;.;.;.;.;.;.;.[ ;.[ { ;.;.! F P P P P I I I Y ^ Y Y Y Y U U L U z s u j j j j j j i j i j j j j j j j j j j j j i j K.                                                                                                                                                                                                                                                                                ",
"                                                                                                                                                                                                                                                                            # . . X 9 l s f V B f V J J J J K K I I I S C F / 5.:.:.4.4.5.5.=._ ; X . . . . . . X $ u O.+.+.%.O.#.#.#.#._ _ _ ) _ _ ` ` ` ` _ _ _ _ _ _ ' #.#.#.v u 9 9 u - X . # ,                                                                                                       m @ @ @ @ @ - * @ < u l x l k k k k k s s d d f z f f B B C E E E W ! [ ;.;.;.;.;.;.;.[ ;.;.{ { ;.;.{ X.;.;.;.;.2.2.3.3.3.3.3.3.2.| | &.' x = X . . . . . . . . . . . . . . . . . . . . . . n                                                                                                                                                                                                                                                                                 ",
"                                                                                                                                                                                                                                                                            @ o . X q k s z z d f f V J J J J J I I I C C E / 5.,.,.<.:.4.5.$.' 0 X . . . . . o $ X s @.+.+.+.+.%.%.#.#.+.+.@.@._ _ ` ` _ ` _ _ ) _ _ _ _ ' ' ' b u i i j * O O @ @                                                                                                       m , , @ @ @ * * % 6 u x k k k k k k k s s s s f d d f V B C E Q ! ! / [ ;.;.;.;.;.;.;.;.;.:.;.;.{ { { [ { [ { { :.:.:.3.3.3.3.3.3.| | #.' z = X . . . . . . . . . . . . . . . . . . . . . . b                                                                                                                                                                                                                                                                                 ",
"                                                                                                                                                                                                                                                                            @ . . X q j j k k s f f f V J J J J K I I I I E / 5.1.,.:.:.:.;./ ^ 7 X . X . . o # % % s O.+.u.+.u.+.%.%.%.+.+.@.@.` ` ` ) ) ) ) ) ) ) ) ` ` ` ' ' b u i i i - - @ - 3                                                                                                       n @ # @ # @ * % * 6 s z z z s s k k s s s s d d s d f d d V E ^ Q ^ / [ ;.:.;.:.:.;.;.;.;.;.;.;.;.{ { [ [ [ [ { } | ;.3.3.3.3.2.2.| | %.#.L = X X . O O @ O O O @ O 4 @ O O O @ O O O o O O n                                                                                                                                                                                                                                                                                 ",
"                                                                                                                                                                                                                                                                          g.4 . . o < q q q q s f f f V J J J J J K I K K I / 2.:.} >.:.:.:.;.X.a 5 5 6 = ; ; < 5 7 s v ) ` ) ` ) n ) ) ) n v v v v v v v v b b b b b v v v U U b i q q 2 b u.@.n u.                                                                                                      n , @ @ * * * % % 6 e z z d s s s s k s s s z d s d z f f J I Y E E ^ [ ;.:.:.;.;.;.[ ;.;.{ { ;.;.{ { [ [ [ [ { { ;.2./ ( I I I Y U U Y L s * O O o 3 n u.u.@.@.@.K.u.@.@.u.u.u.@.@.@.K.n n                                                                                                                                                                                                                                                                                   ",
"                                                                                                                                                                                                                                                                    g.g.u.2 o . . . @ * * * ; u f f z J J J J J L L J K K K I ^ W W W :.7.q.6.6.;./ / ^ ^ ^ I Y P P s q u i j i i i i q q q 9 9 1 1 < , , , , , - - , < < < < 1 - @ @ - 1                                                                                                                 n , @ O - 1 w w w 0 d d d d s s s s s d d z z z d z z z f V J P C I I [ [ :.;.;.;.;.[ :.;.;.;.{ { { [ [ [ [ { / / / $.I p 6 ; ; ; ; < 5 ; ; % O # @ n                                                                                                                                                                                                                                                                                                                         ",
"                                                                                                                                                                                                                                                                f.3 o # @ o o o . . . . . . X q f f z z J J J J J J J K K K K K E C W 3.P.W.W.P.q.q.x.x.x.x.4.3.5.*.s % O X @ @ @ @ O % O O O X O o o . . . . . . . . . . . . . X . . O @                                                                                                                 n , @ O < u l x s s d d d d d d d d s s d d z d z z z z f f V V B V K W { ;.;.;.;.;.;.;.{ { ;.{ { { { [ [ [ { / / ' #.z 9 X . o . . o $ X % O # @ 3 g.                                                                                                                                                                                                                                                                                                                        ",
"                                                                                                                                                                                                                                                                f.3 o # o o o . . X . . . . X q f f z z J J J J V V V J K C K K E E E :.P.W.I.L.L.I.P.P.I.0.,.:.$.=.e $ % X @ @ @ @ O O O % % $ O O O O o . . . . . . . . . . . X . O o ,                                                                                                                 n @ # O ; q l k s d d d d d d d d d d d d d d s s s s z d f f f d V J [ ;.;.;.;.;.;.;.;.;.;.X./ / / / [ [ [ / / / ^ ^ f : X X . . o o X X O O # > , g.                                                                                                                                                                                                                                                                                                                        ",
"                                                                                                                                                                                                                                                                f.3 # # X . X . . X . . . . . i f f f z z z J f J V V V V C C F C F W :.I.^.I.I.I.I.I.I.I.7.:.} 2.$.r & % $ * * * * * % % % % % O O O O O X . . . . . . X X X X . . O O -                                                                                                                 n @ # X * q k s s d d d d d d d d d d d d z z z z d d z s d z f f f J ! / X.;.X.X.$.$.X.X.X./ / / ^ Q W E E E ~ ^ ^ T z : X X . . . . X O O # # > 3 g.                                                                                                                                                                                                                                                                                                                        ",
"                                                                                                                                                                                                                                                                f.3 O O # O - - * * X X . . X j z z z J J J V V V V V C C C F E F F W <.P.I.L.L.L.L.P.P.P.7.,.} 2.2.r 5 = & : = : : : : 5 5 : 5 : ; ; & ; & * % * % % * % % % * @ . O X @                                                                                                                 m @ # X * q k s s d d d d d d d d d d d d d d z z z z z z f z f f f J / / $.$./ ^ ^ ^ ^ T R Y I I I I I I I P U U U ) k 6 % $ X % % % % O @ # + @ 3 f.                                                                                                                                                                                                                                                                                                                        ",
"                                                                                                                                                                                                                                                                  3 # @ * 1 j k j u * X . . X j f z z J P J J V V I ^ / / ! [ [ [ [ } ,.1.1.1.1.1.1.1.<.6.7.7.7.q.x./ I I P P P U Y I I Y Y Y Y Y L J z z z z z z z d k s s s s 2 O . O @                                                                                                                 m # o X * q k s s d d s d d d d d d d d d d d d z z z z z z z f f f f V V V B p 7 7 7 7 6 6 5 5 5 & = & & = & = ; ; ; ; ; ; ; ; 6 6 6 9 < , @ + # 3 g.                                                                                                                                                                                                                                                                                                                        ",
"                                                                                                                                                                                                                                                                  3 @ O * q v ) v l ; X . . O j f z z z J z V V V ^ ;.4.4.:.:.:.:.,.:.,.,.,.} :.:.:.>.>.:.7.I.W.W.W.8.4.4.9.9.9.k.9.q.q.x.x.x.x.x.5.$./ ' ' ' ' ^ ^ ^ _ Y Y Y ' b * X * ,                                                                                                                 m # o X * q k s s f d s d f f f f z d s s s s s s g g s g f z z d f f f f f s 7 & $ $ $ X X X X X X X . . . . . . . . * q j x x x x x l k q - # # , g.                                                                                                                                                                                                                                                                                                                        ",
"                                                                                                                                                                                                                                                                  2 @ O * q b U v l = X X . O i z z z z J V V V S ^ 2.3.:.:.:.<.:.<.:.:.,.:.:.,.:.:.:.:.:.7.I.I.I.P.7.<.6.6.6.6.w.q.q.q.q.q.q.x.x.4.;./ / / / / ^ ^ ^ ^ ~ ~ ~ ^ b * . O ,                                                                                                                 m # o X * q k s k g s d d f f f f z z d d f f s s g g g g d f f z f f f z z s 9 % X X . . . . . . . . . . . . . . . . X 1 k k k k z x z l q * X # 3 g.                                                                                                                                                                                                                                                                                                                        ",
"                                                                                                                                                                                                                                                                  2 @ O * q v v z s & X X X O i z z z L J J V V S Q :.:.:.>.:.,.3.3.:.:.:.:.:.:.:.:.:.:.>.<.I.I.I.U.L.1.<.6.<.7.7.7.7.0.L.P.P.P.q.:.[ ! ! ! Q Q Q Q Q Q Y Y Y T j - * * <                                                                                                                 m # o . * q k s s g d d d f z z z z z f f f f g g g g z l d d f f f f z z z l 9 % X O O o O O o o . . X X . . . . . . X 9 u s s s s f s s 0 % X O , g.                                                                                                                                                                                                                                                                                                                        ",
"                                                                                                                                                                                                                                                                g.3 @ * ; u v U U x : $ O % - j d z f z z J P D S ! 4.:.:.,.,.,.3.4.3.:.:.:.:.:.:.;.:.:.[ 1.L.L.U.L.1.1.,.,.,.,.1.1.1.1.1.L.7.0.7.:.! G ! ! G Q Q Q Q I I I I I n b b b n                                                                                                                 m # o . * q k s s g s d d f z z z z z f f f f g g g f l g s s s s s s s z l k w * O @ @ @ @ @ @ # # O O O X X X X X X $ 9 u p g g p f d d 0 & X X , g.                                                                                                                                                                                                                                                                                                                        ",
"                                                                                                                                                                                                                                                          u.u.u.l k 0 w s z L U P J s 0 0 u u ; 3 , * - u z J I C / 3.3.:.:.:.:.:.:.:.:.:.:.:.:.:.:.:.:.:.:.:.:.:.:.[ [ { { / E I I E E E ^ / / X.^ S C I S V I I P T s 6 < < < f.                                                                                                                        m # o o o , 1 1 9 9 s f f f d d d d f f d d d d f d d z z 9 * - - @ , - , - < 9 u u 0 0 0 0 0 e e e e e e 0 q q w 9 9 9 e s s s d a a z z 0 * O # > g.                                                                                                                                                                                                                                                                                                                        ",
"                                                                                                                                                                                                                                                        j , , 3 k k k s z L U U P P d s s s u ; # # X O q z P I S X.4.4.:.:.:.<.:.:.:.:.:.:.:.:.:.:.:.:.;.;.;.;.[ [ [ ! / / ~ I B B B V V C C K I I C C I K V I Y Y _ u $ X O -                                                                                                                           m # o . . o X X % : s f f f f f f f f z z z f f J f z f l w % O O O # # @ * - 9 u l k s s s s s k k k z z l k k s s s s s s d d d d d z d 0 * O # , g.                                                                                                                                                                                                                                                                                                                        ",
"                                                                                                                                                                                                                                                        3 + # , q k z z z L U Y P P f f g z s : @ @ X % 9 z P P V / 4.2.2.:.:.:.:.:.:.:.:.:.:.:.:.:.:.:.:.:.[ [ [ [ [ ! / / E K B V V V V V V K V I I I I C V I P U _ u X O X -                                                                                                                           m o o o o O X X $ : s f f f f z z z z s s d f f f f z z l w $ X X X X O O O * 9 s z z z f f z z z z x f f f f f d s s s s s s d d d f d z e = O @ , f.                                                                                                                                                                                                                                                                                                                        ",
"                                                                                                                                                                                                                                                        3 # @ , 9 s z z z z P I P P f s s f s 6 O O O % 9 b U P P #.5.5.4.2.:.:.:.:.:.:.:.:.:.:.:.:.:.:.:.>.;.;.{ { { / / ^ E K d V V V V V V V V I P V V J J P P U ) u % @ O ,                                                                                                                           m # # . # @ X X X % 0 g f f f z f f f l l z x z z z z v l w $ X X X X X X O % 6 s z z d d d d s d d d d d d d d d a d d s d f f d f z z f s : % @ 3 f.                                                                                                                                                                                                                                                                                                                        ",
"                                                                                                                                                                                                                                                        3 o o # 9 s l d d z L P J P f d d z z 7 * * - : 9 k z l g P T Y Y E ! ;.;.;.:.:.:.:.:.:.:.:.:.:.:.:.:.:.:.;./ W E E I V d d f V f V V V V V V V J I P f U U v k j j 2 m                                                                                                                             m j m j @ . O % ; s l z z s s s s s u u u u u u u j k u 9 : % % % % % % * : w d J J f f f f f d z z V d f B V V V V S V V I P J V z J J p : % % < f.                                                                                                                                                                                                                                                                                                                        ",
"                                                                                                                                                                                                                                                        , # O @ 0 s z z z J J J J J V V f J J e u i i 9 1 ; < : : 6 9 7 7 7 V ^ ;.;.;.;.;.:.:.:.>.:.:.:.:.:.:.:.;.;.! F C C V B V J J L J J J J V V f J J P f 7 6 9 u a.                                                                                                                                            m X X X = 9 l z g s 0 0 w w ; : - : - - - , ; < 9 q w w 0 w w 9 0 0 s z L J V V P I L J J J P J J I ^ / / / X./ / / ^ Y V V J J s 6 % % < f.                                                                                                                                                                                                                                                                                                                        ",
"                                                                                                                                                                                                                                                        , . . @ 0 s z z f J P J V J V P J P P d g s g s 6 * * * % % $ $ $ & p #.;.;.;.;.;.;.;.:.:.:.:.:.:.:.:.:.3.;.! C Z V V B f V J J z z z z J f f J z z u % % % -                                                                                                                                               n . X O < u l l l u w 6 ; 6 ; % X O O O X O X O 1 j k s z s s l z d z J J V V K Y E Y I I I Y Y Y ^ $.2.4.4.3.:.;.2.;./ I C L J s : % % , f.                                                                                                                                                                                                                                                                                                                        ",
"                                                                                                                                                                                                                                                        , . X @ 0 s z z f z J J V V V J J J I V f f z l ; % % @ @ O O X X $ u #.;.;.;.;.;.;.;.;.:.:.:.:.:.:.:.:.4.:.! F C C C V V J z L z z z z z d f z z z u $ $ % *                                                                                                                                               n o X X - u k l k u 9 ; ; 9 ; % X X X o . o X O < k l s d s s d z d d V V V V S E E E E E E Y Y Y ^ ;.4.3.:.:.;.;.:.2./ I C L L s : % * , f.                                                                                                                                                                                                                                                                                                                        ",
"                                                                                                                                                                                                                                                        < X O * 0 s z z f V J J J K C V P I I B f f z g 6 % O * O X X X X $ u @./ X.X.X.X.X.;.;.2.;.;.:.:.:.:.:.4.3.{ F C C C V V J J J J z f f z s l s z l u X O O O                                                                                                                                               n X O X - u j l k u 9 ; < w - O . . . . . . . % 9 k x z d d s d d d d B V V V C Q ! ! E E E ~ E E / ;.:.:.:.:.:.:.:.$.^ I P L z s ; % O 1 g.                                                                                                                                                                                                                                                                                                                        ",
"                                                                                                                                                                                                                                                        1 X O - 0 s z f f V J J J K C C I I P V f f f f w : : - - * O O X % q v T ^ ^ ^ ^ ^ ^ ^ X.X.;.;.;.;.:.3.:.;./ F C C K V J J L J J J f f l l s u s u j j i j j                                                                                                                                               n . O X - 1 i u q 9 ; - - ; * O O O O @ % * O * 9 s z s s d d d f d B V V C C F / ;.;.[ ! [ [ [ [ { :.:.<.:.:.[ ! ^ ^ T P z z s u ; * O , u.                                                                                                                                                                                                                                                                                                                        ",
"                                                                                                                                                                                                                                                      ` q ; ; 1 u g f f f J J P J J J P I I P V B B V f s u u u u 1 - - * * < q 0 0 0 0 e p p a B Y E E E E E ! ! ! E S C K K V J J J J f f f d k q = ; < < n                                                                                                                                                       n . O o O X - * * % O X O O % - 1 1 1 9 9 9 < 9 e s d s s d V J J J K K I E E / :.3.4.4.4.4.1.1.1.1.1.7.7.6.:.C p p e u u q q w 9 * O O 4 j f.                                                                                                                                                                                                                                                                                                                      ",
"                                                                                                                                                                                                                                              n j b j j j u u u s f f f f z J P J J J I I I P V V V V J J z z z v u 9 < < * * % $ $ X $ % $ % & 0 J P V I I C E E E E I I I I J P P J L z f f f l 9 X X . *                                                                                                                                                         n . X X O O . X X X X X X X % 9 j j u j u u s s s z d s s d K I Y Y I ~ Q / / ;.4.6.8.7.6.6.1.1.1.1.1.7.7.6.;.a t 6 * * < , ; & = % X O O - , 3 , M f.                                                                                                                                                                                                                                                                                                              ",
"                                                                                                                                                                                                                                              1 O O * 9 k l l l f f f f f z L P P J V I P P P J K V C J V J P z c s w 9 9 ; % X X X . X X X X $ 6 z U J I I I Y I Y Y I I Y I L U P L z z z f f u 1 X . . ,                                                                                                                                                         n O O o O o o o X X . . . X % 9 l l s l l s d d s d s s s z K I ~ Y E ~ Q / ! ;.4.6.6.6.6.7.7.7.1.7.7.6.6.4./ p 5 : = * , * & % % % X O O O @ @ o @ u.                                                                                                                                                                                                                                                                                                              ",
"                                                                                                                                                                                                                                              2 O X % 9 s k s z f f f f f J P I P J V I P P P P C C C C V V P J z s w 6 6 ; % . . . . . . X X % 9 l c z P P P I I I P P U U U U U U U z z z z z l < X . . -                                                                                                                                                         n @ # # @ o . o o o . . . . % w l l s d f d d d d s s s d z J I I I I E Q ! ! ;.4.6.6.7.7.7.0.0.0.7.0.6.8.4.X.a 5 = = = ; * & & $ X . O O O X X X * u.                                                                                                                                                                                                                                                                                                              ",
"                                                                                                                                                                                                                                              1 . X * q s s s s f g f f J J P P P J J P P P P I K I I I C V I J V s 0 0 w 6 ; % # @ # o . . O @ < q s s s f f d z z f z z z z z z z z x l l s s k 9 q q j m                                                                                                                                                           b m m j # o o . o # @ @ @ 6 0 g z d d d d d d d d s s s k V V V V K E Q / ! ;.3.6.6.7.6.,.5.5.3.2.2.2.X.X.~ B e e 0 0 0 0 0 0 6 ; ; < ; - O X X * n                                                                                                                                                                                                                                                                                                               ",
"                                                                                                                                                                                                                                              3 O X % w s z z s f f f f z J J P I P J J P V P I ~ ^ ^ E V V V B V d s u u u q 9 M M 2 > + + # @ O * ; ; : 6 7 6 6 6 6 6 6 0 0 0 w w w w w 6 6 ; < u.                                                                                                                                                                          j # o o @ 3 2 2 2 w s z z s d d d d d d d s s s s p p p a B I Q / ! ;.:.6.7.7.,.[ E E I K C V B N V I ^ ^ #.T T ' _ #._ _ +.@.n b % O X X , n n n n n @.u.u.u.u.u.u.u.g.g.g.g.g.f.g.g.g.g.u.                                                                                                                                                                                                                                                              ",
"                                                                                                                                                                                                                                              2 O X % w s z z z f z f f B V P P J J J V K K C ! / / / ^ I V B V z z f f f f f d s l u - X O - - O X . X o + . + . O . O @ o @ # # @ @ @ @ @ O O ,                                                                                                                                                                             n . X X ; 0 s l s s s s z z z d z s l l s s d s e s s s p d I E ! ! [ 4.6.4.8.;.Z p s e e u u 0 0 a ;.q.q.q.q.q.q.0.P.P.I.P.W.x.' 5 X . o . . + + . X . . X X X O O @ @ - - - - - , , , @ 4 n                                                                                                                                                                                                                                                             ",
"                                                                                                                                                                                                                                              1 X X * w s z z z f z f f V J P P J J P J I I C / / / / ^ S B f V f f f f f f f f l l u : X O - - X . . . . . . o . O . O @ @ , # # @ @ @ @ @ O O ,                                                                                                                                                                             b O X X ; u l z s s d s d z d d z s s s s s d d d s s s p B I ! ! ! [ 4.8.4.4.{ H e s e 0 u 0 0 8 a / 8.7.7.q.q.q.0.0.7.q.q.x.x.' 5 X . . . . . . . . . . . . . X X O O * * - - - O * * @ @ n                                                                                                                                                                                                                                                             ",
"                                                                                                                                                                                                                                              1 X X % 9 s s d d f z f f V P P P J L P J I I C / ! / / E C N a f d d z z f f f z f z u = X * ; < O X X X X o o o O . o # o @ @ @ , , , , , , , - 2                                                                                                                                                                             n - O * 9 u l l s s z z z d d z d s z d s s d d d s d d p B I Q ! / { 3.8.4.4.{ Z e p e e s e e 8 H [ 6.7.7.q.q.q.q.q.q.x.x.x.h.#.6 % X O X X X X . X X X X X X % * * : ; ; ; ; ; : : * % O n                                                                                                                                                                                                                                                             ",
"                                                                                                                                                                                                                                              < % % & w s s d s f z f f V J J J L L L J J V V ~ W ! ! E C V V V V f f z z z z z f z s 6 : 6 w 9 % $ $ $ % O X O O . o o . O @ m n n n n n n n n n                                                                                                                                                                               b b n j q u u u e s z z d d z d d s s d d d d d f V V B C E ! ! / ! / 2.2.2./ Z p p p d J J V C A :.q.q.q.6.;.{ / ^ ^ ^ ^ ^ T U 0 7 6 6 6 6 6 : ; < ; ; 6 6 w s s s f f f f f f d e 6 6 6 v                                                                                                                                                                                                                                                             ",
"                                                                                                                                                                                                                                            ` u 9 9 w 0 s d d d d z f V V V V V J J z d d d B ~ [ ! ! ! E E E Y Y J f z z z z z V J z s s s k s 0 w 6 6 6 ; - < @ O . . # # 3 Z.                                                                                                                                                                                                        i < ; ; 6 e z z d z z d d d d s s d d J I Y Y I E / / / ! E S K E E K N p r p J ' 2.2.:.:.0.P.q.q.3.Z 8 6 6 6 6 6 6 7 0 U Y Y Y Y I I P I I I I T ^ X.5.x.x.x.x.x.x.x.x.k.$.Y I U v u.                                                                                                                                                                                                                                                          ",
"                                                                                                                                                                                                                                    - O O - 1 j k k s s s d d d d z V V B B V d d d d s d d d ' ;.{ { { { X./ ' ' Y J f L L z L V K K J L L L z z f d d s q 9 q < @ . . # # 3                                                                                                                                                                                                           j O O O ; w z z k z z d d d s d d d d J E ^ ^ ~ / / / ! E C N a a B a p p p a I 5.x.q.q.0.P.P.W.x.2.8 & $ $ % X $ $ & 0 $.5.5.5.5.5.5.5.4.5.4.5.4.4.q.^.'.'. X X X X X X_.x.3.2.$.z : X . # n                                                                                                                                                                                                                                                   ",
"                                                                                                                                                                                                                                    @ # O * q l k l l d s d s d f z V V V B B d d d d s s s d ' ;.;.{ { ;.2.2.$.' I V V J J L L C C K K K L J J J f d d s 0 w w 2 # o . o o 3                                                                                                                                                                                                           j O X O & w z z d z z d z d d z d d z L E / / / ! / / E ^ I N p p a p d a p a E 4.q.7.0.L.I.P.x.x.2.r 5 % O O X X X % 0 ' 5.3.3.4.4.:.3.:.:.:.:.:.,.7./././.|.[.[.[.[.[.^.7.| { 2.L 5 X X # m                                                                                                                                                                                                                                                   ",
"                                                                                                                                                                                                                                    @ O X O 9 u k l z z d d d d f z J V V V B d d d d s s s d _ { { { / / / / / / E B B C C C K F F ] K I K K J J B d z d 0 w w 3 . o o o # 3                                                                                                                                                                                                           j # . . & 0 z z d z z d z d d z d d d J W ! / W W / / ^ ~ I B a d d s d p p a F 4.0.7.L.L.P.q.x.x.$.p 5 ; % % X O $ $ 8 / 3.8.:.<.<.:.:.:.:.:.,.,.,.1.Q././.[.[.[.[.[.[./.0.:.{ { V 5 $ X * n                                                                                                                                                                                                                                                   ",
"                                                                                                                                                                                                                                    @ O X % 9 k l k d d d d d f d z J V C K K K J J d s s s d U / W E ! / ;.;.{ / F C A A A F W W W ( E E K K K K V J d z 9 : ; @ @ 3 2 m j n                                                                                                                                                                                                           m # . # % e l k z z d z d d d z d d J L W W / / W E E E I J d p p d f z B N N W ,.7.L.L.7.7.6.8.5.#.f e 6 6 6 6 : & 7 e { 3.8.<.<.<.:.:.,.,.6.,.:.<.7.I.W.Q.Q././././.Q.I.L.,.} { C 8 5 & ; n                                                                                                                                                                                                                                                   ",
"                                                                                                                                                                                                                                    @ X X O 9 k l z d d d d d d f V J C K E ~ ~ I K d s e 0 e d N N N C E / ;.;.{ W G W [ [ [ } { { { ( E K K C K V J J z ; % $ @ o g.                                                                                                                                                                                                                  m # + @ $ w k x z z d d d d d z d d d J E W ! W E C V V V f d s s d z U ^ E ! :.0.P.L.L.1.[ A F I I Y T Y U P P P V D F { 3.,.,.,.<.<.:.8.8.3.3.3.:.6.7.6.6.7.7.7.7.7.7.7.1.} :.3./ V d z k b f.                                                                                                                                                                                                                                                ",
"                                                                                                                                                                                                                                    @ X X % 6 k k z d d d d g g z J I I E ( / / ' ~ J d p e 0 p e 8 8 a E / { ;.;.{ [ :.:.,.<.7.8.8.4.{ E E E K I K L L z % $ . . o                                                                                                                                                                                                                     j + + o * u k k x z s d d d d d d d d J E E / E K B a d p p p s p d J ^ 2.2.;.8.q.P.P.P.:.A H 8 8 B ^ =.2.$.$.$.5.2.2.3.3.:.<.,.,.<.:.:.8.,.3.3.3.3.:.:.:.:.:.<.<.<.<.<.1.,.:.,.8.| ( ~ Y _ v < @ # , 2                                                                                                                                                                                                                                         ",
"                                                                                                                                                                                                                                    @ o X X 6 s z z d d d d f f J P I I E ! / / / ~ V d p e 0 0 e e 8 p ~ $./ ;.{ { { :.:.<.1.6.4.8.4./ E I ~ I K J J U U = X X . @                                                                                                                                                                                                                     m # # o * u l k k z d z z d d z d d d J E ~ / ^ I V d d d p p s p p J ' ;.;.;.6.q.P.q.q.3.C N N r N ^ $.2.X.X.2.5.5.4.3.6.,.<.<.<.3.:.3.6.,.:.3.3.3.:.:.:.:.:.:.:.6.6.,.<.,.:.3.3.2./ ^ ' Y ) ; X . o 2                                                                                                                                                                                                                                         ",
"                                                                                                                                                                                                                                    # . . X 6 s z z d d d f l l J P I I E W ! / / ~ B e p e 0 8 8 8 7 p ^ 2.;.2.3.;.;.3.3.4.8.8.4.8.5./ E I ~ I K Y L U ) ; . . o 3                                                                                                                                                                                                                     m # @ # O 9 l l z z x k z z d z d d d J E ~ ^ ^ I J f d d s e p p a C ^ X./ ;.4.q.q.x.x.2.K a a p B Q X.;.;.;.3.4.:.:.:.<.:.:.4.4.3.:.4.:.4.:.4.:.:.:.:.:.:.:.:.:.3.3.3.3.4.3.3.4.3./ / ' Y U 6 % O # j                                                                                                                                                                                                                                         ",
"                                                                                                                                                                                                                                    # . . X 6 k z z z f f f l l V P I I E W ! ! / E V a a p p p p p r d Y / / / ;./ { { 2.3.3.3.3.5.2.^ I K I I L U z z l b j j 2 m                                                                                                                                                                                                                       m m m b i q u e s z k z z z z d d d z I I Y I J z d d d s p d B B K ~ / { ;.:.:.3.3.5./ K d d a V Q ! ! ! ;.:.:.:.:.:.:.:.:.4.3.;.{ ;.;.:.;.;.{ { { { { { { { ;.;.;.2.2.2.2.| 2.{ / ~ ^ Y L ; X X o M                                                                                                                                                                                                                                         ",
"                                                                                                                                                                                                                                    # . . X < k s z z z f f g g V P I E E W ! ! / / E I I P V P P P P J V V C C V C C C K I I E F E E C B d d d e 0 9 9 9                                                                                                                                                                                                                                         n * = = 6 k k z s s s d d d z V V V z f d s s s d J K K I E ~ ! ! [ W F A F E I Y Y I I I F G F F ! :.:.,.,.<.:.:.:.4.;.W F F I Q I I S I I S K K K K K K K K E E E E E E F ] I I L 6 X X # 2                                                                                                                                                                                                                                         ",
"                                                                                                                                                                                                                                    # . . X < k s s d z f f g g V P I I E W ! ! ! / ^ ^ ^ ^ ^ ^ T ^ ' I a e 8 r r a N N N B B B N B B N a d d d s & & $ %                                                                                                                                                                                                                                           X X $ 6 s k z s s s s d d d d d d d s s s s s z Y ~ ^ ^ ~ / ! [ [ F Z H N B J Y ' ' ' / F G F F W :.,.<.<.<.3.:.3.4.! A Z Z a a a a a a a p p p d d d d d d d V B B C C C C K K J 6 % . @ M                                                                                                                                                                                                                                         ",
"                                                                                                                                                                                                                                    o . . . 1 j j k k z z z d d V S I I E E / / / / ! ! ! E W / ^ / / Y B e e d s d d d d d B B z z d d p p d l i * @ @ #                                                                                                                                                                                                                                           # o X = u k d d d d d d k z d d d d d d s s d d I ^ E W ! W ! / / I a p p d a I / / / Q E ^ E E ! :.,.,.:.:.3.2.2.5./ C N B B B d d d d s s s s s s s s s s d d f z J J L P U U z ; % X * 2                                                                                                                                                                                                                                         ",
"                                                                                                                                                                                                                                    o . . . - i j k k z z z d d V S E I E E / / / / E E W E E / / / / E B a r a p p d d B B B B d d d a r r d s 9 O # > @                                                                                                                                                                                                                                         u.o o X = u k d d d d d d d k d d d d d d d s d V I ^ E E ! W E / Q V p r r p a I ^ / / Q E ^ E E ! :.8.8.,.,.4.2.2.2./ K B B J V d d d z z z s k s s s s s s z z z z L L P P U U z ; * X * q                                                                                                                                                                                                                                         ",
"                                                                                                                                                                                                                                    m j j j q q q q u s z z d d V I I E E E / / / / W W W W W { { { ;.! F Z C C C C C C C C C C K C C C N a B z u * O # o                                                                                                                                                                                                                                         u.o X . : u l s d d d d d d d d d d d d s s d d V Y ^ Q E ! W W / ^ I B a a a B I Q / / Q E E Q Q Q ;.2.3.:.;.;.{ X.$.^ V B V z z s s s s s s u 0 q q q q q q e u u s s s s s l l j ; @ X @ M                                                                                                                                                                                                                                         ",
"                                                                                                                                                                                                                                            u.< * = 6 0 d z d z V I E I E ~ / / / / W W ! W / 5.6.7.7.6.<.:.:.3.3.3.3.3.3.3.:.3.3.3.3.;.! E ^ ^ s % X # #                                                                                                                                                                                                                                         u.o X . ; u l k d d d d d d z d d d d z z s d d V Y ^ ^ Q ! ! ! ! ^ E I I P P I Q ^ / / E I I I I Q Q ! ! W E E E Y Y I V d V x s 9 6 : ; ; ; ; ; ; * * * * * * ; = : : ; ; ; ; ; < O # + @ M                                                                                                                                                                                                                                         ",
"                                                                                                                                                                                                                                              * X X % 0 s z f f V I E I E ( / / ! ! W W W W ;.q.L.I.I.I.I.P.I.I.P.P.P.P.P.P.P.P.q.q.q.6.:.{ X.$.s & X @ @                                                                                                                                                                                                                                         u.X X X ; u k k z d d d d z z z z z z z d d d d V I ^ ^ Q ! ! W ! Q ^ ^ ^ ^ ^ ^ ^ ! ! ^ E I I P P P S S S C C C V V V V d z J l q = % X X X X X X X . . . . . . . . X X X X X O O O O # @ > j                                                                                                                                                                                                                                         ",
"                                                                                                                                                                                                                                              1 O X % 0 g z f f V I Y I E E / ( ! ! W W W W ;.q.I.I.I.I.I.I.I.W.I.I.I.I.I.I.I.P.q.q.q.8.:.{ / ' d % X O #                                                                                                                                                                                                                                         u.X X X ; u k k z d d d d z z z z z z z z z d d V Y ^ ^ ! ! ! W W ! ^ Q ^ ^ ^ Q ^ Q ! ^ E I I D P P S S S C C V V V z z z z z b q * X . . . . . . . . . . . . . . . . . . . X O O o # # # # M                                                                                                                                                                                                                                         ",
"                                                                                                                                                                                                                                              < O O % 0 l z f f V I Y I E E / / ! W W ! ! W ;.q.I.I.I.W.I.I.I.W.W.W.I.W.P.P.P.P.q.q.q.8.;./ / ' s $ X O #                                                                                                                                                                                                                                         u.o . X ; u k k s d d z k z z d z z z f z f V B V ~ / / ! ! ! ! ! ! E E E Q Q E Q Q Q Q E K I P P P P I I I J J J z z k l x x l q * X . . o o . . . . . . . . . . . . . o o X . . . @ @ 4 > j                                                                                                                                                                                                                                         ",
"                                                                                                                                                                                                                                              1 X X % w k z f f V P Y I I E / / ! W W [ { { :.q.0.0.P.P.q.q.q.q.q.q.q.8.6.6.6.6.3.3.4.2.! E Y Y s % X % .                                                                                                                                                                                                                                         u.X . . ; u k k s s d d z k k d d d d f V V V V K ~ / ! ! ! ! W W E E I I I Y I E E ^ ^ I K K V P P J J K I L d d s s u j k j j 1 * . . . o o . . . . . . . . . . . . . . o o o # 4 j m m m u.                                                                                                                                                                                                                                        ",
"                                                                                                                                                                                                                                              3 O O * 9 s z f f f J J K K E ! / W { ! { :.:.4.! W W ! ! ! ! ! ! / ! W E E E F C K K K J V f z z 0 : * - 1 n g.f.                                                                                                                                                                                                                                  g.. . X * j k k k z z d d d d d d d B J I E E E E ! ! ! ! W W ! ! E I K V V K C S I I I I J J f J J J J J J z 0 6 ; < < < < < , * X . . . o . . . . . . . . . # . . . . . . . . O 3                                                                                                                                                                                                                                                   ",
"                                                                                                                                                                                                                                              3 O X * 9 s z d f f z V V C E W / W { [ 8.8.8.4.A B B B Z C C C C V B B N N a p r e e e e e 0 0 0 0 6 9 9 1 3 3 3 3 j                                                                                                                                                                                                                               u.. . . * q u k k s s s d d z d d d V K ~ / / ! ! ! / ! W W ! ! ! E I V B B V V V V V K V d f d z J J J L z z 6 % % * O @ @ X O X . . . . o o . . . . . . . . . . . . . . . . . # m                                                                                                                                                                                                                                                   ",
"                                                                                                                                                                                                                                              3 o X * 9 s z f f f f V V V E E / ! { { 4.8.8.4.Z a a d B B V V B d d d p s e e e 0 e 0 w 0 0 e u 0 9 i u i - # # @ ,                                                                                                                                                                                                                               u.. . X * q q k k s k s s d z d d B V I / / { / { ! ! ! W ! [ / / ^ I V f d B B B B V J f s d d d z z z x z k ; % X X . . . . . . . . . . o o o o . . . . . . . . . . . . . . . . j                                                                                                                                                                                                                                                   ",
"                                                                                                                                                                                                                                              3 o X * w s z f f f z f V V E ! / { { { 4.8.8.5.Z p r p a B B d a d d p e e e e e 0 0 0 0 0 w 0 0 0 0 0 u u * X @ @ ,                                                                                                                                                                                                                               u.o o X * q u u u s k s s z z d d d V I / / { ;.{ [ [ ! ! ! ! / / ^ Y J d d f f f f f J z s k s k z z x x x k ; * O O o o o . . . . X . . o o o o . . . . . . . . . . . . o . @ @ m                                                                                                                                                                                                                                                   ",
"                                                                                                                                                                                                                                              3 X X * w s z d f z z f V V I / { { { { 4.4.5.;.C N B a N B B B a a d a p r s s d e e e e e e p p p a p s z % X O O *                                                                                                                                                                                                                                 m m j j 1 9 9 w 0 s s s z z z z z J I ^ / / / / { { { / ! W E ~ ~ I V d d f d d d f z s q q q q u s s k k u ; @ X o o o o . . . o o . . . . . . . . . . . . . . . . . o j m m m f.                                                                                                                                                                                                                                                  ",
"                                                                                                                                                                                                                                              3 + X * w s z d f f f f d V I / / { ! W / / W E E E E E E E E E E E E E I I I I Y E I I I I Y Y ~ ~ Q I Y ' 0 6 9 q 1 u.                                                                                                                                                                                                                                      9 O % % ; 0 s s s z z z z J J I E E E E ! / / / E S C K J J d s p s p s s s s w ; ; * - ; ; < 1 < < * O o o . . o . . . . . . . . . . . . . . . . . . . . . . 1 Z.                                                                                                                                                                                                                                                          ",
"                                                                                                                                                                                                                                              3 # X * w s d d d d d d d V I / / { / F A Z B C / ;.;.;.;.;.;.{ { { { { { / $.$.$.{ { 2.2.2.2.2.2.5.5.2.2.2.d e q j 9 1 < , 2 2                                                                                                                                                                                                                               i X X X % w s s s d k x z z V J K C C F Q / / ^ I V f d d d s s p s p p e e e < % X . . X X O @ @ # # o o o o o o . . . . . . . . . . . . . . . . . o . . . . m                                                                                                                                                                                                                                                             ",
"                                                                                                                                                                                                                                              3 # O * w s d d d d z d d V I / / { W A N B N N ^ 2.3.3.3.;.;.{ { { ;.;.2.2.2.2.2.:.3.3.3.2.2.3.3.3.3.4.5.h.d z r j j < * @ - o                                                                                                                                                                                                                               i X . X % w s s s d k x z z d V V C C E / / $./ I V d a d s s s p p p p e e e < X X . . . . X O # # # o o o o o o . o . . . . + . . . . . . . . o o # . o o o m                                                                                                                                                                                                                                                             ",
"                                                                                                                                                                                                                                              2 , * < q j k s k d z f d V I / X./ / C N B B d ' { :.:.{ { [ [ } } } :.:.:.:.:.:.:.:.<.<.,.1.1.1.<.<.<.4.4.C r r d 0 ; O # # #                                                                                                                                                                                                                               j O . . * q s d d d z z z z f J V J V I ^ ' $.^ I V s s s s s s k u u u j u 9 < O . . . . . o o # # # # o o o o o o . . o o . . . . . o . # > @ , > - - @ , @ b                                                                                                                                                                                                                                                             ",
"                                                                                                                                                                                                                                                n n n l q u s k d z z f V Y ^ / / Q C B B B B ~ { :.;.{ :.:.} :.} :.,.<.,.,.:.:.<.<.<.<.1.1.1.1.1.7.6.6.4.C N N d s 6 % # @ @ J.                                                                                                                                                                                                                            m # . . * q s d d d z z z f f V V J B K ~ ^ ^ ~ I B s s s s w w q w w q 9 9 < * X . . . . . o o + # # # o o o o o o # . . o # o . . . . . 3 n u.g.g.u.u.u.u.u.                                                                                                                                                                                                                                                              ",
"                                                                                                                                                                                                                                                      u.< ; ; 6 s z z f V I E Q E E E C E K C ' { { [ { <.6.7.7.<.7.7.0.0.7.0.q.0.P.P.P.L.P.L.L.L.P.0.q.q.W K ] P U w $ X @ # n f.                                                                                                                                                                                                                          j # o X : q s d d d z z f z d f V V V J I I I K V B k k k q : = = * * * * * @ X . . . . . . . o o o o X o o o o o o o o . . o o o o o . . n                                                                                                                                                                                                                                                                                 ",
"                                                                                                                                                                                                                                                        < X % = s d z f f V I I I E ^ / / / ~ / { { [ :.6.q.P.P.P.P.I.I.I.I.P.P.I.I.I.W.I.I.I.I.I.I.I.W.W.;./ / ^ $.s % X # o , - 3 1 j                                                                                                                                                                                                                     m # o X : q s d d d z z d d d d d V V J J V f d d d s s s 9 $ X X . X . . . . . . . . . . . . . o o o o o o o o o o o @ o o # . o o . . o u.                                                                                                                                                                                                                                                                                ",
"                                                                                                                                                                                                                                                        1 O % ; e d f f f V V V C I / $.2.{ / | ;.{ [ >.6.P.P.P.P.P.I.I.I.I.I.I.I.I.I.Q.T.T.I.I.I.T.I.W.W.:.[ { $.=.s = X X O O @ o @ 1                                                                                                                                                                                                                     m # o X ; q s d d d d d d d d d f V V V V f f d f d k k u < X . . . . . . . . . . . . . . . . . . o o o o o o + o X . o o + # o o o o o o u.                                                                                                                                                                                                                                                                                ",
"                                                                                                                                                                                                                                                        < X X ; s f J z f f V V V K / X.{ { [ { [ [ [ } 6.P.I.I.I.L.I.I.I.I.I.I.I.I.I.I.T.T.I.T.I.I.I.I.W.:.[ { X.X.p = $ X O . X . # 3                                                                                                                                                                                                                     m # . X ; q s z d d d d d d d f f V f J J z z z z z k k u 9 O . . . . . . . . . . . . . . . . . . . . . o o o + # # @ o @ # # @ @ @ @ # # g.                                                                                                                                                                                                                                                                                ",
"                                                                                                                                                                                                                                                        1 O @ < p f J J f f J V V K / / / { [ { [ [ [ } 7.q.P.P.P.P.P.L.L.L.I.I.L.I.I.I.I.I.I.I.I.I.I.I.I.:.} | X.X.f 5 : = * * X . @ 2                                                                                                                                                                                                                     m # X X ; q s z d d d d d d d f z z z z f s s s u u j u q < X . . . . . . . . . . . . . . . . . . . . o o o + # # # # @ m m m m m j m m m                                                                                                                                                                                                                                                                                   ",
"                                                                                                                                                                                                                                                        2 @ @ , p f J z z z z J J J / { { [ [ [ } :.} } <.6.7.1.1.1.1.1.7.1.7.7.0.0.L.L.L.L.L.L.L.L.0.7.0.} [ | X.$.C 8 0 0 9 9 * X # 3                                                                                                                                                                                                                     m @ O O ; u k z f d d d d d d z z z z s 0 6 ; ; ; < < , - @ . . . . . . . . . . . . . . . . . . . . o o o + # # # # @ j                                                                                                                                                                                                                                                                                                     ",
"                                                                                                                                                                                                                                                        3 , # 3 s L z L z L z d V K ~ { { [ [ } } :.:.:.:.:.:.:.,.,.,.,.,.,.,.,.,.,.1.1.1.1.1.1.1.1.1.1.,.:.{ :.;.X.C B f z v u * o # 3                                                                                                                                                                                                                     m @ O X ; u s s d d d d d s d z z z z u : $ O % O O O X . . . . . . . . . . . . . . . . . . . . o . # o # # # # # @ @ n                                                                                                                                                                                                                                                                                                     ",
"                                                                                                                                                                                                                                                        2 @ # , e z z L z z z z d J E / { W [ | ;.:.:.:.:.} } } ,.:.:.:.:.,.,.,.:.:.,.,.,.,.,.,.1.,.,.<.:.:.{ ;.X./ C B f z v u @ o # 3                                                                                                                                                                                                                     m @ O O ; u l z d d s s s s s s l l l q : O X X X X X . . . . . . . . . . . . . . . . o . . . . . . o o o # # # # @ , n                                                                                                                                                                                                                                                                                                     ",
"                                                                                                                                                                                                                                                        j @ , 1 s z z z z z z z d V I / / ( { 3.3.3.3.3.:.:.:.:.:.:.:.:.:.:.:.<.:.:.:.:.3.:.:.:.<.:.<.<.:.:.;.2.X./ C B f f z q @ o + 3                                                                                                                                                                                                                     m @ O O ; u l z d s s s s s s k k l k i - X X X O # o o . . . . . . . . . . . . . . . . . . . . . o o # # # @ @ @ @ @ n                                                                                                                                                                                                                                                                                                     ",
"                                                                                                                                                                                                                                                        u.n n m v s k k s z z z d J K ~ ~ E ( / ;.;.;.{ { { { { { { { { { { ;.;.;.;.;.;.;.;.;.;.:.;.;.:.;.;.;.2./ / C V B f z q @ . + 3                                                                                                                                                                                                                     m * O * < k l z s p u q w w q q q u q < * X o o # # o o o o . . . . . . . . . . . . . . . . . . o 3 m n n n n n n n n                                                                                                                                                                                                                                                                                                       ",
"                                                                                                                                                                                                                                                                @.q < 6 < w s d s d J J J V C K I I I E F F F F F F F E E E E E E E E E E E E E E E E E E E E E Y ~ V V B f x w O . . >                                                                                                                                                                                                                     m > @ * 1 k z z s 0 ; * % % * * * * * O X o o + + + o o o o o o o o . . . . . . . . . . . . . . @ m                                                                                                                                                                                                                                                                                                                         ",
"                                                                                                                                                                                                                                                                f.1 O O $ ; e s s s s d d d d d f f f B B N Z Z Z Z V V V V V V V Z V V V V V V C V V V C C V V V I B B f f x w O . . ,                                                                                                                                                                                                                     n , * * 9 k l z s 0 O X . . . . . . . . . o + + + + o o o o o o o o o o o . . . . . . . . . . . , n                                                                                                                                                                                                                                                                                                                         ",
"                                                                                                                                                                                                                                                                f.3 X . X ; u s s s s s s s s s p f f f a a f f f f f f f f f f a f B V V V V V V V B B V V V V f P B V f f x w O . . ,                                                                                                                                                                                                                     n , * * 9 k l x s 0 @ . . . . . . . . . o + + + + + o o o o o o o # O O o . . . . . . . . . . . @ u.                                                                                                                                                                                                                                                                                                                        ",
"                                                                                                                                                                                                                                                                f., O . X ; u e u u s s s s s s g f f f f f f f f f f f z f f f f f B V V J V J V V B B V J J J P I V V V f z w O . . >                                                                                                                                                                                                                     n , * * 9 k z z s 0 @ . . . . . . . . . . o + + + + o X o o o O O @ # # o o . . . . . . . . . . # u.                                                                                                                                                                                                                                                                                                                        ",
"                                                                                                                                                                                                                                                                  n j m j 1 q 2 q q q q q q i i u j j j k k k k k k k k k k j j u j k k k k j j j j j j j k l l l l k k l l j q X . . -                                                                                                                                                                                                                     f.m m m j j j j j q + . . . . . . . . . . . . . o o . o o o o # # @ 3 m m n m m m m m m m m m m n                                                                                                                                                                                                                                                                                                                           ",
"                                                                                                                                                                                                                                                                          n 1 * * * * * * * - - ; < < < < < 9 9 < < < 1 1 1 < < ; < < < < < ; < ; < ; < ; < 9 9 9 9 9 6 9 9 < - X . . 4                                                                                                                                                                                                                             f.m 2 < , > + . . . . . . . . . . . . . o o o o o o # # @ @ n                                                                                                                                                                                                                                                                                                                                                       ",
"                                                                                                                                                                                                                                                                          n., . . . . . . X X X O O O O O O % * % % * * * * % O O O O O O O X O X O X O X O % % % % % % % % O X O . . -                                                                                                                                                                                                                               m * @ @ X o . . . . . . . . . . . . . o o o # # # # @ @ @ u.                                                                                                                                                                                                                                                                                                                                                      ",
"                                                                                                                                                                                                                                                                            , . . . . . . . X X O O O O O O O O O O O O O O O O O @ O O O X . X . X . X X X O O O % O O O O O O O . . -                                                                                                                                                                                                                               m * @ @ X o . . . . . . . . . . . . . o o # # # # @ @ @ 4 u.                                                                                                                                                                                                                                                                                                                                                      "
};
