/* XPM */
static char *d01e96aec01040d2cd147604f826616cTs8Y5R37uGW8Ucx2[] = {
/* columns rows colors chars-per-pixel */
"500 500 256 2 ",
"   c None",
".  c #030302",
"X  c #0B0301",
"o  c #050904",
"O  c #0B0A04",
"+  c #030509",
"@  c #050A0A",
"#  c #0B0B0A",
"$  c #0A050A",
"%  c #130300",
"&  c #1B0300",
"*  c #130B03",
"=  c #1B0B02",
"-  c #140D0A",
";  c #18120A",
":  c #191815",
">  c #0C100F",
",  c #250801",
"<  c #29170A",
"1  c #341C0D",
"2  c #3B1D0C",
"3  c #371905",
"4  c #2D1C14",
"5  c #261C17",
"6  c #331E14",
"7  c #361E17",
"8  c #320700",
"9  c #3A220C",
"0  c #2D221B",
"q  c #292119",
"w  c #342214",
"e  c #3B2314",
"r  c #34231B",
"t  c #3B251B",
"y  c #3C2A1C",
"u  c #382919",
"i  c #393018",
"p  c #2A2725",
"a  c #3C2B23",
"s  c #362A25",
"d  c #3D332B",
"f  c #3B3327",
"g  c #393834",
"h  c #2F302D",
"j  c #1F211F",
"k  c #441D0A",
"l  c #45240B",
"z  c #432514",
"x  c #43261A",
"c  c #442B1D",
"v  c #4B2C1C",
"b  c #492915",
"n  c #532D19",
"m  c #49361B",
"M  c #53321D",
"N  c #5B341C",
"B  c #553A19",
"V  c #51320B",
"C  c #64381C",
"Z  c #6A3117",
"A  c #442C23",
"S  c #4A2D22",
"D  c #442C28",
"F  c #443324",
"G  c #4C3224",
"H  c #4B3B23",
"J  c #43342B",
"K  c #4B352B",
"L  c #443A2C",
"P  c #4B3B2B",
"I  c #453A24",
"U  c #533423",
"Y  c #5C3A24",
"T  c #543B2B",
"R  c #5C3C2B",
"E  c #563725",
"W  c #463B33",
"Q  c #573D32",
"!  c #522D22",
"~  c #633C24",
"^  c #633D2A",
"/  c #693B26",
"(  c #703B2B",
")  c #57421C",
"_  c #4B422A",
"`  c #584329",
"'  c #4B4338",
"]  c #5C4B3C",
"[  c #574638",
"{  c #5B513D",
"}  c #64422C",
"|  c #6C442C",
" . c #694528",
".. c #73452C",
"X. c #74492D",
"o. c #7A4B2C",
"O. c #764627",
"+. c #79572C",
"@. c #644433",
"#. c #6B4632",
"$. c #6C4A34",
"%. c #674B39",
"&. c #744B33",
"*. c #7A4D32",
"=. c #734935",
"-. c #6A553C",
";. c #7D5234",
":. c #7C543A",
">. c #765838",
",. c #6B532B",
"<. c #7A6338",
"1. c #79612F",
"2. c #6C461C",
"3. c #4C4945",
"4. c #544B43",
"5. c #5B4D43",
"6. c #534D49",
"7. c #5D5245",
"8. c #54524D",
"9. c #5C534B",
"0. c #585547",
"q. c #5A5753",
"w. c #4F504D",
"e. c #634E43",
"r. c #635344",
"t. c #6B5543",
"y. c #6C5A43",
"u. c #63544A",
"i. c #69594B",
"p. c #775A45",
"a. c #675C53",
"s. c #745B50",
"d. c #796546",
"f. c #6B6359",
"g. c #7C6B5C",
"h. c #786556",
"j. c #756951",
"k. c #6D6A66",
"l. c #726D6B",
"z. c #786C63",
"x. c #75716D",
"c. c #7B736A",
"v. c #797572",
"b. c #746E6E",
"n. c #5E5F5E",
"m. c #3E413C",
"M. c #835434",
"N. c #8C5A35",
"B. c #82563A",
"V. c #845A3C",
"C. c #8C5B3B",
"Z. c #875836",
"A. c #935B39",
"S. c #854F2F",
"D. c #A65B3A",
"F. c #866639",
"G. c #96653C",
"H. c #8E6E35",
"J. c #AA673D",
"K. c #865C44",
"L. c #965B48",
"P. c #A75D45",
"I. c #886546",
"U. c #986846",
"Y. c #997648",
"T. c #826D5C",
"R. c #866955",
"E. c #976956",
"W. c #88755B",
"Q. c #977857",
"!. c #89724A",
"~. c #A76847",
"^. c #B56949",
"/. c #A5774A",
"(. c #A76A55",
"). c #A77955",
"_. c #BA7658",
"`. c #B86F50",
"'. c #847363",
"]. c #8A7868",
"[. c #937D6B",
"{. c #957A66",
"}. c #897C73",
"|. c #8C7468",
" X c #AC7867",
".X c #C57A56",
"XX c #C7754D",
"oX c #C57C63",
"OX c #823C25",
"+X c #988258",
"@X c #A8844A",
"#X c #A98656",
"$X c #B88B57",
"%X c #BC9259",
"&X c #B48B4E",
"*X c #94816D",
"=X c #988369",
"-X c #8A8479",
";X c #958373",
":X c #9A8574",
">X c #998979",
",X c #91866F",
"<X c #BA9467",
"1X c #AD8D70",
"2X c #B7A57C",
"3X c #C88B59",
"4X c #CF906B",
"5X c #E69B72",
"6X c #EBAA7C",
"7X c #E9A678",
"8X c #F2A97B",
"9X c #EDAC77",
"0X c #CEA074",
"qX c #A4823E",
"wX c #8C8B86",
"eX c #938D87",
"rX c #93928C",
"tX c #9A9489",
"yX c #989792",
"uX c #A99888",
"iX c #AD9B90",
"pX c #B9A788",
"aX c #ABA59C",
"sX c #B6A89A",
"dX c #B5AA8E",
"fX c #ADA9A2",
"gX c #B4ACA3",
"hX c #B6ACA7",
"jX c #B8B2A9",
"kX c #BAB9B5",
"lX c #9DA09D",
"zX c #C3AC98",
"xX c #C7B599",
"cX c #C9AC8A",
"vX c #EBAB83",
"bX c #F3AC84",
"nX c #F1B48B",
"mX c #C8B8A8",
"MX c #CABBB0",
"NX c #D3A48E",
"BX c #D9C9A8",
"VX c #D2C7B4",
"CX c #E4D5B5",
"ZX c #E4CDAD",
"AX c #EAC49A",
"SX c #D8D6CF",
"DX c #E3DDD6",
"FX c #E4E3DC",
"GX c #E9E6DC",
"HX c #FBE7D7",
"JX c #EBEAE4",
"KX c #E8E8E3",
"LX c #F3F1EB",
"PX c #DEE1DB",
"IX c #BDC2BF",
"UX c #7E807C",
/* pixels */
"                                                                                                                                                                                                                                                                                                                                                                                                                                                                                                                                                                                                                                                                                                                                                                                                                                                                                                                                                                                                                                        ",
"                                                                                                                                                                                                                                                                                                                                                                                                                                                                                                                                                                                                                                                                                                                                                                                                                                                                                                                                                                                                                                        ",
"                                                                                                                                                                                                                                                                                                                                                                                                                                                                                                                                                                                                                                                                                                                                                                                                                                                                                                                                                                                                                                        ",
"                                                                                                                                                                                                                                                                                                                                                                                                                                                                                                                                                                                                                                                                                                                                                                                                                                                                                                                                                                                                                                        ",
"                                                                                                                                                                                                                                                                                                                                                                                                                                                                                                                                                                                                                                                                                                                                                                                                                                                                                                                                                                                                                                        ",
"                                                                                                                                                                                                                                                                                                                                                                                                                                                                                                                                                                                                                                                                                                                                                                                                                                                                                                                                                                                                                                        ",
"                                                                                                                                                                                                                                                                                                                                                                                                                                                                                                                                                                                                                                                                                                                                                                                                                                                                                                                                                                                                                                        ",
"                                                                                                                                                                                                                                                                                                                                                                                                                                                                                                                                                                                                                                                                                                                                                                                                                                                                                                                                                                                                                                        ",
"                                                                                                                                                                                                                                                                                                                                                                                                                                                                                                                                                                                                                                                                                                                                                                                                                                                                                                                                                                                                                                        ",
"                                                                                                                                                                                                                                                                                                                                                                                                                                                                                                                                                                                                                                                                                                                                                                                                                                                                                                                                                                                                                                        ",
"                                                                                                                                                                                                                                                                                                                                                                                                                                                                                                                                                                                                                                                                                                                                                                                                                                                                                                                                                                                                                                        ",
"                                                                                                                                                                                                                                                                                                                                                                                                                                                                                                                                                                                                                                                                                                                                                                                                                                                                                                                                                                                                                                        ",
"                                                                                                                                                                                                                                                                                                                                                                                                                                                                                                                                                                                                                                                                                                                                                                                                                                                                                                                                                                                                                                        ",
"                                                                                                                                                                                                                                                                                                                                                                                                                                                                                                                                                                                                                                                                                                                                                                                                                                                                                                                                                                                                                                        ",
"                                                                                                                                                                                                                                                                                                                                                                                                                                                                                                                                                                                                                                                                                                                                                                                                                                                                                                                                                                                                                                        ",
"                                                                                                                                                                                                                                                                                                                                                                                                                                                                                                                                                                                                                                                                                                                                                                                                                                                                                                                                                                                                                                        ",
"                                                                                                                                                                                                                                                                                                                                                                                                                                                                                                                                                                                                                                                                                                                                                                                                                                                                                                                                                                                                                                        ",
"                                                                                                                                                                                                                                                                                                                                                                                                                                                                                                                                                                                                                                                                                                                                                                                                                                                                                                                                                                                                                                        ",
"                                                                                                                                                                                                                                                                                                                                                                                                                                                                                                                                                                                                                                                                                                                                                                                                                                                                                                                                                                                                                                        ",
"                                                                                                                                                                                                                                                                                                                                                                                                                                                                                                                                                                                                                                                                                                                                                                                                                                                                                                                                                                                                                                        ",
"                                                                                                                                                                                                                                                                                                                                                                                                                                                                                                                                                                                                                                                                                                                                                                                                                                                                                                                                                                                                                                        ",
"                                                                                                                                                                                                                                                                                                                                                                                                                                                                                                                                                                                                                                                                                                                                                                                                                                                                                                                                                                                                                                        ",
"                                                                                                                                                                                                                                                                                                                                                                                                                                                                                                                                                                                                                                                                                                                                                                                                                                                                                                                                                                                                                                        ",
"                                                                                                                                                                                                                                                                                                                                                                                                                                                                                                                                                                                                                                                                                                                                                                                                                                                                                                                                                                                                                                        ",
"                                                                                                                                                                                                                                                                                                                                                                                                                                                                                                                                                                                                                                                                                                                                                                                                                                                                                                                                                                                                                                        ",
"                                                                                                                                                                                                                                                                                                                                                                                                                                                                                                                                                                                                                                                                                                                                                                                                                                                                                                                                                                                                                                        ",
"                                                                                                                                                                                                                                                                                                                                                                                                                                                                                                                                                                                                                                                                                                                                                                                                                                                                                                                                                                                                                                        ",
"                                                                                                                                                                                                                                                                                                                                                                                                                                                                                                                                                                                                                                                                                                                                                                                                                                                                                                                                                                                                                                        ",
"                                                                                                                                                                                                                                                                                                                                                                                                                                                                                                                                                                                                                                                                                                                                                                                                                                                                                                                                                                                                                                        ",
"                                                                                                                                                                                                                                                                                                                                                                                                                                                                                                                                                                                                                                                                                                                                                                                                                                                                                                                                                                                                                                        ",
"                                                                                                                                                                                                                                                                                                                                                                          p h p p p p p p                                                                                                                                                                                                                                 h h p p h p p p p                                                                                                                                                                                                                                                                                                                                                                                             ",
"                                                                                                                                                                                                                                                                                                                                                                        3.o # # # o # # # p                                                                                                                                                                                                                             O o o O O . O o . o                                                                                                                                                                                                                                                                                                                                                                                             ",
"                                                                                                                                                                                                                                                                                                                                                                        w.# > . @ o o > # p                                                                                                                                                                                                                             o o o o + @ @ O . .                                                                                                                                                                                                                                                                                                                                                                                             ",
"                                                                                                                                                                                                                                                                                                                                                                        w.O . > . : . o # q                                                                                                                                                                                                                             o . . o + + . o O *                                                                                                                                                                                                                                                                                                                                                                                             ",
"                                                                                                                                                                                                                                                                                                                                                                        ' X X o o . . o o :                                                                                                                                                                                                                             o . . . o O - . X .                                                                                                                                                                                                                                                                                                                                                                                             ",
"                                                                                                                                                                                                                                                                                                                                                                : j : q -XuXtXuX-XO > # o p                                                                                                                                                                                                                             . . . o X f.>XuXuXtXq p p p                                                                                                                                                                                                                                                                                                                                                                                     ",
"                                                                                                                                                                                                                                                                                                                                                              : + . . . ,XxXBXVXVX. o . . j                                                                                                                                                                                                                             . . o o X >XmXxXxXsXo . . + >                                                                                                                                                                                                                                                                                                                                                                                   ",
"                                                                                                                                                                                                                                                                                                                                                              : . . O X ,XdXxXBXjXO O O o >                                                                                                                                                                                                                             . . . o * >XxXzXxXsXo . . + -                                                                                                                                                                                                                                                                                                                                                                                   ",
"                                                                                                                                                                                                                                                                                                                                                              : o . . . ,XjXxXVXjX* . . O j                                                                                                                                                                                                                             o o o o X uXmXxXmXsX. o . . -                                                                                                                                                                                                                                                                                                                                                                                   ",
"                                                                                                                                                                                                                                                                                                                                                              q . . . o >XjXmXjXVX* ; ; #                                                                                                                                                                                                                                 O o o X aXmXmXmXmXX . X . O                                                                                                                                                                                                                                                                                                                                                                                   ",
"                                                                                                                                                                                                                                                                                                                                                      > o o O lXVXmXmXVX0 o . . o                                                                                                                                                                                                                                                 f X X . X VXVXVXVXVXO o > o                                                                                                                                                                                                                                                                                                                                                                           ",
"                                                                                                                                                                                                                                                                                                                                                    : o # # # rXxXxXxXVXq . . . .                                                                                                                                                                                                                                                 g # # X X xXpXcXdXjX; o . ; j                                                                                                                                                                                                                                                                                                                                                                         ",
"                                                                                                                                                                                                                                                                                                                                                    # ; * X X eXcXcXxXMXq . . . .                                                                                                                                                                                                                                                 g + . . X xXcXcXpXmX. o > o f                                                                                                                                                                                                                                                                                                                                                                         ",
"                                                                                                                                                                                                                                                                                                                                                    * * X * * tXcXcXxXMX0 . . . .                                                                                                                                                                                                                                                 g @ + . X zXcXcXcXsXO o O O q                                                                                                                                                                                                                                                                                                                                                                         ",
"                                                                                                                                                                                                                                                                                                                                                    * * * * % >XcXcXxXmXq . . . .                                                                                                                                                                                                                                                 g . . . * dXxXcXxXxXO O O * i                                                                                                                                                                                                                                                                                                                                                                         ",
"                                                                                                                                                                                                                                                                                                                                          . O . o * VXmXmXsXsXxXcXcXsXmXq . . . .                                                                                                                                                                                                                                                 h . . o . '.R.!.!.d.xXsXsXsXuX. > o . o                                                                                                                                                                                                                                                                                                                                                               ",
"                                                                                                                                                                                                                                                                                                                                          o . . o O gXVXjXsXxXxXxXxXxXVXq o . . X                                                                                                                                                                                                                                                 h . . X X '.R.d.!.W.xXmXxXmXuX# . . o .                                                                                                                                                                                                                                                                                                                                                               ",
"                                                                                                                                                                                                                                                                                                                                          . . o o o VXjXmXmXxXxXxXxXsXVXq X X X $                                                                                                                                                                                                                                                 h o . X X '.T.T.!.!.BXxXxXzX1Xo o o . .                                                                                                                                                                                                                                                                                                                                                               ",
"                                                                                                                                                                                                                                                                                                                                          . o . . % xXxXxXxXxXxXmXjXjXVXq X o . O                                                                                                                                                                                                                                                 p O o . X c.g.z.j.W.xXxXcXxX1XX . X . o                                                                                                                                                                                                                                                                                                                                                               ",
"                                                                                                                                                                                                                                                                                                                                          O X X X X BXBXxXxXxXBXVXVXVXSX5 O o O o                                                                                                                                                                                                                                                   . o # . -X].].].W.BXpXxXxX1XX X . O .                                                                                                                                                                                                                                                                                                                                                               ",
"                                                                                                                                                                                                                                                                                                                                3.. $ # . eX,X>X,X>XBXBXCXBXCX< ; * O O                                                                                                                                                                                                                                                                     X O X X < mXxXcXpXcXjXmXgXjXVXs o # # :                                                                                                                                                                                                                                                                                                                                                     ",
"                                                                                                                                                                                                                                                                                                                                g o o o O uX>XiX>X:XCXCXCXBXCX< O * # X                                                                                                                                                                                                                                                                     O X * * * BXdXcXpXxXZXVXVXVXSX5 O o o >                                                                                                                                                                                                                                                                                                                                                     ",
"                                                                                                                                                                                                                                                                                                                                g o . . . iX>X2X1X1XZXCXZXBXSX< O . o #                                                                                                                                                                                                                                                                     o o . O * mXpXcXcXcXBXBXBXVXCXq O # o >                                                                                                                                                                                                                                                                                                                                                     ",
"                                                                                                                                                                                                                                                                                                                                m.# o O X uX1X2X1X=XBXZXZXBXCX< o . # >                                                                                                                                                                                                                                                                     o O # O % VXzXpXpXcXBXBXBXBXSX< O o # #                                                                                                                                                                                                                                                                                                                                                     ",
"                                                                                                                                                                                                                                                                                                                                m.. . o . uX1X2X1X1XBXZXZXBXSX; . o o .                                                                                                                                                                                                                                                                     . o . o * mXpXcXcXcXBXBXxXBXCX< . > # >                                                                                                                                                                                                                                                                                                                                                     ",
"                                                                                                                                                                                                                                                                                                                                3.# # O O uX1X2X1X1XBXBXBXBXVX; o o . @                                                                                                                   3.3.g g g g m.m.g m.g g g g g g g g g m.3.3.                                                                                                      o o o X * mXpXcX2XcXxXBXBXBXCX4 O o # >                                                                                                                                                                                                                                                                                                                                                     ",
"                                                                                                                                                                                                                                                                                                                                m.> $ O O uX1X2X1X1XZXBXBXmXVX= . . @ .                                                                                                               # # o # o o $ o o $ o # o . $ . o . . # # # # # g                                                                                                     . . . . * xXpX2X2XcXBXxXBXBXCX< O O # @                                                                                                                                                                                                                                                                                                                                                     ",
"                                                                                                                                                                                                                                                                                                                                3.$ $ X X iX2X2X1X1XBXBXBXBXVX* . . o .                                                                                                               o # o . . . . . o o . . . . o . o o . o o # - > g                                                                                                     . . . o * xXpX2X2XcXBXBXBXBXCX< O X # @                                                                                                                                                                                                                                                                                                                                                     ",
"                                                                                                                                                                                                                                                                                                                                W o - - X iX2X2X1X1XBXBXBXBXVX= . . o .                                                                                                               # o . . # . . . X . . . . . . . . . . X X X $ * d                                                                                                     . . . o * xXpX2X2XcXBXBXxXBXSX= o O O -                                                                                                                                                                                                                                                                                                                                                     ",
"                                                                                                                                                                                                                                                                                                                                L * X X * iX2X2X1X1XBXBXBXBXVX= . . . .                                                                                                               # # . # . X X X X . X . X X . * X . . X X % X * s                                                                                                     . o . o * xXpX2X2XcXBXBXBXBXVX4 X X * #                                                                                                                                                                                                                                                                                                                                                     ",
"                                                                                                                                                                                                                                                                                                                        o O : > '.,X>X>X].CXCXCXCXBXCXBXBXBXVX= . . . .                                                                                             # # . o . o . $ $ . . # . # 4.9.u.9.a.].}.}.}.-XgXhXjXjXjXjXhXhXaXtX* . . . . . o . o                                                                                   . o o . * xXpXpXcXcXBXBXBXBXZX].,X,X>XeXO O # .                                                                                                                                                                                                                                                                                                                                             ",
"                                                                                                                                                                                                                                                                                                                      # # O O > j.*X'.].].CXCXCXBXBXBXZXZXBXCX= . . . .                                                                                           # . . . . o . . . . . . o # . 5.u.u.e.u.}.[.}.[.;XmXmXmXmXmXmXmXgXhXtX. . . . . o . . o o                                                                                 . . o . * mXdXpXpXcXBXBXBXBXBX=X*X'.,X-X* O # # .                                                                                                                                                                                                                                                                                                                                           ",
"                                                                                                                                                                                                                                                                                                                      O . O o o <.W.W.W.W.ZXBXCXBXZXCXBXBXmXCX< . . . .                                                                                           # # . o . o . o o . $ . . o o ] e.r.e.t.[.[.[.[.[.mXmXmXmXmXmXzXsXhXtXX X . . . . . . o O                                                                                 o o . X * mXdXpXcXxXBXBXBXBXBX+XW.W.].>XX X X # .                                                                                                                                                                                                                                                                                                                                           ",
"                                                                                                                                                                                                                                                                                                                      # O . # O <.!.W.T.j.ZXBXCXCXZXCXZXCXBXCX< . . . .                                                                                           # $ . o o . o o o . . o o . o ] %.%.e.t.[.|.[.[.[.mXmXxXmXzXsXsXsXmXeX% . . . . . . o o #                                                                                 . . . X * mXxXcXcXxXBXBXBXBXBX+XW.W.].,XX O O o $                                                                                                                                                                                                                                                                                                                                           ",
"                                                                                                                                                                                                                                                                                                                      o o o o o d.W.T.W.d.CXBXCXZXBXZXCXVXVXSX; + + . o                                                                                           X X % % % % % % % X X X X X % w.q.q.q.a.}.[.|.'.[.mXmXMXmXhXmXxXzXsXuX% X X . . . . . # >                                                                                 + + $ . * VXdXdXdXxXCXBXBXBXCX=X=XW.].>X. o + @ .                                                                                                                                                                                                                                                                                                                                           ",
"                                                                                                                                                                                                                                                                                                                      . o o o o d.W.W.W.j.CXBXCXCXCXCXCXVXVXCX< + + > .                                                                       o O O # # # # # # X L [ Q Q Q P K K K P P P K K P o # X X % u.r.] r.] r.] 5.5.e.u.r.i.s.i.h.f.f.k.f.- X X . . @ > * % O o @ @ #                                                               @ + $ X ; DXCXCXCXCXCXBXBXBXCX=X=XW.].>X. o . @ .                                                                                                                                                                                                                                                                                                                                           ",
"                                                                                                                                                                                                                                                                                                                      . o . . o -.W.W.W.W.CXCXCXBXBXCXBXCXVXCX= # $ . .                                                                       O o X O o o o o o = Q P T G T T G U T K K G G G K X X X X X u.5.5.[ ] ] 5.e.5.u.u.y.i.s.h.s.f.a.a.f.; . X . # @ @ > # @ @ + + . .                                                             . # # . * DXCXBXCXCXZXBXCXVXCX=X=XQ.].>X. o . + .                                                                                                                                                                                                                                                                                                                                           ",
"                                                                                                                                                                                                                                                                                                                      . . . . o y.W.W.W.W.CXZXCXCXZXCXZXVXBXCX< O . . -                                                                       . . . o o o o o o , G R T R E v R M U U U M U U Y = X X X X 9.4.7.9.u.5.5.5.5.u.a.y.i.s.i.h.a.f.f.f.- o X X X # # > > @ @ . @ $ #                                                             # X . O * DXVXBXCXBXZXBXCXCXCX=X=XQ.].>X. o . . .                                                                                                                                                                                                                                                                                                                                           ",
"                                                                                                                                                                                                                                                                                                                      . . . . . y.W.W.W.W.CXCXCXCXBXZXZXCXBXCX< . X O .                                                                       . X X X X O O O O , R Y n ^ N N N N N N N n N N C % & X % X a.8.4.4.4.4.0.9.5.5.i.h.s.s.i.i.i.a.a.k.: o . O ; X * - - X O . X X X                                                             X . X X X CXCXZXZXZXBXBXCXCXCX=X=X{.{.>XX o . o .                                                                                                                                                                                                                                                                                                                                           ",
"                                                                                                                                                                                                                                                                                                                      o . . . . y.W.W.+XQ.ZXZXZXBXBXCXZXZXBXCXi < w < q                                                                       ; * * * * = = = = 8 Y ~  .N N / C C C C  .C / C / < < , = < W ' 3.3.' 8.4.4.[ [ h.s.h.h.j.j.h.h.z.z.5 . o o * w < < < , < , < = =                                                             5 i < < u CXCXBXBXBXBXBXCXCXCX=X=X+X=X>XX o . . .                                                                                                                                                                                                                                                                                                                                           ",
"                                                                                                                                                                                                                                                                                                                      o o . . . j.].W.W.W.xXxXxXxXcXBXCXZXBXCXpXpXdXsXsXs . . o .                                           o o . @ . . O . ; g d J J K K G G G N :.:.&.X.B.O.o.o.S.M.U.~.)./.).=.$.p.t.u.* X . . O w.8.4.] [ T.'.].].W.mXxXsXMXSXp > > * = y.p.p.p.:.E.E.E.R.|.& X . . . . . . .                                   . . . X sXiXpXdXpXCXBXCXCXBXBXBXBXCXCX=X=X=X*X>XX o . o .                                                                                                                                                                                                                                                                                                                                           ",
"                                                                                                                                                                                                                                                                                                                      o o . . o d.W.W.=XW.xXxXxXcXxXCXBXBXBXBXdX2XpXuXaXs . . . o                                         . O o o o . . . o ; d J K G S S U U U n *.;.*.o.O.o.o.o.o.S././.).~.).*.&.#.%.%.X X X o . 8.4.[ 5.[ '.[.'.'.:XxXmXmXMXVXd > o * = t.:.*.o.o.U.U.U.I.R.& X . . . . o o O .                               g . o . X dXuXpX2XpXZXCXZXBXBXBXBXBXBXCX=X=X+X=X>XX o o o .                                                                                                                                                                                                                                                                                                                                           ",
"                                                                                                                                                                                                                                                                                                                      . o o o . y.W.W.*XW.xXxXxXcXcXZXZXBXBXBXpX2X2X1XdX0 X . . o                                         O X . o o . . o . - a F F S S v n M M b &.*.X.o.*.o.S.o.O.o./././.~.).o.O...#.[ % X X . . w.6.[ [ P ;X[.].].*XxXmXmXmXSXp > > * % t.=.X.S.S.G.G.G.L.I., X . . . . o . o #                               ' o . . X dXuX2X2XpXZXCXBXBXBXZXBXBXBXCX=X=X+X=X>XO o . O .                                                                                                                                                                                                                                                                                                                                           ",
"                                                                                                                                                                                                                                                                                                                      . o o o o d.W.W.*XW.xXxXxXcXcXBXZXBXBXBXpX2X2XpXdXw . . o O                                         O X * o X X . X X ; K A S S v n n n n n &.;.;.M.o.o.o.S.o.S./././.~./.S.O...#.} & X X . . w.' 4.[ ] }.[.].].*XxXmXmXMXVXW # > * , -.=.....O.U.U.U.U.E.& X . . . . . . > o                               m.. . = % iXpX2XpXpXCXCXBXBXBXBXBXBXBXCX=X=X+X=X>XO . . o .                                                                                                                                                                                                                                                                                                                                           ",
"                                                                                                                                                                                                                                                                                                                      o o o o o d.W.+X*XW.xXcXcXpXpXBXZXBXBXBXpX2X2X2X2Xy X . . .                                         . * % % % % % % % < y G G v v v b b b n | X.X.X.O.o.o.2.O.o.U.U./././.O.O./ | ^ & % % X X 4.8.6.4.9.}.[.].[.*XmXmXMXMXSX0 ; X * % t.t.t.%.#.E.E.U.K.R., % X X X . . o . :                               g X * X X pX2X1X2X2XBXBXBXBXBXBXBXBXBXCX=X=X+X=X>XO . . o .                                                                                                                                                                                                                                                                                                                                           ",
"                                                                                                                                                                                                                                                                                                                      . o o o o d.W.W.+XW.xXcXcXcXpXBXZXBXBXBXxXxXxXBXBXuX>XtXtXaXq : : : p : : : : : > : : : : : j : 5 : W D a A A t t a A c G c v v v ` }  . .| &.*.;.o.o.U.U.Y.Y.Y./././.~.~.~.~.U.E.E.M G K a J * . X X X }.[.].[.;XmXmXMXVXVXMXjXMXhXsX= % X % & ^ | |  .| -.t.e.e.5.5 o o # o p j j : p : : : : : : : : : ; z.yX>X>X>XCXBXBXBXBXCXBXBXBXBXpXpXpXpXxX+X+X+X=X>XO o . @ .                                                                                                                                                                                                                                                                                                                                           ",
"                                                                                                                                                                                                                                                                                                                      o o . o o d.Q.W.W.W.cXpXpXpX2XBXZXBXBXZXBXZXZXBXCXxXdXsXdXjX* ; : # # > + o o . . . . . o o o # - X J D K U G S S G G S c v v v M $.&.&.&.X.X...X.O.o.)././.Y.U./.U.~.~.~.~.~.~.E.E.M U U P W X X . X . -X[.[.[.:XmXmXmXmXmXMXMXjXjXjX% X . . % Q @.} ~ ~ :.K.I.R.g.r X O o > > > # > . o o o o . o o $ # * -XdXdXuXpXCXZXBXBXBXBXBXBXBXBXpXpXpXpXxX+X+X+X=X>XO o . @ .                                                                                                                                                                                                                                                                                                                                           ",
"                                                                                                                                                                                                                                                                                                                      o o . o o d.Q.W.W.W.pXpXpX2X2XZXZXBXBXBXZXBXZXZXZXxXpXdXsXsX* O # # # . @ . . . . . . . . o o # . * Q S K v S S S S ! G v U v v b $.| |  .X.X.X.o.o.o.)./././././.U.~.~.~.~.~.U.U.U.N U U G [ X . X X . -X;X[.[.:XMXmXmXmXVXmXjXmXMXgXX . . . X ] %.#. . .I.I.I.I.R.w * # # > o > o o > . . . . . . . o $ X ].dXiXuXpXCXBXCXZXBXBXBXBXBXBXcXcXpXpXpXW.W.W.Q.>XO o . @ .                                                                                                                                                                                                                                                                                                                                           ",
"                                                                                                                                                                                                                                                                                                                      o . . o o d.W.W.W.!.pXpX2X2X2XBXBXBXBXBXZXZXCXCXCXxXpXpXxXsX* O # # $ . + . . . . . o o . . # . . * A T ! m m U G v v U M v v v b &.&.&.&.| X.X.o.o.o.).~./.~.~.~.~.~.~.~.U.Y.U.U.U.N N E T P X . . O # wX;X*X;X:XMXMXmXmXmXMXmXhXmXhX. . . . X @.^ ( | C N.G.U.E.{.w * O > o : o . o . . . . . . . . o o * >XdXiXpXpXCXCXCXBXBXBXBXBXBXBX2X2XpXpXpX+XW.W.W.>XO o . @ .                                                                                                                                                                                                                                                                                                                                           ",
"                                                                                                                                                                                                                                                                                                                      o . . o o d.W.W.W.!.pX2X2X2X2XBXBXBXBXBXZXZXBXZXZXcXpXpXdXsX* * # o + @ . . . . o o o o . o . . * % K T U U M M m v v v v v n n b &.........o.X.o.o.o.).)./.~.~.~.U.U.~.~.U.U.U.G.I.V N M H P X X . # . wX*X[.[.:XMXVXVXVXVXmXmXzXmXjX. . . . X %.#.| ..C G.G.~.~.Q.9 * O o > o . o . . . . . . . . o o o % ,XiXuX2XpXZXCXCXBXZXBXBXBXBXBXcX2XpXpXpXW.!.W.W.,XX o . @ .                                                                                                                                                                                                                                                                                                                                           ",
"                                                                                                                                                                                                                                                                                                                      o o . # o <.=X!.W.!.d.d.j.d.d.pX2XpX2X2XZXZXZXZXCXCXCXCXCXCXxXxXzXzXdXs.i.i.i.i.5.5.[ ] ] ].|.].[.-X- o # O % K G M n N ;.*.o.*.X.X.X.X.X.*.o.o.o.o.O./.~.~.~.~.~.~.U.~.~.G.U.U.U.U.G.G.U.U.W.* o o O * *X=X=X[.}.W ' ' ' W '.[.].].}.X . . . X [ | O.......&.X.*.*./.).).).Q.& # + + . k.g.h.h.f.. . + + * gXCXZXZXCXBXCXCXCXBXpX2X2X2X1Xd.W.!.W.d.W.W.W.W.,X* X o . @                                                                                                                                                                                                                                                                                                                                           ",
"                                                                                                                                                                                                                                                                                                                      # o . o o d.!.W.W.!.W.W.!.W.d.pXpXpXpXcXZXZXCXZXCXCXCXCXCXCXzXxXzXdXpXi.t.r.i.r.[ [ ] ] [ ].].[.[.}.* . o X X K G M n N *.*.o.o.X.X.X.X.X...O.o.o.S.S.)./.~.~.~.~.~.U./.U.G.U.U.U.U.G.G.G.Y.W.% o # # * ,X=X[.;X}.4.4.4.[ 5.[.;X}.}.-XX . . . X @.| ..O.O.O.*.*.M.M./.).).).E.% X @ + . z.h.h.g.z.. . + + . iXCXBXBXBXCXZXCXCXBXpX2X2XcX1XW.!.W.W.W.T.W.W.W.].* X O > .                                                                                                                                                                                                                                                                                                                                           ",
"                                                                                                                                                                                                                                                                                                                      o O o # # j.W.].].j.W.W.W.W.j.pXpXpXcXcXZXZXCXCXCXCXZXZXCXCXpXpXpXpXpXt.t.i.i.r.[ ' [ ] [ ].].].].}.X . o X X K G M n N *.o.o.o.o.X.X.X.X.*.*.o.o.o.O./.~.~.~.~.~.U.U./.U.G.U.U.U.U.U.J.~./.Q.* O @ O * ,X[.].[.].[ ' 4.' [ [.;X[.}.-XX . . . X @.| O.O.O.O.o.o.*.S.~.~.~.U.E.= X . . . z.h.g.g.c.. . . . * sXVXCXBXCXBXZXCXCXZXpXpXpXpX2XW.!.W.W.W.W.W.T.'.].O . . . @                                                                                                                                                                                                                                                                                                                                           ",
"                                                                                                                                                                                                                                                                                                                      . o . # o j.].g.T.g.g.W.W.W.T.pXpXpXpXpXBXZXCXCXZXCXCXCXCXZXpXpXpXpXpXy.-.j.i.r.[ [ [ [ [ ].].].'.].X o o X X K G M n N X...o.o.o.X.X.X.X.X...O.O.O.o.U.~.U.U.G.U.U.U./.U.G.U.U.U.U.U.J.J.Y.Q.= # @ o * -X*X*X[.[.[ 4.[ ] [ [.>X[.-X}.. . . . % %.| O.O.O.o.o.o.*.M.U.~./.E.E.% X . o . f.h.h.z.c.. . X X X aXVXBXCXZXZXCXCXCXCXpXpXpXpX2XW.W.W.T.j.W.g.g.z.v.O o O # o                                                                                                                                                                                                                                                                                                                                           ",
"                                                                                                                                                                                                                                                                                                                      > . # # . f.z.h.g.g.,XW.W.W.W.pXpXcXxXxXCXCXCXCXZXCXCXBXBXBXpXpXpXpX2X-.-.%.-.y.[ [ ] [ [ T.'.'.'.].. . . o X K G m b N &.X.o.o.o.X.X.o.o.*.*.o.*.*.S.U.U.~.~.U./.U.U.U.G.U.U.U.U.U.~.J.~.U.Q.= # o . O c.[.:X;X[.] [ ` ] %.|.;X[.-X>XX o . X % %.| X.o.O.O.o.o.o.S.U.U.U.).I.% % X . X z.z.c.z.l.X X X X X sXCXCXCXCXCXCXCXCXCXpXdXpXpX2XW.W.T.W.T.j.g.c.c.}.. # . .                                                                                                                                                                                                                                                                                                                                             ",
"                                                                                                                                                                                                                                                                                                                                g X X X X j.W.].W.W.=X+X+X+X*XpXcXcXdXxXBXZXZXBXZXBXBXBXBXCXxXBXZXZXdX%.[ [ ] [ xXmXxXsXiXX o . o X K G m b N *.X.o.o.o.X.X.o.o.X.X.X.O...( o.O.O.O.O.U.U.U.U.Y.U.U.U.U.Y.~.~.~./.Q.= O o o . q.y.%.e.s.;XtX>X[.|.:X:X[.>XeX. . . X % %.$.X.o.o.o.O.o.o.o.M.S.S.O.X.#.%.P e.4.X X X o . }.z.z.].}.0 w 9 9 9 mXxXxXxXxX+X+X+XW.W.W.!.W.W.g.= . . . #                                                                                                                                                                                                                                                                                                                                                     ",
"                                                                                                                                                                                                                                                                                                                                g . . . . ].'.W.W.W.+XW.*X=X=XxXxXxXcXxXBXZXBXBXBXBXBXBXBXBXBXCXBXCXxX[ ] ] ] [ xXmXmXmXaX. . . o X F G m b N &.X.o.X.X.X.&.o.o.o.*.*.*.*.X.*...X.o.o.U.U.U.U.U.U.U.U.U.~.~.~././.).= X o . . 3.5.r.i.i.>X;X=X=X[.=X[.[.>XtXX X X X % %.$.&.o.o.S.S.S.o.o.o.O.O. .X.#.^ e.e.[ % X . . o v.'.'.T.}.y w w 9 9 xXxXxXxXxX+X+XW.W.Q.Q.W.W.g.].% X O o o                                                                                                                                                                                                                                                                                                                                                     ",
"                                                                                                                                                                                                                                                                                                                                g o . . X ].W.W.W.Q.+XW.=X*XW.xXxXcXpXcXBXZXZXBXBXBXZXBXZXBXBXBXBXCXzX` ] [ [ [ xXmXmXmXaX. . . . X F G m b N &...o.X...X.X.o.o.X.*...*.&.&.X.......X.U.U.U.U.U.U.U.U.U.~.~.~././.).& % . o . w.5.9.5.i.>X>X[.=X{.{.{.*X;X-XX X X X % e.%.$.*.o.o.O.S.o.o.o.X.X.&.....| $.%.] X X . # . -Xz.'.'.}.u r y i 9 mXxXxXxXmX+X=X+XQ.=XW.=XR.T.].* . . . .                                                                                                                                                                                                                                                                                                                                                     ",
"                                                                                                                                                                                                                                                                                                                                m.. . . . ,XW.=XQ.Q.W.W.+X+XW.dXcXcXpXxXBXBXBXBXBXBXBXBXBXZXBXZXBXCXzX[ [ [ [ ` sXmXxXMXaX. . . . . D S m v N &...o.o.X.X.X.*.*.X.X.*.*.&.&.&.X.X...*.U.U.U.U.U.U.Y.U.~.~.~.~././.).& % . . . 8.9.7.5.a.>X=X[.=X[.|.:X].[.tXX X X X X 5.[ @.$.&.o.o.o.o.o.X.X.....&.*...#.$.%.X X . . $ v.'.T.T.}.a u u u w mXxXxXxXxX+X+XQ.+XW.+XW.W.].].O o . . +                                                                                                                                                                                                                                                                                                                                                     ",
"                                                                                                                                                                                                                                                                                                                                g @ . . X >X*XW.Q.=XQ.Q.Q.W.=XpX2X2X2XpXcXxXcXcXpXBXxXBXBXBXBXZXBXBXpX[ [ [ ` ` zXxXsXmXaXX . . o X D S v b M &.*.*.*.*.X.X.....X.X.&.&.&.&.X.X.....X.V.C.U.C.U.Y.~.U./.~.~.~.~./.E.8 , ; ; : d ' W W 5.>X:X=X[.{.[.W.[.[.-XL s d p W W [ F U R &.&.o.o.X.&.&.#.&...O.O.*.=.e.% X . o . v.g.h.h.z.5 5 r 0 < sXpXpXpXpX=X=X+X+XW.Q.+XW.].>X* o . . @                                                                                                                                                                                                                                                                                                                                                     ",
"                                                                                                                                                                                                                                                                                                                                g . o . X ].*X=XQ.W.Q.Q.Q.W.Q.Q.Q.Q.W.W.W.W.W.W.Q.pXpXcXcXcXxXxXxXxX2X` [ [ [ [ '.].].;X-X. . o . X a S v v N &...o.....&.&...o.........X.X.X.X.....| X.O.O.O.O.~./././.~.~.~.~.U.E.N U P W W * X X X 5 ;X:X=X[.[.{.=X*X[.;XMXMXMXVXMX* X % , % $.=.&...X.&.&.#.&...O.O.o.&.%.% X o # . a.5.] r.q.X . X O X ,X=X+XQ.=XW.W.+XW.+XW.=XW.].].; . . . .                                                                                                                                                                                                                                                                                                                                                     ",
"                                                                                                                                                                                                                                                                                                                                g o . X . >X;X*X=XW.+XW.W.=XQ.+XQ.Q.Q.W.W.W.W.W.W.cXpXcXcXcXxXxXcXxXuX[ ] [ [ [ ].|.[.[.}.X . o . X D S G v N &.*.*.*.&.&.&...o.........X.X.X.X.&.&.X.X.X.X.X.O.Y.~.~.~.~.~.U.U.U.U.N U G P [ X # o X < tX:X[.{.[.W.=X[.[.[.MXmXMXMXVX* . X X & %.&.&.....X.&.......O.O.o.&.t.& X . . X u.u.7.] q.X . . X * ;X].+XW.+XQ.=X=X+X+X=X!.{.].;X* X O . .                                                                                                                                                                                                                                                                                                                                                     ",
"                                                                                                                                                                                                                                                                                                                                h o o . O ].,X*X].=XQ.=XW.W.W.Q.W.W.W.W.Q.Q.W.W.Q.cXcXcXcXcXxXxXxXxXpX` [ [ [ [ ].|.;X;X}.% . o . X D S v b N &...o.X...X.....X.....&.&.&.&.&.&.........O.o.o.o./.~./.~.~.~.U.U.U.U.N N U T ] % . . X = uX>X=X[.=X=X{.[.*X>XmXmXMXmXVXX O * X % %.$.X.....X.X.......o.O.o.:.s.& % X X X u.u.5.4.8.o . . . X ,X*X+XW.Q.Q.Q.W.W.+X+X{.=X[.>X< . . . #                                                                                                                                                                                                                                                                                                                                                     ",
"                                                                                                                                                                                                                                                                                                                                3.. # X O ,X,X].].=XW.=X=XW.+XW.W.W.W.W.W.W.W.W.W.pXcXcXcXcXxXxXxXxXpX` [ [ [ [ '.|.:X;X}.X . . X X D A v v N &...o.....X.X.X.X.......&.&.X.&.&.X.o.*.X.o.o.o.X././.~.~.U.U.G.G.U.U.N ~ Y R Q % . . X ; tX;X[.{.|.{.[.[.].[.MXmXmXmXVXO # . X % %.$.X.......X.X.&.X.o.O.S.B.p.% X X X X a.u.0.a.a.# . . . . ].].+XW.Q.=XQ.*X=X=XW.=XW.].>X- . O o .                                                                                                                                                                                                                                                                                                                                                     ",
"                                                                                                                                                                                                                                                                                                                                3.# . O O -X,X,X,X*X=X=X+XW.=XW.Q.W.W.W.W.W.W.W.Q.2XcXcXcXcXcXxXxXcXpX] [ [ [ T T.'.[.[.}.X X X . X D S S n N | *.o.....&.&...............X.X.X.....X.X.*.X.*.o././.~.~.U.U.U.U.U.I.C C ~ ^ R & . . X ; tX;X[.[.[.[.*X{.[.;XmXmXmXMXVX- o . X % %.$.X.O.O.....X.&...o.o.o.*.p., * % X % u.u.q.9.8.- . . . . ].W.W.Q.Q.Q.Q.W.=XW.:X{.;X[.>X; X X . #                                                                                                                                                                                                                                                                                                                                                     ",
"                                                                                                                                                                                                                                                                                                                                          q q w w w =X*XQ.+X+XW.W.W.W.W.W.W.W.W.W.=X=X=X=X1X=X=X1X=X=X` [ [ [ T W.|.[.[.}.X X . X X D S U v b N N N N C  .&.&...X.X.....O.X.X.X.X.X.o.X.*.X.*.*.S.S.S.S.O.O.O.O.O.o.C C ~ ^ ^ & . . . - tX;X[.].[.zXsXxXzXzX{.:X:X>XtXO o o X X %.$.&.O.O.O.O...X...o.S.o.*.s.a J d s a 5 5 5 : : . . + . . ,XW.W.W.Q.Q.{.Q.=XW.9 e w 4 r                                                                                                                                                                                                                                                                                                                                                               ",
"                                                                                                                                                                                                                                                                                                                                          o # . O * ,X*X*XW.Q.W.W.W.W.W.{.W.{.W.W.{.W.W.+XW.W.+X=X{.W.] [ ] [ T T.{.[.[.-XX . + X X D S v b n b b b n n &...O.O.&...X.X.X.X.X.o.O.O.o.o.o.o.o.o.o.o.X.X.............C / Y R [ % . . . ; >X;X*X{.].mXmXmXVXMX;X[.{.:XtX* X X X % %.| O.O.O.....#.X...X.o.o.*.M.N N M m F % X o o + + . . X X ].].W.W.Q.Q.Q.W.+Xd.O # o o o                                                                                                                                                                                                                                                                                                                                                               ",
"                                                                                                                                                                                                                                                                                                                                          o o * * * >X].].W.W.W.W.W.W.{.W.W.{.Q.=X=XW.+X=XW.+XW.{.Q.W.] ] [ [ [ |.{.[.;X-XX . + X X J G v b n b b b v n &.&.X.O...| | ..X.o.X.o.o.o.o.o.X.X.X.X.X.X.X...O.....O.O.O./ / Y R [ % . . . ; >X;X*X{.*XxXmXVXMXmX].;X=X:XtX* X X X % %.$.X.O.O.....=...O.X.X.o.*.M.N N M m F X o . o $ . . . . . }.'.'.W.].Q.=X=X=Xj.. o O o .                                                                                                                                                                                                                                                                                                                                                               ",
"                                                                                                                                                                                                                                                                                                                                          # . O O * >X,X].].W.{.'.W.W.].W.{.=XW.W.+XW.=XQ.W.=X{.{.*X].] ] ] ] T W.{.[.:X-XX . . . X J K S v n v v v v v #.#.| | | ......X.X.X.X.o.o.o.o.o.o.o.o.X.&.X.............../ ~ Y R [ % . . . ; tX;X[.[.,XsXVXVXVXVX;X;X:X:XeX* . . . % %.$.X.O.O...X.=...O.O.O.o.*.:.N M m F J X . . . . . . o . . -X].'.].].].].,X*Xg.O o o o o                                                                                                                                                                                                                                                                                                                                                               ",
"                                                                                                                                                                                                                                                                                                                                            : - - * -X}.].c.'.T.z.'.].T.W.W.Q.+X+X+X+X=XQ.=XW.{.*X*X'.7.[ [ ] [ {.[.=X:X}.% X . . X d K S v n v v c v S @.@.|  .~ #.....X...X.X.o.o.o.o.o.o.o.o.........X.X.X.X.....~ ~ Y R [ & . . X ; tX;X[.[.*XmXVXMXVXmX[.;X:X>XtX* . . . % %.$...O.O.......O.O.O.O.X.o.;.n M S F J X . . + @ . . . . . k.c.c.].].'.].}.}.].o : O :                                                                                                                                                                                                                                                                                                                                                                 ",
"                                                                                                                                                                                                                                                                                                                                                    - $ X X X X X . X * d.+X+XQ.!.+X+X+X*Xg.< , = , w 5.u.5.[ ] [ %.%.r.u.. . . . X d K S S S v G S A x x 2 2 3 b / | | X...o.o.o.o.o.o.o.o.o.o.........X.X.X.o.o...~ ~ Y R @.& . o X ; tX>X;X*X[.[ P P i ` ;X>X;X;XeXO . . . % %.$.&.O.O.O.....O.O.O.o.o.*.*.n n S G L X . . + . . . o o . # . . . . X O X * 5                                                                                                                                                                                                                                                                                                                                                                         ",
"                                                                                                                                                                                                                                                                                                                                                    # o o . X . . o X X j.].W.+X+X+X+XQ.*X]., < < < 4 5.5.5.[ 5.e.r.r.e.9.X $ . X X D F S S G S S S S c x z z z k  .| ..&...*.o.*.*.o.*.o.o.o.o.*.*.*.*.*.*.*.*.X...~ ~ Y ^ @.& . o X ; tX>X;X*X;Xr.P P ' P ;X;X:X;XtX* . . . % %.$.X.o.O.O.X...O.O.o.o.o.*.:.n n S F L % X . o o . . . . o . . . . . X o . # h                                                                                                                                                                                                                                                                                                                                                                         ",
"                                                                                                                                                                                                                                                                                                                                                    > # . . . o . . X . a.*XQ.+XW.+X+X*X].'.< 4 < 4 r 5.5.5.5.] ] ] e.7.9.X $ . X X D S c c S v S S S A x e z z l #.$.| &.| X.X...*.o.o.*.o...o.&...X.X.X.X.X.X.....~ ~ Y R @.& . o X ; tX>X;X;X;Xr.[ [ [ ] >X;X:X:X>X% . . X % [ #.....X.X.X...o...O.O...&.*.n M G G K * X X o . o @ o . o . O . o . o . . $ g                                                                                                                                                                                                                                                                                                                                                                         ",
"                                                                                                                                                                                                                                                                                                                                                    > @ . o . . . . O X u.].'.W.W.W.W.,X].].< < < < r 5.5.5.5.5.5.] 5.0.9.. # $ X X a a c c c c A A A A t t t e 9 @.@.} $.| $.$.| #.| ......| | | | | #.#.#.#.| | | Y Y Y R @.& . o X ; tX>X:X;X>X] ] { [ ] ;X>X=X=X>X% X X X X [ @.$.....X.| #.#.| | | | #.=.v U G G K * % X X o . . . . . o . . o . . . + @ g                                                                                                                                                                                                                                                                                                                                                                         ",
"                                                                                                                                                                                                                                                                                                                                                    : : > # > > > : # - a.}.-X].].].].].].>X< 4 1 w A ] e.5.[ 5.5.[ 9.8.6.# # + X X s a a a a a a a a a s s a a y [ ] [ %.[ @.%.@.%.$.%.$.%.@.@.@.@.[ [ [ [ [ [ [ %.T T [ [ ] & O . . 5 >X>X:X;X;Xy.{ [ [ ] ;X:X=X:X>X= X . X X Q e.@.@.%.-.%.%.%.[ @.R R @.%.c G G K f * X X . @ + @ . . @ # @ o o # # # # :                                                                                                                                                                                                                                                                                                                                                                           ",
"                                                                                                                                                                                                                                                                                                                                                                        ' % X X X X . * X < f.u.t.r.e.e.5.] 5.5.X X . . # . @ @ X . X . . X X X X X . X . X X X X X X X % % % X % % % % % % % % % % % X X X X X % % X * * X ; X o . . < >X:X;X;X>X[.>X>X>X*X>X*X:X:X:X% . . . X X % % % & = = = % % X X = % X % % X X * . . o . . $ @ . > >                                                                                                                                                                                                                                                                                                                                                                                             ",
"                                                                                                                                                                                                                                                                                                                                                                        W X . $ X . X o X - i.u.u.r.e.] ] ] 5.5.. X . . # # > + $ o # . . . . . . . . # . . o o . . o O o X O X X X X X X X X X X X X . . . . . . . X X O o > @ o o X < >X:X;X*X*X;X;X*X>X;X*X[.[.[.>X* . . . $ . . X X * O O O # o . . . . . . X . . o o O o . # . $ . $ .                                                                                                                                                                                                                                                                                                                                                                                             ",
"                                                                                                                                                                                                                                                                                                                                                                        g . # . . O . O X - a.4.[ 5.5.5.5.5.5.9.X X . o . . . . . + . . . . $ . . . . . . @ @ . @ . @ @ . @ o o o o o o o o o o . . . . . . . . . o # o o > > o o o X ; >X:X=X[.*X>X;X[.;X:X=X=X*X[.eX% . . . . # . . . o o @ # @ . o @ . o o . . o . . . . . . . o # # $ >                                                                                                                                                                                                                                                                                                                                                                                             ",
"                                                                                                                                                                                                                                                                                                                                                                        3.# o # o . . O # ; 0.9.4.4.4.5.5.4.4.9.X . . . . . . O o o . $ $ $ . . . . . . . . o @ . . @ # # # o o . . . . . . . . . . . . . . . . o O # # O # o > O O O ; ;X;X*X*X*X*X*X;X*X*X[.{.[.}.-XX . . @ o . . . o o O # @ o > o . o . . o . o o . o o . # o # . . # o                                                                                                                                                                                                                                                                                                                                                                                             ",
"                                                                                                                                                                                                                                                                                                                                                                          p p p j # . . # O 4.W W g g ' ' ' ' 4.; * - X - O O X O - - : > > o - O - ; X : > : j q # : : : : : 5 ; ; ; ; ; ; ; ; < < 5 : : : : : 5 5 ; 5 : : : * # # * q ;X;X:X:X:X[.*X*X{.[.[.[.;X[.-X< - - ; # ; ; ; ; * : : ; : : : : : : p o - - - O - - * - # . o > o o                                                                                                                                                                                                                                                                                                                                                                                             ",
"                                                                                                                                                                                                                                                                                                                                                                                  o o o # O O . . . . o X X X X q.8.9.3.4.4.4.4.4.4.7.4.4.4.0.c.z.g.h.z.mXVXVXVXMXz.f.f.g.z.[.].}.}.].].].].].].mXmXmXmXMXMXMXMXVXVXuXuX>X>X>X7.q.0.' 5.>X;X[.{.[.].*X[.[.[.{.[.{.[.>X[ [ [ 5.4.}.].z.].'.sXVXVXVXVXVXVXVXVXVX9.u.u.u.9.a.a.a.a.f.: o O . :                                                                                                                                                                                                                                                                                                                                                                                             ",
"                                                                                                                                                                                                                                                                                                                                                                                  o @ o o # . $ . . . . . X X X 8.6.9.6.4.4.' 4.[ [ 5.5.4.9.7.c.g.g.g.g.mXmXmXmXVXf.h.g.h.h.;X[.[.[.[.|.].].].].zXmXmXmXmXMXMXMXMXVX>X>X:X>X>X] w.8.' 7.;X;X*X=X[.*X=X{.[.[.{.[.[.{.;Xe.] [ 7.7.].,X'.].z.sXmXmXmXVXMXmXVXMXVXu.i.u.a.u.a.u.u.u.q.# o . # o                                                                                                                                                                                                                                                                                                                                                                                             ",
"                                                                                                                                                                                                                                                                                                                                                                                  # # O O # . o . . . . . . X X 0.9.9.7.5.5.] [ 4.5.5.7.7.] 7.'.'.T.T.'.VXmXmXVXVXa.g.f.g.g.[.].[.[.].[.{.{.|.|.sXmXmXmXMXmXMXmXmXMX>X>X>X>X>Xe.5.7.] r.>X*X[.[.;X|.[.[.[.].[.[.[.;X;X] [ { { 7.].].[.].'.sXmXmXMXMXVXMXMXMXVXi.i.i.u.r.u.u.i.i.a.; X X o O                                                                                                                                                                                                                                                                                                                                                                                             ",
"                                                                                                                                                                                                                                                                                                                                                                                  O o o o O o o . . . . . X X X 9.0.9.5.5.5.] [ 5.5.5.5.7.{ i.'.].'.'.|.VXVXVXVXmXf.g.h.i.h.;X*X].].].[.{.{.{.{.MXMXmXmXmXmXMXVXVXmX,X,X,X>X>Xe.] ] ] r.>X*X[.[.|.{.|.[.[.[.|.[.[.[.;X] { ] { 7.[.*X*X].].sXmXmXVXmXMXVXCXMXVXh.i.i.i.r.u.u.u.u.a.- X X o o                                                                                                                                                                                                                                                                                                                                                                                             ",
"                                                                                                                                                                                                                                                                                                                                                                                  . O O # . # . . . . . X X X X 4.7.7.7.5.5.] ] 5.5.[ [ ] ] r.h.W.'.|.;XmXVXVXVXVX'.i.h.h.h.].|.].|.|.{.{.[.[.[.mXmXmXVXmXVXMXmXMXxX>X,X,X;X:X[ { ] [ %.>X*X[.[.[.;X'.W.W.[.'.=X[.;X;X] ] ] { 7.].{.{.{.*XdXsXxXsXmXVXmXmXVXVXh.i.y.i.t.r.r.r.r.q.- . X o o                                                                                                                                                                                                                                                                                                                                                                                             ",
"                                                                                                                                                                                                                                                                                                                                                                                  o . . o O 8.8.w.6.w.6.6.4.4.4.5.5.7.7.5.5.5.] [ 5.[ [ ] ] ] r.r.t.%.[ [ ' _ _ P i.h.s.s.i.s.s.t.t.-.t.t.p.s.s.K H I F f ].;X:X=X:X].*X,X*X:X@.{ ] [ { ;X*X[.{.{.iXsXzXxXzX*X*X;X:X>X7.] [ ] { ].=X{.{.W.{.T.W.g.g.u i P F I r.s.i.i.i.i.t.r.r.q.* . . . o                                                                                                                                                                                                                                                                                                                                                                                             ",
"                                                                                                                                                                                                                                                                                                                                                                                  . o . . . q.8.8.8.8.0.0.5.5.5.4.5.5.7.5.5.5.5.] 5.] ] ] ] ] %.%.t.r.] ' ' ' ' T h.i.s.h.y.t.i.s.y.t.i.s.s.h.h.H _ _ P I >X>X:X:X:X*X:X*X*X>X%.{ { ' ] ;X[.[.{.[.sXmXmXmXmX*X*X;X:X>X7.] ] ] ] ].=X{.=X[.{.W.W.g.g.m H F I P i.i.i.y.y.y.i.t.r.9.* . . . o                                                                                                                                                                                                                                                                                                                                                                                             ",
"                                                                                                                                                                                                                                                                                                                                                                                  . o . o . q.8.4.4.5.4.4.4.4.4.4.5.4.5.5.5.5.5.{ 5.5.] ] %.%.] %.r.5.] ' ' _ ' P h.h.s.i.s.h.i.i.i.i.s.s.s.h.h.[ [ [ ' _ >X>X:X:X*X*X*X*X;X>X%.4.[ ' [ ;X[.[.[.].sXmXmXmXmX*X*X;X:X>Xr.5.] ] { [.=X{.[.[.{.'.'.g.g.F I _ P P a.i.i.i.i.i.i.u.r.q.* . . . o                                                                                                                                                                                                                                                                                                                                                                                             ",
"                                                                                                                                                                                                                                                                                                                                                                                  . o . o . 8.6.5.9.5.5.6.4.4.4.4.4.[ 4.4.4.4.4.{ { 4.5.5.5.5.5.[ ] ' ' ' ' W ' P u.i.f.a.i.i.i.i.i.a.a.s.s.h.h.[ ] ' ' ' -X-X,X,X,X[.,X;X;X>X] ' ' W [ ,X].[.[.[.sXMXmXmXMX;X>X;X:X>Xu.7.4.7.7.}.;X[.[.[.|.].].c.f.f I L L ' i.a.a.i.i.i.i.i.u.q.- . . . o                                                                                                                                                                                                                                                                                                                                                                                             ",
"                                                                                                                                                                                                                                                                                                                                                                                  . o . . . q.q.0.0.0.0.6.6.4.6.6.4.3.4.4.4.4.6.4.4.4.4.4.4.4.4.4.4.3.3.' ' W ' W f.f.a.a.a.a.a.a.a.a.a.a.a.f.f.' 4.' ' ' -XeX-X-X-X-X-X-X-X-X4.3.' W [ [.[.[.[.[.sXmXmXmXmX;X;X:X>X>Xu.7.6.4.7.}.-X;X;X-X}.}.].z.c.s f d W d f.a.a.a.a.a.a.a.a.q.- . . . o                                                                                                                                                                                                                                                                                                                                                                                             ",
"                                                                                                                                                                                                                                                                                                                                                                                  . o . . . X X . X X X X . . . . . . . . . . . . X . . X . . o . o . . O . . o X . X X X X . . X X X X X X X O X X X . . . . . . X . - X O X . . . . * -X[.[.[.;X[ J J P L ;X>X:X>XuX= X X o o X X X X X X X X . . . . . . . o X X X X X X X X . X . . O o                                                                                                                                                                                                                                                                                                                                                                                             ",
"                                                                                                                                                                                                                                                                                                                                                                                  . . . o . X X . . . . . . . . . . . . . . . . X . . . o . . o o . . O . o . . o . o X . . . X . . . . . . X X X X X . . . . . o . . X X X # . . . X * -X[.;X;X;X] W P P W >X>X>X>XuX= X o . o . . . . . . . . o . . . . . . . . o o o o o X X o . O o . O                                                                                                                                                                                                                                                                                                                                                                                             ",
"                                                                                                                                                                                                                                                                                                                                                                                  . . . . . o . . . . . . . . . . . . . . . . . X . . . . . . . . . . X . $ + . . . . . . . . X X X . . o o o o . . X . . . . . . . X X X . . . . . . % -X}.}.}.-X5.W ' ' [ >X>X>X>XuX= X o . . o o o . . . . o . . . . . . . . . . . . o o O O O o O o O o                                                                                                                                                                                                                                                                                                                                                                                             ",
"                                                                                                                                                                                                                                                                                                                                                                                  . . . . . X . . . . . . . . . . . . . . . . . . . $ . . o o X X % % X X . . + . . . o # O O X X X X X . . . . X X X X X o . . . * X % % X . O . . . * eX>X}.}.>Xe.P [ [ [ >X>X:X>XuX= o o . . . . . . . . . . . X X . . . o o . . . . . . o O O > # . # O                                                                                                                                                                                                                                                                                                                                                                                             ",
"                                                                                                                                                                                                                                                                                                                                                                                  . . . . . o . . . . . . . . . . . . . . . . . o . . . o X X % % & % & X o . . + . . . . . O X * O X X X X O O O O * * X X o X X % & & % & = X . o . ; -X>X;X>X].r.[ [ [ [ >XtX>XuXiX= o o . o . X X X X X X O X * * * X . . . . . . . . . o # > O > : #                                                                                                                                                                                                                                                                                                                                                                                               ",
"                                                                                                                                                                                                                                                                                                                                                                                  . . . . . . . . . . . . . . . . . . . . . . . o . o . . . t |.R.E.E.R.& X . @ . . o o O ; d W L L J J J J L L f f J J F f f a F S E.E.E.R.T.& . o . X f.u.] e.a.T.[.;X;X[.sXuXuXuXiX; o o o o d f d f f J L L I I F J J d s O . . . . . . . $ #                                                                                                                                                                                                                                                                                                                                                                                                       ",
"                                                                                                                                                                                                                                                                                                                                                                                  . . . . . . . . . . . . . . . o o o o o o . . o . . . $ % 1 R.E.L.L.E.% * . . . . o . . X J L I H I I F F I I m m I I I F F m m n (.E.E.E.{.& . o X - f.u.u.r.%.'.;X[.[.].sXuXiXiXaX= . . . o s f J F F I H H H H H H I L a . . . . . . . . + .                                                                                                                                                                                                                                                                                                                                                                                                       ",
"                                                                                                                                                                                                                                                                                                                                                                                  . . . . . . . . . . . . . . . o o o o o o o o . o o . . % 2 E.L.(.(.E.& X . @ o . o . X * L J H H I I m m I I m m m m m m m m b N (.E.(.E.E., . . . - f.i.r.r.r.].*X].*X[.iXuXuXuXiX* . . o X a f I m m m H H m B m H m I d . . . . . . . . . .                                                                                                                                                                                                                                                                                                                                                                                                       ",
"                                                                                                                                                                                                                                                                                                                                                                                  . . . + . % % X . . $ . X X % o o + $ O . o o o . o . . X k E.P.P.~.).& % X X o . # $ . X W I I H P I I H m m A P G c F m m I v U  XE.E. XE., o o O * f.a.9.r.r.].[.[.[.[.uXiXuX1XiX* . $ . . p L J I I P W W P P Q K W K d . . . . . . . . . .                                                                                                                                                                                                                                                                                                                                                                                                       ",
"                                                                                                                                                                                                                                                                                                                                                                                  . . . + . % & % % % & & & & & O o $ $ o O . . o o . . o % b E.P.~.~.E.8 , % & % % % & % = W L L L W P L L I f L J y P K a f f G S {.E.{.E.{., . . . ; a.f.u.r.r.'.[.[.[.[.iXuX1XuXuXX o . @ $ h L L f L W W [ P ` P W W W d X . . . . . . . . .                                                                                                                                                                                                                                                                                                                                                                                                       ",
"                                                                                                                                                                                                                                                                                                                                                                                  . o o . X :X X).). X X X X X1X, X X X - W ' [ ' g o . . X k (.P.P.P.(.L.E.L.E.L.(.L.E.E.R.% X X o X % X X o o o . o . . . # . . X X % % % % X o # O ; f.i.] t.%.W.[.{.{.|.mXzXmXMXjX* . . . . . . X X * O . * * X X X . . . . . . . . . . . . .                                                                                                                                                                                                                                                                                                                                                                                                       ",
"                                                                                                                                                                                                                                                                                                                                                                                  O X . $ X 1X X`.XX.XoXoX4X4X0X< X $ X X ' ' P P W . . . % z (.P.^.P.(.(.(.(.(.^.^.`.(.E.{.& * O o o $ X . + + . . o . . . . . . O X . X X . - o . . * f.i.r.t.-.'.[.].].].MXmXmXmXVX; . . o o # o . O . O * X % X . . . . . . . . . . . . . . .                                                                                                                                                                                                                                                                                                                                                                                                       ",
"                                                                                                                                                                                                                                                                                                                                                                                  X O X . & 1X4XXXXXXXXX.X.X.X4X, X $ X X [ ` H K P . o X % k L.P.^.^.^.^.^.(.`.^.^.^.~.).Q.= . . . X X X X + + . $ . . . # . . o . # . . . X X # o * < u.u.r.r.y.'.[.].].'.mXmXMXVXMXX . . O . . o . o o O - . . # . . . . o . . . . . . . . . .                                                                                                                                                                                                                                                                                                                                                                                                       ",
"                                                                                                                                                                                                                                                                                                                                                                                  > - X X & <X4XXXXXXXXX.X.X3X0X, X o . . ' ` _ P P . . . X z (.^.^.^.^.^.^.^.^.^.^.^.^.~.E., % * X X X X . + + . $ o . $ . X . o . . . . . X & X % % % h.a.r.7.u.'.].}.}.}.MXVXMXMXVXX * X . - # # @ o > . . - $ . . . o . . . . . . . . . . . .                                                                                                                                                                                                                                                                                                                                                                                                       ",
"                                                                                                                                                                                                                                                                                                                                                                                  O - X % , 0X4XXX.XoX.XoX3X3X4X= o $ . o L _ m P L . . . X 2 E.P.^.^.^.^.D.P.^.P.^.^.^._. X8 , & % % < = ; # > > . . + . $ X X X O O o X X & % & & & = a.a.a.q.a.c.v.v.v.v.fXkXkXkXMX% X X - * # . @ @ . : > > # > . X X X X X . . . . . . . . .                                                                                                                                                                                                                                                                                                                                                                                                       ",
"                                                                                                                                                                                                                                                                                                                                                                          > + > > o o $ * , NX4X3X.X^.OXOXOXO.=.= o . . X L ` ` P f . . . X z (.(.^.^.^.4X4X4X4X5X^.^.^.^.^.4X4X1XpXzXHXHXLXJXLX: @ @ . $ MXMXMXMXMXW W W Q Q |.E. XE.'.= * X O . # . o - . ; # > - - jXmXVXVXSX: o @ @ > kXLXLXLXJXf.s.h.h.h.X . . . . . . . + .                                                                                                                                                                                                                                                                                                                                                                                                       ",
"                                                                                                                                                                                                                                                                                                                                                                        g . . . @ . . o * , NX4X3X4X_.OX( ( ( p.= X X X % _ T E I d . o . X z  X`.^.^.`.4X4X4X5X4X`.~.^.^.^.4X4X4X4XNXHXLXLXLXLX: o o o X VXMXMXVXVX_ [ ` } / (.^.P.(.I., % X X . X X X X . . o o X X mXMXMXVXSX: # . # # SXLXLXLXHXs.K.L.L.s.% . . . o o . . . .                                                                                                                                                                                                                                                                                                                                                                                                       ",
"                                                                                                                                                                                                                                                                                                                                                                        g . . + @ . o o X = NX4X3X4X.XOXS.=.( t.& X X X % Q P K I L . . . % z  X^.^.^.^.4X4X4X4X4X^.~.^.^.^.4X4X4X4XNXHXHXLXJXLX: o * * * VXMXMXMXBX` ` } / ( L.D.P.^.U.& % X O X X X X X X . O O X * MXMXVXVXVX; X > O O VXLXLXHXHXK.L.L.C.R.X . . o . o . . + .                                                                                                                                                                                                                                                                                                                                                                                                       ",
"                                                                                                                                                                                                                                                                                                                                                                        d X . . . . o o o , NX4X3X4X.XOX( ( ..t.& X X X % W P L L L o . X % z  X`.XXXX^.4X4X4X4X5XJ.^.~.~.J.3X3X3X4XpXHXHXLXHXLX5 . X = % VXMXMXMXBXM ^ C C ( (.^.^.(.L.& % X . . $ X X . . . o O . * mXMXVXVXSX; X X O X VXLXLXHXHXA.~.D.P.K.% o o . . . X . + o                                                                                                                                                                                                                                                                                                                                                                                                       ",
"                                                                                                                                                                                                                                                                                                                                                                        d X o . o . . o O , NX4X3X3X`.S.OX....:.& X X X X W L L P L o . X & b _.^.^.^.^.5X4X4X4X4XJ.D.D.D.J.3X3X3X4XNXHXHXHXHXHX, & & & , MXZXMXmXAXC Z / Z Z ~.^.^.(.K.8 & % % X % % % % % % % & , & mXCXCXCXCX, , & & , MXHXHXHXHXA.D.D.A.E.% o o . o . . + + o                                                                                                                                                                                                                                                                                                                                                                                                       ",
"                                                                                                                                                                                                                                                                                                                                                                j p p q J a s d p . . o X , 0X4X3X3X.XP.P.L.L.I.% . X . X ' _ _ P P X . X & b _.XXXXXXXXbXbXbXbX8X7X5X6X7X5X.XXX.XXX_.3X$X XoXoXE.L.E.(. X4X4X4X4X4X_..X.X.X4XD.D.D.D.^.3X4X1X1X1X2X0X0X0XNXNXNXNX0XNX*.=.K.K.K.(.L.E.E.L.(.(.(.E.~.7X5X7XvXAX& O o o o . . + + o                                                                                                                                                                                                                                                                                                                                                                                                       ",
"                                                                                                                                                                                                                                                                                                                                                              > o o O X f J W g g . . o % , 0X4X.X3XXX^.~.~.~.E.& . . . X _ _ _ P P X o X % b  X`.^.^.^.bXbXbXbX6XbX7X6X6X8XXXXXXX.X.X.X.X.X.XXX`._.oX_.oXoX3X3X3X4X4X.X4X4X3XA.A.D.D.P.5X4X4X4X4X5X7X7X6XvXbXbXvXnXvXS.S.B.S.( (._.`.~.^.P.P.P.L.~.bX5XbXnXZX& O O o o . . . . .                                                                                                                                                                                                                                                                                                                                                                                                       ",
"                                                                                                                                                                                                                                                                                                                                                              # o @ o * y _ L W d . . X * , 4X4X.X.XXXP.P.P.P.E.& X X . X ' _ _ P P X . o % z ).`.^.^.`.nXbXbXbXvX8X8X8X9X8XXX.X.XXX.XXX.X.X.X.X.X.XXX.X.X.X.X3X3X3X.X4XoX4X4XA.C.C.A.P.7X5X4X4X3X5X7X7X7X8X8X8X7XvXvXS.S...S.S.(.^.~.^.^.^.P.(.~.D.8X9XnXAXBX= O # X o . . . . .                                                                                                                                                                                                                                                                                                                                                                                                       ",
"                                                                                                                                                                                                                                                                                                                                                              # @ o o O y P ' W W X X X % , 4X4X.X.X`.P.P.P.P.L.& X $ X X ' ` ` P P o . . X l ).`.^.`.`.nXbXbXbXvX7X9X9X9X7X.X.X.X.X.X.XXX.X.X.XXXXXXXXXXX.X.X3X3X3X3XoX.X3X4XS.B.K.Z.P.5X4X4X3X3X5X7X7X7X8X8X8X7X7XvXS.o.M.S.O.~.~.^.D.J.^.~.(.~.~.8X6X6XnXCX= * # X X . . . . .                                                                                                                                                                                                                                                                                                                                                                                                       ",
"                                                                                                                                                                                                                                                                                                                                                              # * * * * f I _ _ _ * & % = = tXuX1X1X(.P.D.D.D.P.8 & . o O ' ` [ _ _ O % % % J >X[.[.{. XnXnX6X9X7XbX6XvXbX6XXXXXXX.X.X.X.X.X.X.XXXXX_._._.3XXXXX.X3X2XpXiXuX4XS.S.S.S.D.5X4X4X4X4X7X6X7X7X7XvXvX6X7XnXo.=.%.e.%.E.~.D.D.D.J.D.^.^.^.8X8X6XnXZX= X $ o . . . . o .                                                                                                                                                                                                                                                                                                                                                                                                       ",
"                                                                                                                                                                                                                                                                                                                                3.> o . # . . . # . # o . o # g _ _ _ I _ H _ ` _ [ [ [ [ J % % % & k 4X.XoX.X4X, % . o O ' [ ` _ ' O X X X % X & & , , 4X3X3X3X.XbX6X6X6X6X8X8XbXbXbXnXnXnXbXbXbXbXvXvX6X7X7X7X8XnX8 & & , 8 4X4X.X4XoX5X4X4X4X5XnXnXnXnXnXnXnXnXAXAXk & & & & E.3X3XXX3X7XnXnXbXbX8X8XnXnXBX& * o . O s g g d ' O . o @ o                                                                                                                                                                                                                                                                                                                                                                                             ",
"                                                                                                                                                                                                                                                                                                                                3.o o . o o # # # . . # . . . g f I I I _ H _ ` ` [ [ P L W X X X & 3 4X.X4XoX4X, X o o o ] ` Y ' ' X O . o # # X X & , 4X3X3X3X3X7X8X9X9X8X9X8X8X8XbXbXbXbX8X8X8XbXbXbX6X9X8X7X7XnX8 % X X & 1X3X3X3X3X3X4X4X4X4XnXAXnXAXAXAXAXnXAXZX8 X X % & (.3XXX3X3X7XbXnXnXvX7X8X6XnXZX% X . . . f d J f d O o o . o                                                                                                                                                                                                                                                                                                                                                                                             ",
"                                                                                                                                                                                                                                                                                                                                3.# > o . o o . O . o . # o . g L L L _ ` ` ` _ ` H [ ' L f X . . X 3 4X4X.X3XNX, X o o . ] ` ~ W ' X O . o o . . X % , <X4X.XXXXX9X9X9X9X9X8X8X9X6X6XbX8X8X8X8XbX8X7XbX7X5X7X8XbXnX, = . O & uX3X3X3X3X3X3X4X4X4XAXAXAXAXAXnXAXAXAXZX< O o . % (.3X.X3X3X7XbXnX6XnX8X6XvXnXAX% X X X . J D K K W * o . $ .                                                                                                                                                                                                                                                                                                                                                                                             ",
"                                                                                                                                                                                                                                                                                                                                ' X O O O X X X . o o . . . o h L _ ' ` ` ` ` _ ` ` m _ L f . o . X 3 NX_.4X4XpX, O . o . [ Y N ' [ X o o o o o . o % & NX4X3X4X3XnXbX7X8X8X8X8X6XvXvXvX8X8X8X8X6XbXnXvX6XbXbXvXnXAX< * X . % uX4X3X3X3X3X4X5X3X4XnXAXAXAXAXAXAXAXZXCX< . . . X E.4X4X3X4X7X6XnXvXnX8X6XnXnXBX& . . . . W J K K ' O o $ $ +                                                                                                                                                                                                                                                                                                                                                                                             ",
"                                                                                                                                                                                                                                                                                                                                f * * * * O X X X X . . X . . ' ' ' ' _ [ ` ` ` ` ` H I f L . . . . 4 iXpX4XpXzX= * o O * _ ` ` _ P * O o . . o o . X , uXpX4X4X$XvXbX8XbXbX7XbXvXvX6XvX6X8X8X8XbXnXnXvXnXvXnXAXZXMX= * X X X iX1X4X3X3X4X.X3X4X5XnXAXAXAXAXAXnXnXAXZX< . . . X {.1X4X0X0XnXnX6XvX6X8XnXnXnXmX& X o . . L I G U ' O o . . @                                                                                                                                                                                                                                                                                                                                                                                             ",
"                                                                                                                                                                                                                                                                                                  : # j # > p : : : q p p p p p a.f.z.z.z.}.}.}.}.}.W ' ' ' 4.o * * * < I _ ` B B m ` I f g . . . $ X , , , , , Q ' L L f ` _ _ m ` I L W ' h . . . X X = & , 8 k 4X4X4X4X4XnXvXbXvXvX6X6XbXbXbX3X`._.3X<X3 8 < < < X X X X % & & , , k 4X4X.X3X3X5X5X5X4X4X4X4X4X4X0X, . . . . % < , , 8 4XnX8XvXnXJ.D.D.L.E.% . . . . f J G K ' ; . . @ @ > > > > : : : j :                                                                                                                                                                                                                                                                                                                                                                           ",
"                                                                                                                                                                                                                                                                                                  . o . o o . o . . . . . o o o i.].z.z.z.}.[.}.}.}.' ' [ 4.7.* O X X * I ` ` H H H I I d g . . . . X X X X = & P [ _ _ _ _ _ _ ` m H _ P L s X . + . . # $ X % 8 4X4X4X4X4XbXbXvXvX6X6X6X6XbXbX3X.X.X.X<X& = * # $ . X . . X X . X % k 4XoX3X3X4X3X4X5X4X4X4X4X.X4X4X8 . . . . X $ $ < % 1XnX6XvXnXS.D.D.L.R.& X . . . f L I H ' * X . + + o @ # o # # @ @ o '                                                                                                                                                                                                                                                                                                                                                                         ",
"                                                                                                                                                                                                                                                                                                  . . O o X . . . . . . X . . o a.].h.g.g.[.[.].].;X[ [ 5.9.7.* # X O * L [ H H K I P L d g . . X X . o o o O * P T T T T ` _ _ ) m H _ H T a % X . . @ . o o o , 0X4X3X4X4XbX8X9X6X6X7XvXvXnXnX3X.X.X.X$X, X O # . . . . X . X @ o X 9 4X4X.X3X3X4X4X4X4X4X3X3X.X4X4X, % . o O # $ > > * 2XvXnXnXnXA.P.P.L.E.% . . . . f f I H W ; . . # @ o # O # # # $ # o '                                                                                                                                                                                                                                                                                                                                                                         ",
"                                                                                                                                                                                                                                                                                                  X . . X X $ X . . . X X X X X u.z.g.g.g.[.[.].].[.` ] u.u.i.% # # # O L ' I P P I J J d d X . X X X o o o o X W T R T T _ _ _ H m m m m K y % X X . O . o o o 8 <X<X4X4X4XbX8X8X9X6X6XvXvXvXnX.X.X_._.).& X . o o o o . . . X . O * 9 0X4X3X4X4X4X4X4X4X4X4X4X3X3XNX, % X X O - X . # o >XNXvXNXnXL.L.E.E.|.& X . . . f f m m ' * . . . # . O # O . $ o # o 3.                                                                                                                                                                                                                                                                                                                                                                        ",
"                                                                                                                                                                                                                                                                                                  - X - % X X X % % % % * * * - a.a.a.a.u.].'.T.'.'.r.r.r.r.f.w q : ; q f L f y a s a f d s ; X X * O . o o O O W P T T T H _ _ H m H B m T m = = * * * o o o o & pXNX1X4X4XbX8X7X7XnX0XNXNXNXNX4X)._. X=X, = * % = . o o o $ - = * = e 1X1X1X1X1X1X1X1X1X1X1X1X1X1X1X1 % ; ; * = < = O * ;XzXpXcXcX:.K.R.K.s.= O o . * y I H ` W * X # o o : ; * * : . # o o g                                                                                                                                                                                                                                                                                                                                                                         ",
"                                                                                                                                                                                                                                                                              o o o o o O O o o X W J L K K [ K K K K K K W W W * X X % & ] r.%.%.y.uXiXdXiXiXz.c.c.v.c.* X . X X . . . X * J W W W d ; O o o o W W P T K H m m I H -.>.>.d.y.P ' ' _ _ i y y f U , & , 8 8 4X.X3X.X`.8 , , , , b N n b l !.W.W.Q.=X{ ] 4.3.4.4.[ [ [ K , % % & & % % % % % & & , & , [ 4.' _ %.d.d.d.j.j.1 % & X % , , & , < L L d d d I I m m ' ; . . # - -X>X>XtX-X$ $ o # o # # @ o o o o . . . $ o # . .                                                                                                                                                                                                                                                                                                                                           ",
"                                                                                                                                                                                                                                                                              o o o o o o o o . % P P Q P K S K G G G K K K K T : X X X X 5.r.r.y.y.iXuXuXiXiX'.].z.z.c.X X . . . . X . X X W W W ' f O o o o O L L P H H m m m m H d.d.<.d.y.` _ _ _ _ y y c F K % % % , , 4X.XXX.X X, & % % % T v G c c W.!.Y.Y.#X` ` ] [ %.@.[ ` [ P X X X . X . . . . . . o * = * [ ' [ [ ` I.!.F.,.y.< X % O X X % % % % L L J J K G G m B ' ; O X # X tX>XuX>X-XX # . o > # # @ o o . . . . . # . . # o                                                                                                                                                                                                                                                                                                                                           ",
"                                                                                                                                                                                                                                                                              # . . o o o o o o X [ P G [ G U E U U U U G G G U > . X X . 5.u.u.y.i.uXiXuXuXdX'.g.g.g.k.- . . . . . . . X X ' W L ' L * O O o X d L _ H m m H H H H <.<.<.<.-.H ` ` H H c m F K L % $ $ & , 4X.XXX.X X, X X . X m I y P i W.!.Y./.@X2. .` ` ` ` ` ` [ J O . . o $ + . . . . . @ O O = ' ' [ ` ) <.F.1.<.-.4 X X . . . . $ $ X L L I G K T T H m ' ; O O X * >X>X;X>X>XX X # O . @ o . . . . . . . . . . # . .                                                                                                                                                                                                                                                                                                                                           ",
"                                                                                                                                                                                                                                                                              # . . o o o o o o & G [ U v R Y U E U U U U U U U > . o o . 9.u.u.r.j.iXdXuXuXiXg.R.g.h.h.; . . . . . . . . O ' P H _ L * # # . o f I _ m m m H H m m 1.1.<.<.>.` T T m H c m F K d X @ @ X , 4X.XXX.X X& . . . o i m H c m !.Y.H.J.@X2.| ` ` ` ` _ ` ] L O o o # X X . . X . . + # O = [ ` ` ` ) I.<.>.<.-.< X X . @ . . $ . O f L H G K T T _ ) ' ; X X X * >X>X>X>X;X% X o o # @ o . . . . . . . . . # . . -                                                                                                                                                                                                                                                                                                                                           ",
"                                                                                                                                                                                                                                                                              . o o o o o o o o & T G R E U E N N N U U U M U U > o . . . 9.a.i.f.i.dXuXuXdXuXg.R.s.s.z.% . . . . . . . o * ' _ ` ` L * # # . . f m m m m m I K m B <.<.1.+.,.` E U m H m H K W W O @ @ # , 4X3XXX.X1X& o . o . i i m c b +XH.@XqX@X2. .` ` ` ` ` H [ ' o > O X X X . X X X . @ O ; * ` ` ` ` ) +.<.<.>.d.< X $ . . + . . o . f I P T U Q K _ _ ' ; . X * X uX:X>X:X>X% - o o o @ . . . . . . . . . . . . . .                                                                                                                                                                                                                                                                                                                                           ",
"                                                                                                                                                                                                                                                          g h h h h h p p h L Q ` }  ./  .} @.@.$.M Y M Y Y E U U U E ..| ......O. .^ R 5.: p : q ; h.h.d.s.j.iXuXuXuXiXP L W d h . . . . O : : ; ; : > @ @ . . f L m m V >.,.,.-.,.1.<.<.1.1.Y.H.H.H.!.V m I L g o o o # - s s s 5 q d f i H c F.F.H.H.H.H.H.qXqXqXH.H.H.H.Y.+.X.+.,.-.m H I f a s u u u y m I H H B H.H.H.H.F.Y.Y.Y.Y.Y.$.[ [ _ W . . . . . d I m _ m d.<.F.F.j.; . X $ $ f.i.y.d.y.{.|.'.].s.# . . o X Q =.*.B.*.M U T Q P y h h p p p p j p p                                                                                                                                                                                                                                                                                                                       ",
"                                                                                                                                                                                                                                                          $ . o . . . . . . ; r.%.=.&.X.&.&.=.=.=.E Y Y Y M M M U U Y =.=.&.&.&...| &.t.i.= ; O O 5 i.h.y.%.r.dXuXpXiXiXe.W W ' W . . . o O o . X O # o @ . . . p f m U B >.,.<.>.>.1.<.<.1.F.Y.Y.Y.Y.Q.B m I J g ; o o # * X % X X O _ _ I K G U.Y.Y.Y.Y.Y.H.qXqX@XH./.Y.Y./.+.+.>.>.>.m H P L d f f f F I H H ` ` ) !.H.H.H.F.Y.Y.Y.Y.Y.>.[ ` _ P o . . . . f H B m m d.d.<.<.j.= X X . $ u.7.%.-.y.>X>X>X:XT.$ . . o X e.K.V.V.I.Y E R %.Q % o o . . o . . o .                                                                                                                                                                                                                                                                                                                       ",
"                                                                                                                                                                                                                                                          o . # . # . . O X , %.$.&.X.X.X.&.&.&.=.N N Y Y U Y Y N N ~ *.*.*.*.*.*.X.&.=.y.% X O X * f.i.r.i.[ sXpXpXiXiXi.[ W 3.W . . o o o o # X X o o . . . . f F I U m >.,.1.>.>.+.1.1.1.<.Y.Y.Y.Y.#XB B m I W X o O O * * X X X . _ I H T ` H.Y.Y.Y.Y.Y.Y.Y.@X@X@X@X@X/.@X+.+.>.>.>.m m m F f f f f F H H H _ ` ) !.F.F.F.F.Y.Y.Y.Y.Y.+.` ` ` [ X . . . X f m m H H d.<.<.F.j.= * % X - u.7.r.r.%.:X:X:X>X'.. . . . X s.E.U.U.I.n } @.R [ = # o o o o . . . o                                                                                                                                                                                                                                                                                                                       ",
"                                                                                                                                                                                                                                                          O . . . . . . X X & y.$.$.&.X.o.o.o.o.*.~ N E E E Y N N N ~ *.*.*.o.o.X...&.:.s., % = * % a.u.7.7.7.aXiXuXuXsXe.4.[ ' 3.. . . . o . . $ $ @ o . . . . s a c c m d.>.>.>.>.1.<.1.<.F.Y.Y./.Y.#XB B m H ' * * O * X % - $ % O I _ m B B H.Y.Y.Y.Y.Y.Y.Y.Y.Q.Y.Y.Y.Y.@X+.>.<.>.-.m m F F i f f F I H H H ` ` ` W.!.!.I.d.!.Y.Y.Y.Y.,.)  .` [ X . . . o I ` m H m d.<.<.+.j.= X % X X a.7.e.t.t.uX:X;X;Xh.. . . . X y.I.L.C.E.} #.^ @.@.% . . . . . . X X O                                                                                                                                                                                                                                                                                                                       ",
"                                                                                                                                                                                                                                                          . X X o . X % % % , @.#.$.$.&.&.*.*.o. .~ C N N N N N N N C *.o.O.O.O.O.O.*.&.p., & % % * a.0.3.4.4.jXuXiXiXuX5.[ ' 4.6.. - > o o . @ $ o o . . . . . r y c m m -.-.-.>.>.<.+.,.+.F.Y./.@X@X#XB m m H L % = = X * - X o X X I m B ) ) H.H.Y.Y.@XY.Q.Q.Q.Q.Q.Q.Q.+X#X>.d.d.d.-.H F f f f f f d J L P W _ _ _ W.!.I.d.d.W.Q.Y.Y.Y.2.) V B ` X o # o X P m V B U y.<.<.<.j.< % * . ; a.9.u.u.[ tX[.[.;XR.. . . X % t.K.U.U.U. .^ } $.R & % X % % X X X X .                                                                                                                                                                                                                                                                                                                       ",
"                                                                                                                                                                                                                                                . . . . X ' s W d P |.|.{.{.R.n n M M M N N N C C *.*.*.*.*.;.;.;.;.M.E.U.U.U.U.E.U.E.Q.1X:.p.p.t.u.X . X . * a.h.s.s.h.uXhXhXjXgX; . . . o . . o o . . . . . X 7.y.-.-.@.m z m b B !.+XY.Y.Y././.@X@X#XB B m H ` j.d.d.j.j.; - . $ ; *X+X#X+X#X1.F.1.+.+.V B V B B n n B m B , % % * * X X X X . . X X X X * * O O * T B m m b ,.,.,.2.+.F.+X#X#X=X= . . . * a.d.!.d.p.B b l m m d.y.y.j.f.X - % % & [.:X*X[.h.. . . . X S N C Z C N / E M } R.h.h.d.s.%.[ ] [ u.* * . o                                                                                                                                                                                                                                                                                                               ",
"                                                                                                                                                                                                                                                . # . X X d K J S v {.Q.Q. XE.n n U G U U U N E N B.B.;.;.;.*.M.*.o.M.U.U.U.U.~.E.~.).Y.).M.;.:.%.u.. . . . X c.d.h.g.h.iXsXsXmXhX* X # # o . . o o . . + + . X ] y.>.<.d.b m H M m +XY.Y.H.H././.@X@X#X) B m T H d.>.d.-.j.* # # O , 1X+X@X@X#X1.1.1.<.<.B N N Y N M m M m I = O O O X . . . . . . . . o o o o @ o X H M b V b  .,.,.,.,.F.+X@X#X#X% X $ $ X j.<.<.<.I.m m m m M -.d.d.y.j.X X - X X -X;X[.{.R.. . . . % G Y C C C N N Y ! b I.I.K.K.:.} R @.Q [ = X - . @                                                                                                                                                                                                                                                                                                             ",
"                                                                                                                                                                                                                                                # o X X X P I S U b Q.).).E.E.n v G G G G U U U N B.*.o.;.;.o.S.M.S.M.~./.~.~./.~.~././.Y.M.o.&.%.] X . . . % z.h.h.T.g.iXmXmXmXhX% X O o O # . o . . . + + . X ] <.+.>.<.l I I U b #XY.Y.qX@X@X@X&X@X#X) B G T T d.>.<.d.j.* # - X < =X#X/.@X@X<.<.1.<.<.m B B B M c c c F F % o o o o o . . . . . o o o o o o . . X J G m m b } ,.,.,.,.H.#X#X@X#X% % $ $ . j.<.<.I.I.m m H I m >.>.-.d.r.X $ X X % >X[.[.{.R.. . o . % K Y C C ~ Y M Y M b R.G.C.F.B. ./ } } @.< % . O .                                                                                                                                                                                                                                                                                                             ",
"                                                                                                                                                                                                                                                # - X X % T G G N b ).).E.).E.b v S K F G G U M N ;.*.*.*.o.S.M.S.S.Z././.~.U.~.~.~./.U./.O.o...$.e.X . . . X z.h.g.'.].sXmXmXmXhX* * O > O # @ o . o . . . X X { >.1.+.<.b m P M B +XY.@X@XJ.&X@X&X&X#X) B B T H d.>.>.d.y.O * * % 3 1X#X@X@X@X<.>.<.>.>.H H T m _ w y t A x & X X - X o . X X X X o X . o X o X X X J f I y m %.,.,.,.,.!.#X#X@X#X& % X X * i.d.<.I.I.m m m m b >.<.-.-.i.. o . X X >X;X[.[.R.. . . $ % Q E ~ C n Y U U n n R.N.C.C.Z.C /  .} @., % X o #                                                                                                                                                                                                                                                                                                             ",
"                                                                                                                                                                                                                                                * % % % = S m U N M E.Q.).).I.N M G G c G m M n N X.*.*.M.o.S.S.S.S.S.U.~./.U./.~.U.~.U./.O.o.O.#.@.X . X . % z.z.'.].'.sXmXsXmXmX% X - X # O # o o o O X . X X %.<.<.>.,.B m c B V !.@X/.@X&X@X&X#X$X#X) B B E m j.y.d.d.y.* O % % 9 =X#X@X@X@X>.d.>.d.d._ _ L L L a t 7 z x , = & = & , & & & % & & , & & & % , & & J d g d i { ,. .,.,.Y.#X#X@X#X& = % % * j.d.<.d.W.z m m b B ,.>.<.-.7.X . . . X }.[.[.[.'.. . + # % W E Y Y N Y U U U U p.U.U.C.Z.../ / ~ } 8 % X X .                                                                                                                                                                                                                                                                                                             ",
"                                                                                                                                                                                                                                      : : q - 5 4.[ [ T E %.$.$.@.R E n N N M b v v m m @.$.&.*.*.*.*.o.o.S./././.~.~./././.~.~.~.U.U.U.U.O.O.O.#.@.A a s d s X X X % < uXmXmXmXzXh.z.k.z.f.- o o . O ' ' W _ ` i m m m m -.-.d.>.>.#X@X@X@XH.C ) V B ) F.!.!.!.W.% , & X * j.j.j.d.d.F.+.F.H.+.N B ` m P X X o O . u.s.s.K.K.NXvXnXnXnXnXnXnXnXnXAXnXnXnXnXnXnXvXNXxX& . . . . w i V V V +.F.F.F.F.Q.Q.{.W.,XX % % % & W.!.d.<.I.) V m i f o . . . X f.i.e.t.[ o $ @ @ % K G E M M U G ! M v E b b V C V.U.E.E.E.Y T G P J . . o # #                                                                                                                                                                                                                                                                                                   ",
"                                                                                                                                                                                                                                      > O O X = ] [ [ ` ^ $.| | [ @.M v m v v M M M M N | X...X.X...*.o.o.S./.~./.~.~.~.~.~.~.U.~.~.U.U.U.O.o.o.&.=.v c J J J X . O * * iXmXmXmXmXg.g.h.f.k.X O o o o 3.' _ _ _ m m m m b <.<.>.+.1.@XY.@X#XY.B B ) 2.V Y.F.F.!.W.% * % * X j.d.d.d.I.F.F.F.F.F.} B @.T ' X . . . X u.s.p.B.B.vX9X8XbXbXnXbXbXnXnXnXvXbXbX8X7X7X6XvXpX% . + . . q m V V B +.F.F.!.F.Q.Y.+XQ.*X* . X * % W.I.<.F.!.B V m I d o . . . X a.i.i.s.t.# $ @ # $ K U U U U U U U U M b E U N ~ E.U.U.U.E.N U R c J * X . o .                                                                                                                                                                                                                                                                                                   ",
"                                                                                                                                                                                                                                      - X % = = [ [ R ^ ~ &.&.&.%.%.m G v G G G n M n N ..X...X.*...o.X.o.o./.~.~.~.~.~.~.~.~.~.~.U.U.U.U.O.O.&.| | n E T S J * o O X X aXMXmXxXmXh.g.z.z.f.X * . # X ' I _ _ H I I K m m d.<.>.1.+.#X@X#X#X!.B B B B ) F.!.F.F.j.= X * X * g.d.F.F.F.F.I.I.F.!. .` T _ L X . . X X i.s.=.M.S.5X5X5X5X9X8X8X8X8X6X8XbX8X7X8X5X8X5X5XNX& . . o . a I m B B +.F.F.<.I.Y.@XH.+XW.X X . X = j.!.F.1.!.B m m f h o o X X % f.a.i.s.e.- O @ # X K U Y E U U U U U Y M v U E ~ I.U.U.E.U.C Y M T A X X # . o                                                                                                                                                                                                                                                                                                   ",
"                                                                                                                                                                                                                                      O X % = , @.} Y ~ N &.&...| @.v G G U G S U E N N ....X...| | X.O.o.o.U.~.~.~.~.U.~.~.U.U.~.~.U.~.E.X.X.X.;.*.N Y v T [ X . O O - iXmXmXmXmXR.h.h.h.f.X . . . . ' L _ L _ I J H m m >.<.<.F.+.#X@X@X#XQ.V m B m ) F.!.F.H.j.O X O : X j.!.F.H.F.F.I.!.F.F.%.` ` [ [ X X X X & %.=.S.S.S.5X5X5X5X7X7X7X6X7XvX7X6X7X5X5X5X5X5X5X4X, X X X X a P _ ` ) ,.<.F.I.<.Y.G./.Y.W.X . o > % ].<.F.H.F.B H F W g . . . . X a.f.a.s.t.* X o O % K U Y U M G U U M N N E U E ~ U.U.U.U.U. .N Y G K X X o . .                                                                                                                                                                                                                                                                                                   ",
"                                                                                                                                                                                                                                      O * = % , } } ~ ~ ~ | X...*.&.N M v S c E n n N C | =.=.=. .*. .C O.O.G./.G.G.~.~./.~././.G.U.U.U.E.*.&.&.X.*.N N Y Y P = @ o o : tXjXzXsXzXd.y.g.h.h.- X X . X d L f f _ f I H m H d.F.<.1.H.@X#X#X#X!.B B B ) B !.F.F.F.j.O o @ # * T.F.H.H.F.F.I.<.I.!.[ P [ P J = , % , , p.*.S.S.S.5X0X0XNXvXNXNXnXnXNXNXNXNXNX0XvX0X4X4XNX, , , & , F P [ ' _ -.!.F.<.>.Y.H.H.Y.].X . . o * W.F.F.H.!.B m F g W . . X X X a.f.a.i.e.X X o X % K U Y E U T E Y E N N Y U N ~ C.G.U.G.U.C N v G J X . . # .                                                                                                                                                                                                                                                                                                   ",
"                                                                                                                                                                                                                            . . . . O ' ' P ] R } ~ ~ C C N C N V N n U U K G t.p.=.:.*.*.=.=.$.| I.I.U.U.G.G.U.~.G.~.U.~.~./.Y.S.S.O.S.B...&.&.&.X.O.*.&.-.r.* @ @ # O 7.i.r.y.-.:X>X:X>X}.X X . . . X . X X X y I m m m d.F.<.F.F.V V ) V 2.I.d.<.d.<.<.F.!.F.j.O o > > - j.F.F.H.+.) B B B V * * X X & ].|.|.|.E.1X<X<X4X4XZ Z Z C N 8 8 8 8 3 3 8 8 8 8 o.X.O.O.O. X1X1X1XpX1 , O * = m ) ) ) B H.H.H.Y.W.X . . o * W.F.F.H.H.B H P g W . X X . * a.f.a.u.e.X X o X % K U U E U E U E E N N U U N N Z V Z Z V N M G P s $ . o . o o . # # o o o o o o o o . . . . . . . . . . . . . . . . . o o o o . . . . . . . . . . o o . . o . . . . . o .                                                                                                                                                                                     ",
"                                                                                                                                                                                                                            + . . . % W P T R E Y ~ ^ R E U U U G m U U M N N *.X.X.o.o.o.o.X.X.O.U.A.U.U.U.U.U.Y.Y.Y.Y.~.~.~.~.;.o.o.o.*.o.o.o.o.X.X.*.&.=.p., O # * * 4.a.9.u.y.:X=X=X[.}.X . . . . . . . . . a m m B B F.<.F.<.<.) ) ) B ` d.<.<.<.<.<.F.F.F.j.o o o - * g.I.F.<.<.m H m B ) # o o O % E.(.~.~.J..X3X.X3X3XZ ) _ _ d * O ; > > > > @ O O y.-.,.o.2.XX3X3X3XNX2 = # # O L ` ` B B !.!.!.!.W.% X X X * '.d.F.F.d.) m m I W X o o o . f.a.a.i.5.+ . . . X J G U U E N N N N N N N N N N N N N N n Y G G J J X X . . . o + @ @ + o o o . . . . . . . . . . . . . . . . . . . . . o . . . . . . . . . . . . . . . @ o @ . . . . . o .                                                                                                                                                                                     ",
"                                                                                                                                                                                                                            $ . X X X L K G T E Y Y Y Y Y U U U E G U U M N N ;.X.X.o.o.o.*.o.o.O.U.U.U.U.U.U.U.U.U.U.U.U.U.~.~.M.o.o.o.*.o.o.o.o.O.o.*.;.:.p., O O X X 0.f.u.u.r.:X:X=X[.}.. . . . . . . . . X f I m m B I.F.F.<.<.B ) ` ) ` d.1.1.1.<.<.F.F.F.j.o O # - * d.<.F.F.<.m H H m ) > . . X & {.E.(.~.D.3X4X3X3X4XZ ) m I d X O - # > > @ o X X y.%.,.X.O.3X3X3X4XNX3 & $ # * L H m B B !.!.!.!.W.X X X X O W.d.F.F.I.) m m L W X o o X X f.f.i.i.] . + . . X J F S U U U E E E E Y E E E E E E U U Y U S K J a % X . o o o o o . . . . . . . . . . . . . . . . . . . . . . . . . . . o o . . . . . . . . . . . . . . . . . . . . . . o                                                                                                                                                                                     ",
"                                                                                                                                                                                                                            . X . . X K P U U E Y N Y Y Y E U U U m U n n n N *.*.X.*.o.o.;.*.*.o.U.U.U.U.U.U.U.U.U.U.U.Y.Y.U.~.M.o.o.o.o.o.o.o.o.o.o.X.;.:.:., * - * % 4.u.9.u.i.*X=X[.[.}.. . . . . + $ . . . d _ H m ) I.I.<.<.F.B B B B B d.<.<.<.<.F.F.F.F.j.O O O * * d.!.<.<.d.H H H H H % X X X &  X(.(.(.~.4X3X3X4X0XV ) _ _ _ X X * * O O # O X X d.>.>.>.+.3X4X4X4XNX2 , * O * I H ` m V !.!.!.!.].X X X X X W.d.F.F.d.) m I L ' X o . X X f.a.i.y.] . o . . X J K T G G U U U T E T E E E E U U G G c G K K d W . X . o o o o o o . o o . . o o . o . . . . . . . . . . . . . . . . . o O o o o . o . o o o o o o o O O o o o o X X O o                                                                                                                                                                                     ",
"                                                                                                                                                                                                                            X X X X = F K U U N N N ~ Y Y E U U G v U E M Y C &.*.X.X.*.*.;.*.*.o.U.U.U.U.U.U.U.U.U.U.U.U.U.U.U.;.o.o.o.o.o.o.o.o.o.o.o.;.;.:.3 = * % < 4.f.f.a.7.>X:X=X{.'.X . . . o . . . . X f P _ B ` d.I.I.!.<.) B B ) ` d.<.<.<.>.!.F.F.F.j.% X X * * d.<.F.!.d._ ' ' _ ' % % X X , {. X X).).4X4X4X4X<XN ) _ _ F * % * * * * O X X = -.d.-.>.V.<X4X4X0XNX3 = X X * i H ` m B !.Q.Q.W.T.X . X X X g.d.<.F.d.B m I L ' X O . X X f.a.y.y.%.. . . X % a L Q Q Q ` ` [ [ [ [ P P P P P P K K K J d J d g X . X X O O # # O O . . . . . . . . o o o o o o o o o . . . . . . . X . . . . X . X . X . X . . . . X X X X X X X X O -                                                                                                                                                                                     ",
"                                                                                                                                                                                                                    j : q 5 s s w w w G U U E Y ~ Y Y Y E E U U G U @.#.| | | *.*.X.X.X.X.o.*.*.o.~.U.U.U.U.;.o.o.o.o.o.o.o.o.o.o.o.o.o.o.o.o.o.o.o.o.;.;.;.:.N P P P J < ; ; ; < ;X=X:X[.[.d g g g h o . o . X W _ _ m m ) ) ` ` ` >.>.1.,.,.) ` B ) ) <.<.F.F.h.% X - ; * ] ` ) ` _ < ; : ; ; J d f J m R ~ C  .~ C / ~ N ` m m _ _ ` t.y.y.y.-.-.r.t.-.%.) B ` ` ` $.X.;.X.>.T G J f y I H m m m m m m H _ X . o o X g.d.<.1.d.B m I L ' X O X O % h.s.y.p.%.: ; : : ; ; * * * * * * - - - - ; ; ; ; ; * * % X X $ * - O yXyXtXtXyXiXaXaXyXyXyXyXyXyXyXyXyXyXtXyXtXtXtXtXtXtXtXtXtXtXtXtXtXtX-Xu.a.a.a.a.a.a.a.a.f.a.f.f.f.f.i.f.a.f.f.f.f.f.a.f.g p g h p h p p p p p p p h                                                                                                                                                         ",
"                                                                                                                                                                                                                  # . . . - L D F G G m M U U N Y Y Y Y U U U G m U $.=.&.&.&.*.*.X.X.X.X.o.o.*.o.~.U.U.U.U.O.O.O.O.O...X.X.X.X.X.o.o.o.o.o.o.o.o.o.o.;.o.;.B. .] [ ` [ = - # o * >X:X:X{.].[ ' ' ' g . . o o O L L _ _ m m ) ` ` ) <.<.<.>.>.B m m m m d.F.!.F.h.% $ - ; * ` m B H I * O # # # J L f L H m Y Y b B b B M m m m m m H H h.j.d.d.!.d.d.d.d.d.V B m H m B B ` ` ` U H P _ H _ P H m H m m m H F X . o . X g.d.<.<.d.m c I L ' O O X O % h.s.y.p.%.: ; 5 5 5 X . . X X X X X O O O X X X o X X . . . . . . X . MXMXVXVXVXVXSXVXVXVXVXVXVXVXVXVXVXVXVXVXVXVXVXVXVXVXVXVXVXVXVXVXMXMXhXz.z.'.z.z.].'.'.'.'.'.'.'.'.'.z.'.'.'.].'.'.].z.c.0 o . . . . . . . . . o O O h                                                                                                                                                       ",
"                                                                                                                                                                                                                  # # O ; = L L v m G M U Y E E Y Y E E U U G G v M =.=.&.*.o.o.o.o.o.o.o.o.o.o.o./.U.U.U.U.o.X.X.X.X.X...X.X.X.X.X.o.o.*.*.o.o.;.S.o.M.;.;.;.| ` ` R [ = X # O * >X=X=X{.[.[ [ [ 4.W o o o o X d _ _ H m m m m ` ) d.<.<.1.,.m H m H m I.<.F.F.z.% X o - - ' _ H H d O O @ # # y _ _ I H m m m B ` m m m H I m m m m m d.d.<.F.<.<.<.<.>.>.V B H H _ H H T E B m m m m m m I I I H m H m I L X . . . X g.d.<.<.d.B m m L ' O O X O * f.f.i.p.-.5 5 5 5 5 . . o . . . o o o X X X O O $ o $ o . . $ $ . . X gXVXmXmXMXVXVXMXVXVXVXVXVXVXVXVXMXMXMXMXMXMXMXMXmXmXMXMXMXMXMXmXmXmXzXg.g.g.z.g.'.'.T.T.T.T.T.T.g.g.g.g.T.T.W.W.W.'.'.z.q . . o . + . . . . . o o O p                                                                                                                                                       ",
"                                                                                                                                                                                                                  o > # X ; ' W T G E U T T U R Y R E E U G G G v M =.*.*.*.*.o.o.o.o.o.o.o.o.o.o./.U./.U.Y.X.X.X.X...X.X.X.X.&.X.&.&.*.*.*.*.;.o.M.;.;.;.B.:. .} } T T = X O o * >X:X=X{.{.Q ] ' ' g . . o o - d ' _ H H H _ H H ` >.<.<.>.,.B H H T M !.F.!.F.g.* O # > - ' L I L f O . o O # f P I I m m m m m m m m m m m m m m m m >.<.<.<.F.+.<.<.<.1.B V m m H H _ H m m m m m m m m I I H H H H I I L . . . . X g.d.<.<.d.B m m L ' O O # # - k.f.a.j.r.5 5 5 q q # . . . . . . . . . . X o o O o $ $ $ # . o o X X jXMXmXmXmXMXVXVXVXVXVXVXVXVXVXVXVXVXMXMXVXMXVXMXMXMXMXMXVXVXVXMXMXMXzX'.T.g.'.T.T.'.W.W.W.W.T.T.g.g.g.g.g.T.T.T.T.T.g.g.5 X X . @ . . . o X X O O - d                                                                                                                                                       ",
"                                                                                                                                                                                                                  > @ # O ; ' W W W P P P K U T R T E R U U v v b b | X.;.o.o.o.o.o.o.o.O.O.O.O.o.U././.U.U.V.O.o.*.X.*.X.&.X.&.| =.=.=...=.:.*.B.o.;.;.B.:.B. .^ R R [ = X o o X -X*X[.{.{.[ ] [ 4.W . o o o O d W L _ I P ` H m B >.<.-.-.,.m H K T H W.!.H.H.g.O * O ; ; W ' L L i O . o O O m P K H m m m m V B V m m m m m m m m B >.<.<.>.<.+.+.F.+.1.V B B B B B ) m m V m V b m m i I I m H H m H H f X X . . X j.d.<.>.d.B M m I ' O O # # > f.f.f.u.i.q : : : : @ . . . + . . . X . X X X O O O # # # # o - X X X sXmXmXmXmXmXmXMXVXVXVXVXMXMXMXMXMXMXMXMXMXMXMXMXMXMXMXMXVXMXVXVXVXVXxX'.W.T.T.T.W.T.T.T.T.T.R.g.j.g.g.h.g.g.R.T.T.h.T.h.w X X X . o X X X X X * * O s                                                                                                                                                       ",
"                                                                                                                                                                                                        # o . > > o > . O # . X X X X X X % % & T U T E U ^ R ~ ~ ~ &.*.;.o.S.S.S.O.o.M.U.U./.U.U.;.O.o.;.o.O.o...X.| &.X.*.| $.n M M Y N ~ ~ ~ N ~ C ~  ./ | ~ ^ ^ R [ = X o . X -X;X[.{.{.[ ] [ 4.W . o o o O O O O * = F _ H H m m m i m m H H H T m !.!.H.H.g.* O O > # O . . . O f g d f _ I I v B ` d.d.I.I.I.<.<.<.d.I.I.<.<.<.>.<.>.>.<.F.H.Y.@X@X#X<.I.!.!.!.!.d.d.d.<.<.<.<.<.-._ I f H m H _ H m I _ ' ' ' L H c m B b m m _ ' J O O o # # : O X * X o . . . . . . . . . SXjXjXjXMXmXMXMXMXMXMXMXMXMXSXwXeXeXtX>X>X[.{.{.[.{.[.*X*X].*X*X*X*X*X*X*X*X;X;X;X;X;X;X;X;X;X;X;X;X:X:X:X:X:Xh.W.W.W.T.R.T.T.T.W.R.R.j.j.j.[ [ Q [ [ h.T.W.h.T.h.h.].].c.c.'.].].].}.}.}.}.k.X O . . . + + . O                                                                                                                                     ",
"                                                                                                                                                                                                        . o o . o @ . o . o o o + + + . . . X % P T U U N |  . .^ } *.X.;.o.S.S.S.o.o.o.U.U.U.G.E.O. .X.X.X.X.;.*.*.&.&.*.&.$.$.Y M n Y Y ~ N / ~  .C ~ /  ./ | / ^ R [ = X o . X -X;X[.{.{.[ ] 5.5.' X o o o o # O O X * ' _ _ m I m H m I i I H K T B !.!.H.H.W.= O # > : $ X X . o f f i i I I H H B B I.d.I.<.<.<.<.<.<.F.F.<.<.>.,.1.>.>.>.+.Y.@X@X@X#XF.I.F.F.F.F.d.d.<.<.+.+.>.>.-.m m I m m H _ H m H ] [ _ _ [ y m m m ` m _ I P ' O - o # > o o . O O o . . . . . . + . # SXSXVXVXMXVXVXVXVXVXVXVXVXVXVXtXtX>X;X:X[.;X=X=X{.{.*X*X:X*X*X*X*X*X*X=X*X=X;X;X;X:X:X:X:X:X:X:X:X:X:X:X>X>X:X'.'.R.T.j.h.T.h.g.g.g.g.g.g.g.5.] [ ] [ T.T.h.T.T.T.T.g.g.'.z.T.'.'.T.'.'.'.c.f.* O o # . . + o . .                                                                                                                                   ",
"                                                                                                                                                                                                        . . X X o O o O # o $ . @ @ @ $ . . X % P K U U M |  . .#.#.&.*.;.o.S.o.o.o.o.o.U.U.Y.Y.U.O.M.;.o.o.;.X.*.&.*.&.*.&.#.$.n U U U Y ^ U N N N ~ ~ / / ~ ~ / ^ R [ = X o . X -X*X[.{.{.[ ] 5.5.' X X o . o . o X X . ' I I H H m I i I I P H H _ B !.!.H.H.W.= = * # # . $ X X X d f f I J i i m B B !.<.<.<.1.<.<.1.<.F.F.F.F.<.1.1.>.>.>.+.Y.@X@X@X#XF.F.F.F.F.F.<.<.>.1.<.1.1.>.-.m c m m m m m m ` m ` ` _ _ _ m m m m m H P _ [ ' * X X . o # > # . O o o o . . . . . . . SXMXMXMXVXMXMXMXMXMXVXVXVXVXVXtX;X;X>X:X:X=X[.=X{.{.{.[.*X*X*X*X*X*X=X*X=X;X;X;X;X;X:X:X:X:X:X:X;X;X;X:X:X>X>X|.'.T.W.T.h.h.h.h.h.h.h.g.g.T.7.5.] ] [ T.T.T.T.h.h.T.T.T.].'.T.T.T.T.T.'.T.z.a.* . o . + . + . . #                                                                                                                                   ",
"                                                                                                                                                                                                        . . O O o O O . O . $ - # # @ o . . X X J J K G U @.@.} @.@.:.&.;.M.M.M.M.;.*.o.U.U.U.U.E.O.o.o.o.X.o.o.*.*.*.*.&.&.&.&.E U U U E U Y ^ N N } ~ Y / } $.^ ^ ` [ = X X . X -X;X[.[.{.] 5.5.9.' X o . . . o . X X . ' I ' P I I P I L L I I H B B !.Y.Y.H.{.= * X X o $ X X X . f f f J J _ m m m B !.<.<.<.1.<.<.1.<.1.F.1.1.1.1.1.1.<.>.+.@X@X&X&X@XF.+.Z.1.F.1.<.<.<.<.1.1.1.>.<.m b m m B B B B B B  .` ` ` ` H H H T P _ P ' ' ' * O * * # X O O O # O O # O o o . . . X VXMXMXMXMXMXmXmXmXmXMXMXVXVXVX;X>X>X>X[.;X:X[.[.[.=X:X*X[.*X:X:X:X:X:X:X:X>X:X:X>X>X>X>X>X>X>X>X>X:X:X>X>X>X>XW.W.'.'.T.T.h.h.h.h.h.h.h.g.g.r.] ] ] [ g.g.g.h.h.T.T.T.W.T.T.T.W.W.W.T.'.T.g.f.X ; . . . o . O O .                                                                                                                                   ",
"                                                                                                                                                                                                        O X O % = . X * X * % X * * O X X X . . d d J K F [ [ [ @.@.p.>.*.o.o.;.;.*.*.*.U.U.U.U.U.O.X.o.o.o.*.*.*.*.&...| | $.| T U G U S U v b M M N Y ^ } ^ ~ ^ ^ ` [ = X X . X ;X;X{.{.{.] 5.5.9.' X o o . . # . . . . ' f L _ L L W L L L I I m B B Y.H.Y.H.Q.3 , * * X % X X X * i f f J F i i m B B <.1.<.1.1.<.1.1.<.1.H.F.F.F.1.+.<.<.>.+.Y.@X@X@X@XF.F.F.1.F.+.+.1.>.+.1.>.>.,.,.B V m B m B ) B B B 2.2.) ` } m H ` P L ' ' L 7.' * < = * = - ; * ; - * - - * # O X X . X VXMXmXmXmXmXmXmXzXmXmXmXMXVXVX>X;X;X[.:X:X:X[.[.=XW.{.[.[.:X*X:X:X:X:X:X:X:X:X:X>X>X>X>X>X>X:X:X:X;X;X;X:X:X:X'.'.].W.g.T.h.j.h.h.h.h.h.g.g.r.5.r.] [ g.g.g.g.T.T.h.h.T.T.|.T.T.T.T.T.T.g.h.h.X X X X . X . . o o                                                                                                                                   ",
"                                                                                                                                                                                              # @ # # . -Xc.].].'.].].].}.-X}.}.[.[.].}.].'.c.k.X . X X X % X % & , G M N ~ ~ ;.*.*.*.&.X.O.O.O...X.X.X.o.o.o.o.*.*.&.~ ~ C ~ N 3 2 2 3 e iXzXpXcXpX} Y Y ~ ^ ^ R ^ ` [ , X X . X -X;X[.=X[.%.e.5.9.' X O . . + . . . . X ' L L I i X . . X ; L I m B B Y.Y././.#X<.<.d.d.d.j.j.j.d.-._ m i H m -.<.d.F.+.F.1.F.F.+.1.1.<.<.F.#X&X%X%X@X1.+.>.<.1.@X@X@X@X&X@X#X#X@X#XF.1.1.<.+.+.>.>.>.<.>.<.<.d.!.!.!.!.!.!.F.!.!.!.!.H H ` _ ' * X * . * uX>XuXtXiXVXSXVXSXVXSXVXVXVXVXVXMXMXMXsX[.].].;X[.|.[.[.[.[.[.:X:X:X:X>X:X>X:X:X>X[.=X[.|.T T U v G 1 2 e w e w e e t t t t e e e e e w w w 6 6 w w e e c c m e 9 1 < 1 1 < < 4 6 w e w 6 < < i.i.h.h.s.h.h.h.h.h.T.W.W.'.T.T.T.R.h.h.'.z.f.z.c.; O # o .                                                                                                                                   ",
"                                                                                                                                                                                              . + . o - v.].].].'.'.].'.].z.].}.{.{.].].].'.z.f.. . . . . . . o % , T Y N N N ;.;.*.&.&.*.o.o.O.X.;.X.o.o.o.o.*.*.*.&.C N N ~ N e 3 < 1 1 sXuXuXpXcXb N Y Y ^ ^ ^ ^ ` ] , X X . . }.*X[.=X[.e.u.5.9.' X O . . + + $ . . . L L L I L . X X X * ' P m ) B Y.Y./././.!.<.<.<.d.y.d.d.-.-.m ) m m c -.<.>.B.>.F.>.F.F.F.F.+.<.<.F.$X&X&X&X@X1.1.1.<.+.@X@X@XqX@X&X#X#X@X#X+.+.+.<.>.1.<.1.<.>.>.<.<.<.d.!.!.!.F.!.F.F.F.I.d.` H _ ' ' * X X * % uXtXuXuXtXVXMXVXVXVXVXVXVXVXVXMXMXMXmXmX].].[.[.[.[.[.[.[.;X:X:X:X:X:X>X>X:X>X;X;X>X[.[.[.E E R T T 1 1 e w e e x x t t t t e e t e t t e w w w w w e c y e c e e w w w w 6 w w r t w e w w 4 s.s.h.g.i.h.g.h.h.R.'.'.'.'.T.T.T.h.h.h.g.h.g.f.c.; X . . .                                                                                                                                   ",
"                                                                                                                                                                                              . . o o . ].c.T.T.T.W.W.W.W.W.'.'.R.{.W.T.'.T.'.h.. . . . . $ X X = = Q T R Y E &.&.*.*.X.&.*.&.&.o.S.o.o.X.*.X.;.;.:.&.E ^ Y ^ Y e 6 < 6 4 pXpXpX2XNXv U E R ~ / ~ ^ [ ] ; X X X X ;X*X=X=X[.%.e.5.9.' X X . . + . . . . . W W W L L . . X X ; W P T B B @X/./.J.+XF.F.F.+.+.+.+.>.<.>.m m m m m 1.1.>.<.<.>.F.<.1.<.F.+.F.+.+.@X&X&X&X@X+.1.+.1.+.@X@X@X@X@X@X@X@X@X#X+.+.+.>.>.<.>.<.<.<.<.1.F.<.<.H.H.H.H.F.I.F.H.F.I.B K P T [ = O o X X >X:X:X:X>XMXMXmXMXmXMXMXMXMXMXMXmXmXmXmXT.].[.[.*X{.=X[.=X[.:X;X*X:X;X>X>X>X:X:X:X=X;X].;XT T R U T 1 6 w t t x z z x x t t t t t t t t e w e e 9 9 c t u r a r 1 e 9 2 e 6 r w w w t t 6 w < a.s.s.h.h.d.d.h.h.h.'.W.W.W.W.h.T.T.R.R.R.R.R.g.z.: . o o .                                                                                                                                   ",
"                                                                                                                                                                                              . . o o X c.c.T.T.T.T.T.W.W.W.'.'.|.{.W.|.|.T.T.h.X . . . X X X * = = [ ` P m R $.$.=.&.X.*.&.*.:.o.S.o.o.o.M.X.;.*.&.&.Y ^ Y ^ Y 2 2 w 4 < sXuX2XpXpXv U R R / N ~ ^ @.] ; % X X % ;X;X:X:X[.%.e.7.9.' X X . . + . . . . . d L J ' W X . . X ; ' P H B B Q./././.+XF.+.F.+.+.+.<.>.<.>.m H m H m 1.<.<.<.<.>.1.+.F.1.F.+.F.1.F.@X/.&X&X@X+.+.1.<.1.@X@X&X@X@X@X@X@X@X@X1.+.+.>.>.>.>.<.<.<.<.1.<.F.<.H.H.F.G.F.F.H.F.F.I.m H K T [ - X . . X >X:X:X:X;XVXMXMXMXMXVXVXVXVXMXMXmXmXmXmX].[.[.[.=X[.:X[.=X=X*X:X:X>X>X>X>X>X>X:X:X=X;X[.[.T T } R R 2 6 t t x x z z x x e t t t t t t t e e z z b z e w y r a t e e 9 2 e 6 w w w 2 w w 6 r w s.h.h.h.h.h.h.h.h.g.'.W.W.W.T.T.h.R.R.R.R.R.h.g.z.5 o o o o                                                                                                                                   ",
"                                                                                                                                                                                              . . o . X a.f.s.s.h.h.h.R.h.R.g.g.R.R.h.T.'.T.T.z.5 5 5 0 p 5 5 5 4 r J J F F c ] [ @.} Y | ..X.o.;.o.o.o.o.;.O...| | | N ^ Y ^ Y b l 2 1 2 |.|.:X{.{.U U G U ^ / ~ / } ] < % O X X >X:X:X:X[.%.%.7.u.' X X . . . . . . . O h d d p p X . . X ; ' _ H E B !.U.H.H.H.H.F.H.H.H.+.+.>.<.>.m H m m m +.1.<.>.>.F.H.H.H.F.H.F.H.H.H.@X&X&X@XY.1.1.1.F.H.H.Y.Y.Y.H.@XY.@X@X@XF.F.+.+.>.,.-.>.>.+.F.<.F.<.1.H.H.G.Y.U.F.H.F.F.I.m m H P ' - X . . X g.g.T.T.h.mXMXMXMXVXmXmXmXmXsXsXsXsXdXpX[.{.[.{.[.[.{.{.[.{.h.T.'.'.'.'.].].'.'.'.'.g.T.h.@.} } Y U z x c c c v v b v v v v c v c c c v v b M M b l c 1 r r r r z z v v v t y t z z t r r t t 5.r.r.t.t.t.t.t.t.t.i.d.p.p.t.T.h.h.R.R.R.R.R.g.c.5 X o o o                                                                                                                                   ",
"                                                                                                                                                                                              . o . . X 4.5.] ] %.%.%.%.%.%.e.e.t.e.%.h.T.'.'.'.mXjXkXMXMXaXiXaXiXsX= = * X X = = = , 8 Y X.;.*.;.;.o.*.o.*.~ ~ ~ / ^ N Y Y ^ Y &.=.>.-.[ < , = , < G T U ^ M Y C / } ] ; % O . X >X>X:X:X;X%.%.7.u.' X X . . . . . . . . . . . O o . . . X ; W _ H H B >.+.+.+.+.@X@X#XY.@XF.<.<.<.>.m H m m m <.<.<.<.F.Y.@X@X@X@X@X#X#X#X@X#X@X@X/.@X@X#X#X#X#XH.+.+.+.+.@X#X@X@X@XY.@X#X#X#XB B B ) ) >.1.>.<.F.@X#X@X$X#XU.H.F.F.I.m m H H W - o o . . 5.] ] %.%.mXmXMXmXVXtXtXeX>X>X>X:X:X:X:X[.[.[.{.[.[.[.{.[.h.x e e r t u y a a a y y y c c } $.| | $.#.@.%.%.%.%.$.$.#.#.#.#.@.@.@.@.%.$.$.>.I.I.I.K.t.z w 7 w w R -.=.$.-.[ [ [ [ } w 6 t r r D A y c c c c c y y y e e 9 1 s.h.h.h.R.R.T.R.'.].0 X o o o                                                                                                                                   ",
"                                                                                                                                                                                              o o . . X ' [ ] [ e.%.e.e.e.r.r.r.e.] ] h.'.'.T.'.zXmXmXMXmXuXuXuXuXsX= * . X . : ; * = , ^ *.;.o.;.;.;.;.;.*.C C N ~ Y N Y Y Y R X.;.&.=.$., < < < , Q T U ` U Y C ~ R ] ; O X o X >X>X>X:X;X%.%.5.r.' X X . . . . . . . . . . . . . . o . O ; W P H T B >.,.+.,.2.@X@X@X/.#X+.+.<.<.-.m H m m m +.>.>.>.F.@X@X@X@X@X&X#X@X@X@X@X@X@X@X@X@X&X&X@X#XF.+.F.F.+.@X@X@X@X&X@X#X#X+X+XB B B B ) >.<.<.>.+.Y.@X@X#X#XG.H.F.F.<.m m I H W - o . . . [ ] [ [ [ mXMXMXmXVXtXtX>X>X>X:X:X:X*X[.=X=X=X[.{.{.{.{.[.R.2 2 w r u u a a a a a a A A c $.&.....X.&.$.$.$.#.$.$.$.#.#.#.#.#.#.#.#.| | | X.I.I.I.F.$.1 6 t t 7 R $.&.=.-.@.@.R ^ ^ y t A y a a y t t c t t y e w t y e 6 < h.h.h.s.R.T.W.W.].}.s X . o .                                                                                                                                   ",
"                                                                                                                                                                                              o . . . X 4.4.[ ] 5.e.e.e.e.r.u.u.e.5.[ g.T.'.T.T.zXsXhXmXmXuXuXuXiXaX= - o o o o # - = , ` =.;.*.;.;.*.;.;.;.~ ~ ~ ~ Y Y R R R R *.*.*.&.$.3 < 4 < < K T T Y R U N Y R [ = X O o X >X>X>X:X;X%.e.5.r.' X X . . . . . . . . . . . . . . . . X ; W P H H B -.,.,.,.+.@X@X@X@X#X+.F.>.<.-.m H m m m >.<.F.F.F.@X@X@X@XqX@X@X@X@X@X@X@X@X@X@X@X&X@X&X&XF.+.+.+.+.#X#X@X&X&X&X&X#X+X+X) m B B B >.<.>.F.F.@X@X&X&X#XG.H.F.F.d.m m m F W O . . . . 4.] ] ] [ mXMXmXmXMXtXtXeX>X>X:X:X:X:X=X=X[.[.{.{.[.[.{.{.T.w w t r r r u y y a a t y S v =.&.o.o.......| | | | | | | | | | | | | | &.*.X...I.C.C.Z.p.2 7 1 6 2 #.=.&.&.=.^ ^ ^ / / e e e t a t y t t c y t y t e t w w 6 < s.h.h.R.R.W.W.|.|.}.s X . . .                                                                                                                                   ",
"                                                                                                                                                                                              o . o o . 6.4.4.5.5.5.5.e.u.u.5.5.5.4.[ g.T.'.T.T.zXzXmXmXMXiXiXiXiXuX5 % . o . # O * - = [ $.:.:.;.;.;.;.*.&.~ ~ ~ ~ Y Y R R E E =.$.X.*.=.3 < 4 < < U T Y U R T U T Q [ ; X X X X >X>X>X:X:Xe.e.5.7.' X . . . . . . . . . . . . . . . . o X ; P P H H m -.,.,.,.2./.Y./.@X/.+.>.>.>.-.m H H H m >.>.>.+.F.#X@X@X@X@X@X@X@X/./.@X@X@X@X@X&X&X&X&X@XH.<.<.+.F.#X@X@X&X&X&X#X#X#X+XB V m m m -.<.<.>.>.@X@X&X&X#XG.H.F.!.d.m I F J g X . . . . 4.] ] ] [ jXMXmXmXMXeXeX>X>X>X:X:X:X:X:X=X[.[.[.[.[.[.[.[.T.6 w 6 6 t t t t t t t u t S U :.:.M.S.O.o.o.....| | | ......................O. .F.F.C.C.>.2 9 2 e e } | X.X.&.^ ^ ^ / / z z z x c y a c t c e e e e e e r r w < a.i.h.h.R.W.W.|.|.}.r X . . .                                                                                                                                   ",
"                                                                                                                                                                                              o . o O o 8.0.0.9.9.u.u.u.u.u.q.q.8.9.4.g.'.'.T.W.mXmXmXMXMXiXiXuXiXsX% % X . . O X % * = ] t.s.s.B.B.:.:.&.&.~ Y ~ ~ Y Y R R E R @.:.*.*.&.8 9 < < < R Y Y E G K K W W [ = % % X % >X>X:X:X:Xr.r.5.7.' X . . . . . . . . . . . . . . . o O X ; L P H H m -.-.,.-.2.@X@XY././.+.<.<.>.-.m H H H m <.<.<.<.F.#X#X#X&X&X@X#X@X/././.#X#X@X@X&X&X&X@X#XH.+.<.+.+.@X#X@X&X@X@X@X@X@X+X) V m m m -.I.I.I.F.@X@X&X@X#XU.U.!.!.!.H L f d g X . . . . 9.5.%.%.] mXMXmXmXmXeXeX>X>X>X>X>X>X:X>X:X>X>X>X[.[.[.[.[.'.6 6 4 w 1 1 1 6 7 6 6 6 a x v :.*.o.S.S.O.O.O...| | | ..................O.O.O.2.F.Z.Z.Z.:.3 1 2 e 3 ~ &.O...&.~ ~ / / / l b z z c c y t c c c z e e e e r r 6 4 h.h.T.T.W.W.|.|.|.}.s X . . .                                                                                                                                   ",
"                                                                                                                                                                                              o o . o o # O O X X X X X X X X X O . X W i.%.%.-.h.R.T.T.g.*X[.[.[.[.iXuXuXtXeX9.u.a.a.f.4 = = , 8 ^ Y ^ M ~ Y N Y Y Y Y Y Y Y E T E Y N N Y Y E T U ^ E R U K & X . - X f.].].].].] %.] ] e.r.5.5.5.' . . o . . o . . . . . . . . . . . X X = P P I H m m m m m V /.@XY.Y.@XV V B m m H H H H m 1.F.<.<.F.) ) ) 2.2.@X#X/././.+.+.+.+.M.&X&X&X@X&XF.1.1.1.1.@X@X@X&X@X@X@X&X@X#X+.,.,.-.>.` B E ) B @X@X&X@X#XO.,.,.,.{ * X X X . . . . . . 0.5.e.e.5.jXmXmXmXmX:X>X>X>X>XT H m c c A A A D a a e w y y K D F S v t.p.p.p.s.1 7 t c v  X).).).~.A.A.Z.Z.M.B.B.B.M.M.B.B.B.B.B.B.B.Z.Z.Z.C.C.C.Z.:.M M U G M B.I.U.K.I./  .| ......&.$.$.%.x c c e c T @.} R R 3 r w 7 6 w w w e U |.W.{.'.}.s X . o .                                                                                                                                   ",
"                                                                                                                                                                                              o o @ . # O # . o . . . . . . . . . . X L ] ] %.t.s.h.h.g.h.[.].].'.[.MXhXsXsXzX'.z.z.z.c.0 * % % & U T U Y U Y ^ Y Y Y R Y R R Y T T Y N C ~ ^ ^ Y ^ Y E R R D % $ . . X f.>X:X[.=X%.%.%.%.5.e.5.4.4.' . . . . . . . o o . . . . . . . . $ X ; W P G I m m m m m V Y./.).Q.#XV B V m m H H H H H 1.F.<.<.<.B ) ) ) B #X#X/./.Y.2.,.,.+.M.&X&X&X&X@XH.1.1.1.F.Y.@X@X@X@X@X@X@XY.@X+.,.,.<.>.` B B B V @X@X@X/.#X2. . .,.] * X . . . . . . . . 0.5.e.e.5.jXmXmXmXmX:X>X:X>X>XG c e e t t t t t r r w 6 w 6 A D G S M p.K.I.K.I.2 z 6 e b ).)._._._.A.A.C.Z.Z.B.Z.B.B.B.V.V.V.V.V.V.V.V.C.C.C.C.C.C.:.E U T E M K.U.U.U.U.| | ..X.X.*.&.&.=.$.c c x c b R #.@.#.#.l w t r r r w e e U |.W.{.'.].4 X . o .                                                                                                                                   ",
"                                                                                                                                                                                              # o o # . > o o o . . . . . . . . . . X W 5.5.r.r.s.h.h.h.h.[.].|.[.h.zXzXzXpXzXh.T.T.'.].0 % X X & T T U T U T U Y Y Y Y Y ~ Y Y Q T E Y ~ ~ / / / Y ~ #.U K W X . + . . z.;X[.=X=X@.%.%.e.5.5.5.7.4.W . . . . o . . X . . . . . o o . o X X ; W P I H K H H H m V +XQ.Y.Q.Q.V B V m H H H H H H 1.<.<.<.<.B B B ` B +X+X@X@X@X2.+.>.+.F.#X&X@X@X@XH.1.1.1.F.@X@X@X@X@X&X&X@X@X#X1.>.1.<.<.` H H m B +X@X@X@X#X2. . .] ] * X . . . . . . . . 9.7.r.r.e.mXmXmXmXzX=X:X:X>X>XG t 6 6 w 6 6 6 6 w 1 2 1 < 4 F G G U n K.K.K.K.K.3 3 e z l ).).).`./.A.A.N.C.Z.C.Z.Z.V.V.V.C.C.C.C.C.C.C.C.C.C.C.C.V.:.E U T T E K.U.U.U.U.O...&.X.o.*.*.&.=.$.z x z z z R $.#.$.$.k 7 w 6 w t t w c E {.|.|.].].4 X . . .                                                                                                                                   ",
"                                                                                                                                                                                              o o > o # o o . . . . . . . . . . . . o ' a.u.e.r.f.h.h.h.h.].].|.T.g.mXsXsXzXxXR.W.].[.[.4 X X X X W K K T Q T U Y Y Y Y ~ ~ ~ ^ Q R R Y ~ ~ ~ ~ ~ ~ ^ E R K W % . . . . z.[.=X[.=X%.%.%.r.7.5.9.9.0.W . . . . . X X X . o . o . o . o o . . ; W J J K P I H H H V 1X+XY.#X+XV m m m H H H H H H 1.F.<.F.<.B T T E B +X+X+X@X@X+.+.+.+.F.#X#X#X#X#X1.1.1.1.+.#X@X@X@X@X@XJ.@X@X@XF.1.1.>.y.H H H K m Q.+X+X#X#X2.` ` ] ] * X . . . . . . . . 9.r.r.r.e.mXmXmXmXzX[.[.:X>X>XS t w w 6 6 6 e e z 7 3 1 1 2 S G v n N K.U.K.I.K.3 3 1 2 k E.).).`.).A.A.N.C.C.C.C.Z.V.V.V.V.C.C.C.C.C.C.C.C.C.C.V.V.:.N U Y Y N F.U.U.U.U.....X.o.o.o.*.*.=.$.b z z e 9 E $.| #.| 3 e e 7 w t t w z T {.|.|.].].0 X . . o                                                                                                                                   ",
"                                                                                                                                                                                              : > : > > o @ o o . . . . . . . o # # > 3.a.a.a.a.f.f.f.f.s.].'.'.'.T.sXsXxXmXpX{.{.].].].0 % X X X W W D D K T R Y Y Y Y ~ ~ ~ ~ R R R ^ Y ~ ~ ~ ^ #.[ T Q 4.W X . X X % g.;X[.[.].%.%.[ 5.i.5.u.6.6.W O . . . . . X X X - . . . . . . o o . - s W W L L P P H K B Q.Q.+X+XQ.B m m m I I m m m m <.F.F.F.<.B H T T ` =X#X#X#XY.+.+.>.<.F.Q.#X#X#X#XF.<.<.+.+.+XY.+X+XY.@X@X@X@X@XF.<.<.d.d.` I P L F W.+X+X+XQ. .` ` [ ] * X o . . . . . . . 9.r.r.r.r.mXmXmXmXzX=X[.=X:X>Xc w 6 7 w c z b l l k 3 2 3 l v n n N N B.C.B.K.p.3 3 1 3 k E././././.A.A.C.C.C.C.Z.Z.Z.C.C.C.C.C.C.C.C.C.C.N.C.Z.C.C.:.N E Y Y ~ I.U.~.U.U.O.X.*.o.o.o.*.&.&.$.b z e z l R $.| #.#.b 2 k z c w t x c G |.|.|.}.].0 . . . .                                                                                                                                   ",
"                                                                                                                                                                                                        . . @ . . . . . . . . . . o . - - * * X a s r r r P P P Q K h.T.h.g.[.xXmXxXmXMXtX>X>X>X}.. X * % % Q G E Y Y ~ ~ ~ ~ / / ~ ^ ^ ^ ^ ~ ~ Y R & % % X < tX>X}.;X[.[ [ ] [ ] [ 7.7.7.[ * X * $ # . . . . X d J W J d - O o o . . . o . . # . . . % y I I H m m V B b m b m m m I I m m m m <.F.F.F.<.B H E T m >. .,.+.<.+.>.>.>.,.B V V V V +.F.!.!.F.) V V V V H.Y.@X@X#XH.F.<.<.y.< % X % X H m V V ` B ` ` [ [ * X o . . o . . . . 9.r.r.r.r.mXmXmXmXzX*X[.=X;X>Xt e 7 e v p.:.:.:.B.U.I.I.K.p.$.#.| | / A.U.C.I.I.M m T E n )././.)./.A.A.N.C.C.C.C.Z.Z.C.Z.C.C.C.C.C.C.C.C.C.C.Z.Z.C.B.N Y Y Y ~ U.~.~.~.~.o.o.*.o.o.o.o.X.$.#.z e e z z ^ #.| #.=./ &.=.t.-.c w e x U s.t.] 5.u.5 X . o .                                                                                                                                   ",
"                                                                                                                                                                                                        o . . . . . . . . . . . # # > O O X * X s s q 0 0 W P P P Q g.T.T.].[.mXzXzXsXsX>X;X;X[.v.$ X X X % T T E R Y ~ ~ / / / C / / ^ R R ^ ^ E [ % % X X % -X[.[.[.;X[ [ [ ] [ [ 4.4.4.5.* * X . o . o . . . 0 d J J d X X o @ . . . . . . . . . . X J P H P B b m ` m m H m m I I I m m m m <.I.F.F.<.m m H T H >.+.+.+.+.>.>.>.>.,.m m m B V F.I.!.I.!.B B m V V Y./.@X/.@XF.<.<.d.d.< X X . . _ ` ) ) ` ` ` ` ` [ O X o . . o . . . . u.r.t.t.%.mXmXmXmXzX{.[.*X[.:Xt x 7 z b K.:.:.o.o.U.U.I.K.B. . .| ..2.Z.A.C.I.I.E T U Y n E.U.~.~.~.N.N.C.C.C.C.C.Z.N.N.N.C.N.C.C.A.C.A.A.C.C.Z.Z.Z.B.C Y Y ~ ~ L.~.~.~./.o.o.o.o.O.o...&.$.#.z e e e e R #.#.#.&.&.| $.:.p.z 7 x x S t.t.i.u.u.: . o o .                                                                                                                                   ",
"                                                                                                                                                                                                        . . o . . . . . . . X o o o # o * X X . p p q q 5 W P [ [ ` T.'.].].].mXsXzXsXsX>X[.[.[.UX. . X X % P Q R R Y ^ ~ / /  ./ C / ^ ^ R R R [ [ % X . X = >X{.{.{.{.-.[ [ 5.4.0.4.6.4.4.X % X X o . . . . . s s a J W * X O . . o . . . . o . X X X L J F H m m m m m m m m m I I I H H m m >.I.F.F.<.B B H T ` >.>.+.>.+.>.<.>.+.,.m m B m B >.!.I.F.I.B B m B V Y.Y.#X@X#XH.+.<.d.y.< X X $ $ _ m ) ) ` ` ` ` ` [ O X o o . o . . . . u.r.t.t.%.mXmXmXmXzX*X*X=X[.;Xe e 7 z z p.*.;.S.O.U.U.A.K.K. .| ../ O.S.A.A.I.I.T T Y ^ N E.U.~./.~.N.Z.C.C.C.C.C.C.N.N.N.N.N.N.A.C.Z.N.C.N.Z.Z.Z.C.B.C Y ~ ~ / U.~.~.~./.S.*.*.o.o.o.....#.@.e e e e e ` #.&.#.#.&.&.| =.p.z 7 x 7 G e.e.t.r.9.5 X o o o                                                                                                                                   ",
"                                                                                                                                                                                                        . . . . o $ o X $ X X * # O X O O o . . p p : : q W ' ' 4.4.c.'.;X'.[.mXzXzXzXzX:X[.[.].v.o . X . X ' W [ T R R R } }  .| ( ^ ^ @.[ [ [ [ 4.% X X X # wX{.{.{.[.%.[ 5.5.4.4.4.8.3.3.. . . o o o $ . X X r K A D K % % % % X . . . . . o o o X X f d f f K F I F L J W J L L I H I H m m <.d.I.<.<.V B ` B ) >.<.1.<.>.1.1.1.>.,.m M M M B <.!.!.!.!.B B B B B +X+X#X#X@XF.F.>.p.y.< . . X X ' L I _ _ _ _ _ _ [ . X o . o . . . o . u.u.r.r.u.mXmXmXmXmX[.*X[.[.*Xw r r w e *.o.S.S.O.G.G.G.A.Z.o.( / ( C M.F.F.F.I.N N Y Y N E./.U.U.U.M.Z.Z.Z.Z.A.A.N.C.C.N.N.N.N.N.N.Z.N.N.N.N.N.N.N.+.C ~ ^ ^ / U././././.S.*.X.:.....#.#.#.@.e e e e e R $.&...O.O.X.o.*.:.e w w t G t.r.7.r.a.5 X o o o                                                                                                                                   ",
"                                                                                                                                                                                                        o . . o . > o X O * * * O O X X X . . . : p : p p ' ' ' 4.4.}.].}.[.[.mXxXxXxXpX;X].].[.-X. X % X X W W [ Q T T ` ` ` ` } @.[ [ [ [ [ [ 4.4.X * X X X -X=X{.[.].r.] ] 5.4.4.9.4.6.3.o o O o . o . . X X r D c c F & % % % * . . . . . . . . X % f W ' W J J P J J J L W L ' L _ I H m c >.d.d.<.<.) B B B ` >.<.>.>.,.>.1.<.>.,.m m m b m d.!.<.!.!.) ) B B B +X+X+X#X#XF.F.>.:.y.< . o . X W ' ' [ _ [ _ _ ' d # . . . . . . . o X u.u.u.r.u.mXmXmXmXxX[.*X[.[.*Xw r r 6 3 &.O.O.S.S.G.G.G.C.M.o.../ / O.M.C.C.C.I.C ~ E ~ C E.U.U.U.U.M.Z.C.C.C.N.N.N.C.C.C.C.C.C.C.C.Z.Z.C.C.C.C.C.C.Z.C Y Y ^ ( K././././.M.*...&./ ..#.#.#.@.e e t e z R $.&.O.O.O.X.X.*.=.e w w t S t.r.7.r.u.5 X o o .                                                                                                                                   ",
"                                                                                                                                                                                                        . o . . : 3.8.8.8.4.4.[ w.w.4.3.' ' ' W . o . . . o X X X X W W W [ P h.s.t.t.s.T.{.[.[.].].].].}.eX% * % % % % % % % % % * * % % % % % % * -X>X>Xz.>X[ [ [ ] ] ] 5.5.7.' X . . . X . . . X - g W W D D a S G G Q S K P d d X . . . . . o . . . X X X o X X X . . X . * X * = I I H m m m B B B ) >.d.d.d.>.` B m B B <.+.+.1.>.>.>.d.d.>.,.) B ) ) >.<.<.<.>.B V V ) V +.F.>.>.t.< . . o . O X X X X X X X X X . . $ + . . . . X X u.r.r.r.u.mXmXmXmXxX[.[.{.[.[.w r 6 1 2 I.U.U.~.~.G.A.A.A.C.V.C.C.C.M.N.C.C.C.K.N ~ Y ^ N V.M.S.S.S.M.M.Z.Z.N.Z.N.A.C.C.C.C.V.V.V.V.B.C.C.C.V.V.C.C.Z. ./ / ( / ..o.O.S.S.O.....*.X...| | #.@.e e e t x ` $.&...o.O.O.X.=.=.e w w t S r.r.5.r.u.5 X . o .                                                                                                                                   ",
"                                                                                                                                                                                                        . . . X X w.0.4.4.' 5.7.4.4.4.[ ' ' ' W . . . . . . . . . X W ' ' ' [ a.s.t.t.r.|.|.[.].{.[.=X[.;XuX* * * O X X o o O O O O O O O X X X X = }.;X;X:X[.@.%.%.e.5.u.9.0.4.9.. . $ X . o o . X - L J K a A G v G c S c F G W W X . . . . o . . . o . . o o . . . . . . . . X X * ' P m m m m m B B B d.d.<.d.d.` ` B B b >.<.<.1.<.<.<.<.>.I.) B ` ) m I.d.<.<.d.V m m ) B +.<.>.>.y.< . . o o . X o o $ o $ . . . . . + . . . . o o X i.r.y.r.u.mXmXmXmXxX[.[.{.[.[.w 0 6 < 1 E.E./././.N.A.A.A.C.C.C.C.C.A.G.N.C.C.K.N N R } Y B.M.M.M.M.Z.Z.V.V.Z.C.C.F.C.Z.V.V.V.B.B.B.B.B.B.V.V.V.C.C.F. .| / ( /  .O.o.o.*.....| ..| ..| #.#.@.e z x t x ^ $.&...o.O.X...=.=.9 6 w t S r.7.5.r.u.5 X . o .                                                                                                                                   ",
"                                                                                                                                                                                                        o . X * * 0.4.' ' [ 4.[ [ [ [ [ ' W W g . . . . . . . o X . ' W W W ' f.a.i.r.e.|.[.[.[.Q.=X=X:X>X;X; * O O o o + + @ + o o o o o o X X * X >X>X:X[.[.e.] r.r.7.7.4.4.6.3.X X . . . . o o . X d a G c G v x G S G U G G a s X X o . . . + . . . . o o . o . . o . . O . O * * ' I P H H H m E B B I.d.>.d.I.B B B B m d.1.1.<.<.<.<.<.<.<. .) B ` B d.<.F.<.!.` ` m b B >.1.>.>.y.< . . . @ . . . . . . $ $ $ . + . . . . . . o o X i.y.y.r.u.mXmXmXmXxX*X[.{.[.[.w 0 4 6 2 E.U.~.~./.Z.A.A.C.C.C.Z.Z.Z.A.A.N.C.F.I.N ~ T Y Y :.B.C.Z.Z.Z.C.C.V.B.V.Z.M.N.N.C.C.C.V.V.V.V.C.V.C.C.C.U.U.U./ / / ~  .X.X.X.X.=.=.&.| | | | | #.$.@.z z z z z R $.&...X.O.X...=.=.9 w w t S r.r.5.r.u.5 X . o .                                                                                                                                   ",
"                                                                                                                                                                                                        X X * * * 5.5.[ [ 5.[ [ ] [ [ ` ` W W L . . . . . . . . X . ' W ' ' W f.a.u.5.5.].[.[.[.=X:X=X:X*XuX< X X X . . . . . . . . . . . o o X X % eX>X[.[.>X%.u.r.7.9.4.8.8.8.' . . . X o o . o . * L S G v v U v G S S G v v J a % X . . . . . . . . . . . . . . . . . . o O o O * W L P L P H I H m m >.d.<.<.d.B B m m m y.1.<.<.<.<.<.<.<.<.` B B Y B d.d.<.<.I.m m H m m >.<.<.d.d.5 . . . . . . . . . $ . $ o . # . . . . . . . X X i.y.y.r.u.mXmXmXmXmX*X*X{.[.[.w 0 4 < 3 E.U./././.M.A.A.C.C.C.C.C.G.A.A.N.C.F.I.C ~ ` R ~ B.V.C.Z.Z.M.Z.V.M.>.V.V.V.Z.Z.Z.Z.V.V.V.B.B.V.V.V.C.C.C.C.K...| | / } |  .=.&.$.$.$.} } } | | | $.@.z z x z z R $.&...X.O.X...&.=.9 w w t S r.7.7.r.u.5 X . o .                                                                                                                                   ",
"                                                                                                                                                                                                        : ; ; < 4 r.r.5.] 5.[ [ [ ' Q [ ] [ ' ' ; ; : : : : 5 : 5 5 s h g g h 3.' 3.' [ h.g.T.].].T.*X*X;X>Xf u 0 q q 5 5 : : : : 5 5 q q q q 0 s s '.}.[.|.}.i.i.r.7.9.' ' ' W g . . o . o o . o . X J c v v n n v v v v v v v K A < = - ; > . . o . . : : : : > p p p p h . o o o - f d f a L I H H H B d.d.<.<.>.B B m H _ -.>.>.1.1.F.F.<.<.<.) B ` B B <.d.F.<.I.` H H m m ,.>.>.-.y.q X X . . j : q j : p p p p p . o . o . . . . . X u.u.r.r.u.mXmXmXmXmX*X*X*X[.[.w 0 w 6 2 I.U.U.~.Y.G.A.A.C.C.C.Z.Z.N.A.G.F.C.C.I.C ~ Y E Y :.V.C.Z.C.C.Z.V.B.:.&.$.&.;.;.o.;.;.;.&.&.&.:.:.:.M.M.M.M.=.=. .} }  .} } ^ R R ^ ` R T T  . .| $.$.b z z z b } $.&...O.O.O...X.=.2 w w t S r.r.7.r.u.5 o o o o                                                                                                                                   ",
"                                                                                                                                                                                              o . . . . 3.5.] r.] '.'.'.T.g.] [ ' P [ r.s.s.i.a.[ [ 4.6.0.9.0.0.9.0.X X o . o . . . . X L 5.%.%.{ i.y.u.i.a.;X>X,X}.}.].].].].].'.'.'.].].].}.-X-XeXu.u.u.a.e.i.r.r.i.7.* . . . . . . . . # . o $ . - L c v v b v ! v G U S v v v K K D W J 0 . . . . @ w.q.q.w.w.v.-XUXUX-X# . o . . X o X . X F P m H m <.<.<.<.>.B B m H m _ B B B ) <.F.F.<.<.I.<.<.d.<.<.<.1.<.d.B m H H m m m m m _ ; X X . o 8.q.q.q.q.-XwX-X-X-X. o o . o . . . . X u.u.r.r.u.mXmXmXmXmX*X*X*X*X*Xw 0 w 1 3 K.C.A.A.N.Z.N.A.C.C.C.Z.N.N.N.G.C.C.C.I.~ / ~ Y ~ :.V.Z.Z.Z.C.M.M.V.&.n 9 2 l l l l l l l l l l b l l l l l n #.} }  .E b 2 e e e e e 9 1 <  . .| $.$.b b v b b } $.&.....O.......=.2 w w t S r.u.7.r.u.5 . o o .                                                                                                                                   ",
"                                                                                                                                                                                              o . . . X 4.4.[ %.] '.T.T.'.h.[ [ ' W L i.i.j.j.a.[ [ 5.5.5.9.5.7.u.u.* o o . . . . o . . W 5.5.e.7.u.u.u.i.y.;X;X*X[.].{.].'.'.'.W.W.].].].].[.*X:X;Xu.r.u.u.i.7.r.i.u.9.= . . . . . o . . . + . . . - J S c M v v v S G S G v v S S G G K J s X . . o . w.q.q.3.3.-X-X-X-X-Xo o o o o o o o . . F I H m m <.>.<.<.d.m m m m I _ T U ) ) <.<.1.F.<.<.<.d.<.1.<.1.<.1.<.B H H I m m m m m _ < X X . o 8.q.q.q.0.-X-X-Xv.-XX X . . . . . . X X a.i.u.y.i.mXmXmXmXmX*X*X*X[.:Xw r w 1 3 K.V.Z.N.Z.C.A.A.C.C.C.Z.N.N.N.G.C.C.C.I.C / } } ~ :.V.M.C.Z.Z.Z.V.;.:.n 2 l t w t t e r w t y y y y e e e e z @.@.R @.` e w w 6 t r w w w < ~ $.| $.$.b b v b b ^ #.&...O...O...X.=.2 w w t F r.r.7.u.u.: o o o o                                                                                                                                   ",
"                                                                                                                                                                                              O . . . X [ [ [ ] ] ].g.T.T.h.[ [ ' ' L i.s.h.h.s.[ ] 5.] 5.r.r.r.9.a.X X o . . . . o . X W 5.r.u.u.u.u.i.a.i.>X*X{.{.{.W.W.W.W.W.W.W.W.|.|.{.[.[.[.:Xr.r.u.u.7.u.r.r.7.i.= O o . o . . . . . o . o . * W D c v v U ! U U v U ! S v v v G S D r X . . o . w.8.8.8.0.}.-X-Xv.wXO . o . o . . . . . i I H m m d.<.<.>.<.m m _ _ _ _ H H m ` d.<.<.<.<.<.<.>.1.1.<.1.1.<.d.B m H H I _ m _ I _ < X % # . q.q.q.q.0.-X-X-X-X-X. o . o . . . o X X u.i.u.y.i.mXmXmXmXmX*X*X*X[.:Xw r w 1 2 K.V.Z.Z.N.C.A.A.C.C.Z.Z.N.N.N.N.C.C.C.U.C /  . .C ;.;.M.M.Z.V.V.V.:.p.M 2 9 r u u u r r u u r r y t t t e w x @.[ [ ` ` e w w 6 w w 4 w < < }  .$.$.$.b b v b v } &.&.....O.O...X.=.2 w w t F r.r.7.r.u.5 o o o o                                                                                                                                   ",
"                                                                                                                                                                                              o O . . X 4.[ ] ] ] ].g.g.T.h.` T ' W L i.i.s.d.d.[ ] ] ] r.r.r.t.i.a.* X . . . . . . . o ' 9.u.u.i.r.r.y.y.y.:X[.{.{.|.W.W.W.W.W.'.|.|.'.|.|.].[.[.:Xt.t.r.r.%.y.r.r.i.f.* O O . o . . . . . . . X X - W L K S S G M M v v v S G n v v S c D r X X X . . w.q.8.8.5.-X-X-X-XwX. . . . . . . . . . i I H m m <.<.<.d.<.m m m m H H P H H ` d.!.<.<.<.<.<.<.<.<.1.+.>.1.<.B v H H H m I _ _ ' 5 X X + + q.f.q.q.4.-X-X-Xv.-X. o . . . . . o X X i.r.y.y.u.mXMXmXmXmX*X*X*X[.:Xt r w 1 2 K.C.C.N.C.C.A.A.C.C.Z.Z.N.N.N.A.N.C.C.K.C C C ~ ~ :.B.V.:.:.:.;.p.p.p.m 2 9 r s r r r r y w e e e e e 9 w 2 e T T [ [ T e w 9 1 1 w 4 w < < } @.$.$.-.b b v b b } #.&...........&.$.9 w w t F r.r.7.u.u.5 o o o o                                                                                                                                   ",
"                                                                                                                                                                                              O o . o O ' 4.5.5.7.'.'.].'.f.] P ' W L i.s.d.d.d.` ] %.r.y.r.t.t.u.7.* . . . # . . . . > ' q.a.u.r.j.r.r.%.y.*X*X].|.|.W.W.'.'.'.'.'.'.'.].|.].].[.*Xt.%.%.t.y.%.r.u.9.9.; # # o . X X X . X . X X % ; d d J K K U U E M U v v G M v v v c A r X . . . o 3.q.8.8.9.-XeXwXwX-XO o o . . . . . . . u F I m ) <.d.d.<.>.m m H _ _ _ P H _ ` d.d.d.<.<.!.<.>.>.1.,.+.>.>.>.H H H H I ` ' [ ' ' 5 X . + > q.q.q.q.q.-X-X-X-Xv.O . . + . . . o X X u.r.y.r.u.mXmXmXmXmX;X;X;X*X>Xy u r 2 2 K.C.A.N.C.C.A.C.C.C.Z.Z.N.N.A.C.C.C.C.C.2.2./  .| &.:.p.:.p.p.p.p.p.p.G w w r 4 y w e e 9 z z l z l l 9 2 2 9 [ ] T ] [ 9 3 3 3 9 < < 1 < 1 @.%.-.%.%.v v b v b / | &...| ......&.$.9 w w t F r.u.7.u.a.5 o o o o                                                                                                                                   ",
"                                                                                                                                                                                              O o # O X : ; ; : ; < < ; ; 5 ' [ ' ' ' f.j.h.R.R.T.W.W.T.T.t.t.%.r.u.' ' ' W g . . . . . > ; ; ; < r.r.t.r.%.r.%.%.] ] [ ] ] ] ] ] ] ] ] ] ] ] %.] %.%.-.y.%.] , * * * ; O o O o o s s s s a a a F D s : ; * = , R @.|  .} n U G M v v v c S r X X . o . > : > > ; : 5 q : p # o o o . . . . . . y F I m m m m m m H c m H H H m H H H H ` B m B B ,.1.<.>.,.V b c c m c m m H P < < : : : # X # @ + : : : : > : : : ; : . # $ . . . . o o X i.r.y.r.r.mXMXmXmXmX;X;X;X*X>Xy u r w 9 I.C.A.C.C.C.C.C.C.C.Z.Z.C.C.C.A.A.C.C.F.;.;.M.;.&.V b z z z z z z e c w 6 w w e s.p.p.K.F.1X$X$X$X#X#X#X1X1X{.3 1 w < 1 R.=X+XQ.Q.@.-.%.-.-.9 z 9 c v T R R R Y | | ..| | ....| &.=.9 e w t F r.u.7.u.u.5 o o o o                                                                                                                                   ",
"                                                                                                                                                                                              O . O o O O # o O # . O X X O ' ' [ [ [ h.R.R.R.R.R.W.W.'.|.y.t.%.e.] ] 4.' 3.3.. . . o o O O # # * i.i.r.r.] ] ] [ [ [ [ [ [ [ [ [ [ [ [ [ ] ] ] ] ] ] ] r.r.y.= X O o o # o o o . d J K A G G G G G a X X . % = @.=.*.&.&.n U S m v v v c A r X . . o . . o o . . . . O o o # . $ $ . . . . . . y m I H m m m m m m m H _ H H H m m H H H m m B B >.<.>.,.,.l m m m m m H H I P * * O O # . . . $ . . . . . . . . . o . . . . . . . . o X X i.r.u.r.r.mXMXmXmXmX;X;X;X;X>Xy u r e 9 I.C.A.C.C.C.C.C.C.C.N.Z.C.C.C.C.A.C.C.F.Z.Z.V.B.:.2 9 9 9 9 9 e e 1 w w 0 0 9 9 R.I.I.U.G.4X%X%X%X%X%X%X<X<X{.z e 1 7 2 !.#X<X#X1X&.p.p.d.d.9 z 9 x e ` R R } ^ #.| X.........| &.=.9 e w t F r.7.7.u.u.: o o . o                                                                                                                                   ",
"                                                                                                                                                                                              O o o . o # # o . o . o . . O 3.3.[ [ [ h.R.R.T.W.W.W.W.'.|.t.r.%.5.] 5.5.4.4.3.. o . . o o O o . * u.9.0.5.5.[ [ [ [ [ [ [ [ [ [ [ [ [ [ [ ] ] ] ] ] 5.[ 7.7.u.= o O o . . . o . X L K K G U v U m G a X o . X & ` &.*.X.*.n v v m v c c c D r X o . o o . @ . . . @ . . $ $ . # $ $ . . . . . . y I I I m m m m H H H H H H H H ) _ m H m m m m m ,.<.>.-.-.e z i F m m H H H _ * O O # @ @ . . . . @ o . . . . . . . . o o o o . . . o X X u.u.r.r.5.mXMXmXmXmX,X;X;X;X>Xy u r w l I.C.C.C.C.C.N.N.N.N.Z.Z.C.C.A.C.A.C.C.C.Z.M.B.B.K.9 e 9 1 4 1 1 4 4 4 4 5 5 3 3 d.I.I.G.G.%X3X3X3X%X%X%X%X%X+X9 2 1 2 3 !.#X&X&X<X+.:.:.>.<.9 e e e e R R R R Y | | X.........| &.=.w t w t S r.r.7.r.u.: o o . o                                                                                                                                   ",
"                                                                                                                                                                                              O . o # # # # # @ . . . . . # 3.3.[ ] [ h.R.R.W.W.W.W.T.'.'.%.r.] [ ] [ 4.[ 4.' X o o O # o o # # * 0.9.0.4.5.5.4.] [ 4.4.4.4.4.4.[ [ [ [ ] ] ] ] [ 5.5.5.0.7.5.- # o . @ . o # . X J A G U U v M M U y X o o X = R &.o.O.X.b v S m m m m A D 0 . . o @ o @ @ . # . . + + . @ + . $ + . . . . . . y I P H H H H m H H P P ` P ` H ) m m H m H m m m >.>.,.>.-.e m f L I m m I _ _ = # o $ + + . . o . . . . o . . . . . . . . . . . . . . X X u.u.7.] 5.hXMXmXmXmX;X;X;X;X>XA a r e l I.F.C.C.C.C.N.N.N.N.Z.Z.C.C.A.N.C.A.C.C.Z.M.B.B.p.9 9 w 4 w w w 4 4 4 5 5 5 3 9 I.:.F.F.G.3X$X&X&X$X$X$X$X$X#Xl 9 z 2 2 !.#X&X&X$X+.V.>.F.!.e e e e e T R } R E | | X...| | ..| &.=.e t w t S r.7.7.r.u.: o o . o                                                                                                                                   ",
"                                                                                                                                                                                              # o o o O % , 8 , & , % % % , [ ] ] 4.9.k.v.v.c.].|.E.E.E.R.t.[ [ [ [ [ [ ] ] ' * * * = ; * * O O * 4.q.3.6.3.' 4.' 3.4.4.4.4.' ' 3.3.3.3.3.6.6.6.6.3.3.w.3.8.3.# X # O X - % X % % G S U U ! M M N N b , = % % * W [ e.%.@.c c x b n b v S D s % o o o . O O & , O X * = % * O o . . . X . . . . f g d g g g g g W W d W ' ' f ' H H H I I I H H H t.y.y.y.%.m m m m H J d g m.m.> # o o o . . @ > . ; O X % X , < & , = X . # . . . o . . . 0.9.7.] ] zXMXMXmXmX-X>X>X;XuXy y e z l I.F.C.N.A.A.N.A.C.V.V.V.C.C.A.N.A.C.C.I.$.t.-.>.>.b l 3 l l l l 9 9 3 3 2 2 k k F.Z.Z.A.C.#X#X$X$X@X%X$X$X3X@Xl l k k k G.#X&X%X$XZ.I.:.I.I.l V l l l R Q [ [ T @.} ..| ( =.O.X.&.=.e w w t F r.r.7.u.u.: o o o o                                                                                                                                   ",
"                                                                                                                                                                                              $ o o . X [.[. X X{.R.W.T.|.s.X . X . o # > - * = |.R.R.R.R.R.T.T.T.T.%.[ [ [ 7.u.a.a.a.a.' ' ' g g X . X . . O . . . . X X X . X . . . . . . . . . X . X . . O . . o O * 0 s u s 4 T S S U Y Y Y n E R S P K W W = % % % % [ [ @.&.#.b v c F a % X o o @ m.[ ] [ _ c.j.j.j.a.* o # $ . X . . . + . . o . . . . . . X X X X X * f H H H I m I m m m ` H m m m c m M m i * o o # . > # o o . . . . . O _ _ ' [ [ R.!.Q.j.g.$ $ . o . . o . . . 0.9.] ] ` :X;X;X>X>XVXmXMXMXVXA t e z l I.F.C.N.A.A.N.A.C.V.V.V.C.C.A.A.A.G.V.:.b e 9 9 l p.K.!.V.U.<X<X#X1X1X1X1X1X#X$X#X#X#X/.).G.F.F.F.N.$X$X$X$X%X#X#X).#XY.G.H.H.G.Y. .X. . . .!.I.E.I.I.b e t t e Y / ....#.=.| X.&.=.e w w t F r.r.7.u.u.: o o o o                                                                                                                                   ",
"                                                                                                                                                                                              $ . . X % {.(.(.(.L.(.E.E.R.s.X X . . o # # # * * '.W.R.R.R.R.R.h.T.g.[ ] %.r.{ r.i.i.i.u.' W W W g . . . . . o . . . . . . . . . o o o . . . . . . X . . . . . o . . . X 0 s u r 6 U U U U U n M U U E U E K K J * X X X % [ %.^ #.#.b v c F s X X o . o ' [ ` T H j.<.d.d.g.* O . . . . X . + + . . . . . . . . . . X o o X X d m m H H m m m m m m m m m m m m I I J X o o o o o o o o o o @ . $ O ' _ _ P T W.!.!.!.'.X $ . O . . o . . . 0.7.] r.%.;X;X>X>XuXVXmXMXMXVXc c t z b I.F.C.N.C.A.N.N.C.V.V.V.C.C.N.A.A.G.C.K.l 9 b b l I.K.I.M.F.$X$X&X#X$X$X$X#X#X$X/./.).).).S.F.F.F.M.#X&X$X$X%X#X/.#X).).Y.Y.Y.Y.Y.O. .X.| &.!.I.F.F.I.l e t w 2 E /  .......O...X.=.e w w t F r.7.7.u.u.: o . o o                                                                                                                                   ",
"                                                                                                                                                                                              X # . X , E.(.^.P.~.~.N.E.R.s.& X . o O O O O * % '.T.h.R.h.h.h.h.g.T.[ ] ] %.r.r.u.u.u.u.W L L L h # $ . . . . . . . . . . . . . . . . . . . . . . $ . . o . . . . . . X 0 r r 6 7 U U U E U E Y T M U U ! ! S K * . o . X T %.#.#.=.n U v F u X . X o X ' [ [ [ ` d.!.I.>.d.* . . + o X $ X . + . . . . . . o o O . o . O O . h m I I H I I m m H m I H H H H H H J L X o o . o O O X X . o o . . . L _ ` T H W.Q.!.!.g.% X O . . . o . . . 0.5.[ ] %.*X>XuX>XuXMXVXVXmXVXA F e x b I.F.C.N.C.N.N.N.C.C.V.V.C.C.A.A.N.C.V.I.2 z z z b p.K.V.U.U.$X$X#X&X$X$X$X#X#X).#X/.).#XY.G.M.Z.F.Z.$X#X$X%X%X@X#X/.)./.Y.G.Y.Y.).o.....| X.F.I.V.I.I.n z e t e Y / / ......O.X.&.=.e e w t S r.r.7.u.u.: o . . .                                                                                                                                   ",
"                                                                                                                                                                                              ; X X % , (.~.^.^.^.A.~.(.E.R.& % * = = % % & = & z.g.h.h.h.h.h.R.h.[.[ [ t.t.r.r.r.r.u.u.P L L L g . . . # o . . . . . . . . . . . o o o . o o o . o o . . . . . . . . X 0 u r w x U U U Y N N n T m U M n ! S K ; . o . . i.@.%.$.@.M M G T y X X o . . W P H H B !.!.<.d.W.X . . . . . X X X . . . . . . . . o o . o . . X X g i F F I I I F F J i i F m F I I L W W . . O o o . X X X o o o o X X _ _ ` H U W.Y.!.W.W.% o . . . . o . . . 0.5.7.r.-.*X>XuX>XuXMXMXMXMXVXy A w z l I.F.C.N.C.N.N.N.A.C.C.C.C.C.N.A.N.C.V.I.3 9 t e e R.K.K.M.C.$X$X$X#X&X&X&X&X#X).).#X#X/.Y.o.>.>.>.>.#X#X#X#X3X&X&X/./././.Y.Y.Q.).*.o.o.*.X.I.I.I.V.I.k z t 6 w U }  ...| ....X.&.=.e e w y F r.7.7.u.u.: o . . o                                                                                                                                   ",
"                                                                                                                                                                                              & , & , 8 (.^.~.J.J.^.~.A.E.R., , , , , , , 8 , & z.f.f.f.f.s.f.g.g.g.e.r.t.%.t.%.%.%.] { W L L K g O . . . . . . o o o o o o o X o . . o . . . . o . . o . . o o . . . . 5 0 6 7 e E ^ ^ ~ N / Y T E E n n n S K * X . . - [ %.%.-.@.` U v U y * . . . . W P ` ` N !.I.!.!.W.. . + . . * % * X X . . . . . . . . . . o o . o . p f f d J J J J d f f f L L L W L W L g X o o . . X X % O * X . . X X _ H _ H ` !.!.!.W.W.* $ o o . . o . . . 0.7.] ] %.:X>X>X>XuXVXMXmXMXVXF a t z b I.F.C.N.A.N.N.N.A.A.C.C.C.C.Z.C.C.C.I.I.3 z y t c p.K.I.I.U.<X1X1X$X$X$X#X#X1X#X#X).).Y.#X>.:.;.:.F.#X#X$X#X$X)./.@X/.@X/.).).Q.Y.;...O.X.X.I.I.I.K.I.z t w t t G R ~  ./ =...X.&.=.e t w y F r.7.7.u.u.: o . . o                                                                                                                                   ",
"                                                                                                                                                                                    o # o X < eX X X X(.(.^.^.^.D.vXbXnXnXnX X X X X X X X X{.|.% X . . X X X X X X [ i.r.%.y.r.t.r.r.7.W L J J d J J J W g g g d d d d d d d g # o . . . . . . . . . . . . . . . . . . 5 r t z 2 ^ ^ ~ ~ ~ I.I.I.K.:.M n v S F a d d d d X * X X = U ^ ^ R t X . . o . J F H B ~ } B ) ) ` X $ + . ; P H [ P Q . . . . . . . . . . . $ . $ . $ . X X X X X X X X . . . . X O - - X - . o . . X 0 a a s s : X # X . _ _ ` H B ` ) ) ` [ % . o . . . o . . . 0.7.] r.r.:X>X;X>X>X;X>X;X;XuXt t w z l I.F.C.A.A.N.N.N.A.A.C.C.C.C.C.N.C.V.K.K.3 9 u u u y z l l b l l l l l l l l l l I.F.G.H.F.B N N N N  .2.2.2.O.$X/./.&X@XB l b V n | | X.X.*.b b 2 9 z w t u 0 4 6 w 2 2 k } ..X...=.e t w y F r.r.7.u.u.: o . . o                                                                                                                                   ",
"                                                                                                                                                                                    # o # * & [.(.(.(.(.~.^.^.^.~.vXvXnXvXvX_.`._._.`.(.~.~.E.E.% X . . . . . . X X u.e.r.i.e.r.%.{ 7.7.W W K K L L a f a a d a d d d d J J J J > O . . . . . . . o . . . o . o . . . . 5 7 w e z #.~ ~ ~ ~ I.K.V.K.:.n v v G G G K K J J % . * O % T E R ^ A X o . . . d I ` B U M ` ) ) I - . + . * [ H ` U T o . . . . . . o . . . $ . $ + . . . . . . . . . . o . . . o o $ X . $ . . . X . 5 a a a d < . X X X L H P K T E ) ) ` _ % X . . . . o . . . 0.7.7.r.%.:X>X:X>X>X>X>X;X;X>XA t t z l I.F.C.A.A.A.N.N.A.A.A.C.C.C.C.Z.C.B.I.I.2 9 0 u u y e x 9 z z z x z c x z z l k !.I.F.F.F.) ` ~ R  . . . .2.S././.@X@XY.2.l l b k &.$.*.X.*.x x z c e w r r s r 0 w 6 2 2 %...X...$.e e w t F r.7.7.u.u.: o o . o                                                                                                                                   ",
"                                                                                                                                                                                    @ o O % , [.`.`.^.`.^.`.^.~.~.vXvXvXvXvX^.`.`.`.^.^.^.~.E.R.X X . . . . . . X X u.e.u.e.r.r.7.7.7.7.L J W J I J F D D d J J J J L J J P J F # o o o o . o . . . . . . . . . . . . . 5 4 6 7 z ^ / ~ ~ C K.B.Z.C.:.b v G G G G G G G J % X X O X Q R E Q s X . . . . J J H H U B B m _ ' X $ $ X = P E T E Q X X . X o o o . o . . . . . $ o . . . . . o . . . . $ $ o o @ $ O # . . + . X . 4 y y a a < X X X . W L P P K H H m H ' . O . . . . . . . . 0.9.5.r.%.:X>X>X>X>X>X>X:X:X>Xy a w e l I.F.C.N.A.A.N.Z.Z.Z.C.C.C.C.C.C.B.I.K.p.9 9 y u w w w e 2 9 z c t w t y t w k 3 I.I.F.I.I.` } } } } }  . . .o.)./.@X@X#XV b b z 2 $.$. .&.$.v x z e t 6 t u s r r u r 6 e %.......$.9 w e t F r.7.7.7.u.: . . . o                                                                                                                                   ",
"                                                                                                                                                                                    o o X % & [.^.^.^.^.^.^.~.^.~.vXvXvX6X5X`.XX`.`.^.^.^.~.U.I.% X . o . X X X X X u.u.u.u.9.4.7.5.7.0.W W W W F d d d d d J J J a J J J J J J : # o o O . . . . . . . . . . . . . . X 4 7 t x z ^ ^ ~ ~ C K.B.S.M.*.b v S U U M M M U G % X X . . W Q K Q J X X . . X d L I I _ H m m _ _ * X X X < _ T E U U % % X * O . o . . . o . . . . . . . . . . . . o O # # O o # o @ . . . # $ . . . 4 t y A a < % % X X W L P L P _ H H L W X o . o . . . . . . 0.9.r.r.%.:X>X>X>X>X>X>X:X:X>Xy a 7 e k I.F.N.N.N.N.A.A.A.N.C.C.C.C.C.I.B.p.I.p.2 2 r w w 2 2 3 9 9 9 e e e e e e t k k R.I.I.I.I.Y } } } @.@.$.$.$.X.).#X/.Y.#X) z e z 2 $.-.$.$.-.v x z x e x x e w r r u r 6 z -...X.&.=.w w t t F r.7.7.9.u.5 . . o o                                                                                                                                   ",
"                                                                                                                                                                                    @ . . % & [.^.`.^.^._.`.`._./.5XvXvXvX5X.XXX`.XX`.D.~.~.(.E., , = = = = , , = < 5.9.4.4.6.8.9.0.7.4.g d h s s s s s s h d d J d d W W J J J ; * * > : o o o . . . o . . . # X % % * 4 6 6 7 e ^ ^ ~ C C V.B.N.Z.*.N U n n M N B n M T & * X % * J K K d s - X X % ; s d d L J L L _ _ d 5 - & & < G U Y Y ~ = = < < 5 X # # . . . . . o . : o o o . o . o o o # # ; ; : # # > > : . . . . X r a c y t < & & % ; f L W d d d L L L f X . . . . . . . . X 0.u.r.r.%.:X:X>X>X:X>X>X:X>X>Xy t 6 2 k I.C.C.N.A.A.A.C.C.C.N.A.C.C.V.;.:.p.I.p.e 2 t w 2 m l 3 l l b b m v m z z z l b :.I.d.d.p. .$.@.$.#.} } } } X.Q.#XQ.Q.Q.Y z e z c [ %.%.@.%.M U v v l n b b b G c c A x l #.X.X.&.=.e w t t G r.7.7.9.u.: . . o o                                                                                                                                   ",
"                                                                                                                                                                                    @ . . % & [.~.^.^.^.vXvXvXbXvXnXvX7XvXvXvXbXbXbX5X^.^.P.(.U.E.E.{.{.{.{.{.E.{.|.& % X - X . . . X X . . . . . . . . X o o $ X X - s d J L W ' W W g h O o . . . . . . . o 5 s s s r s s t t 7 R R Y C C V.B.S.Z.V.*.K.p.K.K.B.>.>.:.d.S D D s s X . X X - d W Q K D = X . . - O O o * : [ 5.e.Q T ` T E Y ~ [ Q [ [ P * O . O . . . . . . 3.w.w.w.q.x.v.v.}.-XtXrXyXrXeXf.f.n.q.q.. . . . . 4 t y S G G K K W d = X X . O * X X X X . . . @ . . . . . X 0.u.r.r.%.:X:X>X>X:X>X>X:X>X>Xy A 6 e k I.F.F.A.A.A.A.C.C.A.A.A.C.V.K.l 3 3 1 2 1 w 6 7 z 1X1X1X<X<X1X1X1X1X1XQ.Q.Q.E.E.l 3 2 l 9 I.I.I.I.p.$.$.@.@.| |  .~  .-.@.-.t.%.%.e z z c c K.I.K.I.I.#X#X#X1X X@.e e z l =.X.&.&.$.w w r t G r.u.u.9.u.: . . . o                                                                                                                                   ",
"                                                                                                                                                                                    . . . % & [.^.`.^.^.bX6X7X6XbXbX6X6XvXvXvXvXvXvX5XP.^.P.^.(.(.(.(.(.(.(.(.(.R.{.% % X . . # O X X X . . . . . . . . . . o o o X - g L d J J J L W W g O o o o . . . . . o p r r r r r r 6 6 6 T E Y ~ C V.B.Z.N.C.V.K.B.B.B.M.;.;.:.p.c D D D D X . . . * W D K K K % X . o + $ # O O * [ @.@.R E R E Y N C ^ R @.[ [ * X X . . . . . . . 8.8.w.3.8.x.c.z.z.c.-X-XeXeXeXf.f.f.q.k.. . . . . 0 s c c c A A S K J % X $ X X . X o o . o . . . . . . . . X 0.u.e.r.r.:X:X>X:X:X:X:X:X:X>Xy A t e k I.F.F.A.A.A.C.C.A.A.C.A.C.C.U.k l 9 e 6 w 6 A t 3 1X#X#X#X#X$X$X<X<X$X).U.U.R.E.2 b z z 9 I.I.I.K.:. .} } @.|  . . .@.@.} @.@.@.t.e c x z 2 V.I.V.V.;.#X#X#X#X).R z x z k $.X.X...$.2 w r t G r.7.u.u.a.5 . . . .                                                                                                                                   ",
"                                                                                                                                                                                    . . . % , [.~.`.^.^.bXbX6XbXbXbXbXvX6X6XvXbX6X7X5XP.~.P.^.^.(.^.^.^.^.^.(.(.E.E., % . o . . o . X . . . . . . . . . . . . . . . * g d J W L W W L W W O X . o . o . . . . p 6 7 7 r 7 r 7 6 6 K E Y Y C V.B.Z.Z.V.C.V.B.C.Z.C.Z.Z.B.p.z c A A t X . . . < J K G G P % X . . + . $ . X % [ } ^ ^ R R R Y N C / ^ } [ [ % X X . . . . . . . w.8.w.8.q.v.v.c.c.}.>X>XeXeXtXf.f.f.q.q.@ . . . . 4 u c x c c v S F J % % O o o o . o o . o . . + . . . . . X 0.u.r.t.t.:X:X:X:X;X:X:X;X:X>Xy A t 2 k I.C.C.N.A.A.C.C.C.C.C.C.C.K.K.l l 1 e t 4 6 7 e l 1X<X$X%X$X$X$X#X$X$X/.U.U.!.Q.l 2 z z z I.I.F.F.F. .} @.@. . . .} @.@.$.} $.@.%.e e z e c ;.V.>.V.M.#X&X&X#X#X} z e e 2 $.X.&...$.2 w r t F r.r.u.u.a.: o . o .                                                                                                                                   ",
"                                                                                                                                                                                    . . . % ,  X~.^.^.^.bXvXvXnXbXvX6XvX7X6XvXbX7X7X5X~.~.^.^.`.^.^.^.^.^.~.~.~.(.E., % . o o . o X X X X . . . . . . . . . . . X X * J J L W L L W J J W X o o o . o . . . . p e 7 7 t 6 7 4 4 4 K G Y Y N V.B.Z.C.Z.C.Z.Z.C.Z.Z.Z.Z.B.:.l b c A t X . o X < K U U G P * O . . o . o . X % } / ~ / R R R R ^ / / / ^ ^ Q & X o . $ . . . . . 3.w.w.w.q.v.v.c.}.}.>X>XeXeXtXf.f.f.f.q.# . + . . 4 u A c x x v c S K % X $ . # # @ @ @ . . . . . . . . . . X 0.9.r.t.t.:X:X:X:X;X:X:X;X;X>Xy t 7 7 2 I.C.N.N.A.A.C.C.C.C.A.C.C.K.K.l l 1 w r 6 r w e l 1X$X$X%X%X$X$X$X$X$X).~.~.!.!.l z e x b I.I.F.F.F.~  .} [ ` } } [ @.@.@. . . .$.z z z 2 z :.>.>.>.F.#X&X$X#X#X` e w e 9 -.X.&.=.$.2 w r t F r.u.u.u.a.5 o o o o                                                                                                                                   ",
"                                                                                                                                                                                    . . X % ,  X^.^.^.^.vXvXvXvXnXvX6XvX6XvX6X6X7X7X5XP.~.^.^.`.^.^.^.^.^.^.~.~.E. X, = * # @ # O O * X * . o + o o o o o o o $ X X * W J L P I J P W L L X X o o . o . . . X s e 7 6 t 4 7 4 4 4 K G E Y N V.B.C.C.Z.C.Z.Z.N.S.Z.Z.Z.M.B.l b v D D X . O * = Q U U G P * * . $ o . o o X & } C / / ^ Q Q R R ^ ~ / ~ ^ Q % X X . . . + . . . 3.q.w.w.a.wX-X}.}.}.>XtXtXtXuXz.f.k.k.k.o @ + . . r s A c z c S S S D % % # $ # @ > @ $ . o . . . . . . . . . 0.u.r.t.t.:X:X:X:X[.:X:X=X;X>Xt t 6 e k I.C.N.N.A.A.C.C.C.C.A.A.A.I.I.3 9 x 6 6 r r y e 3 <X$X$X&X$X3X%X%X<X$X)././.Y.Q.l 9 z x 2 R.F.F.Z.F.C  .} `  .` R @.%.R }  . .$.$.3 e 7 e e :.I.I.<.F.&X&X$X$X#XY e t t 9 %.&.&.=.$.2 w r t F r.u.u.u.a.5 o o o o                                                                                                                                   ",
"                                                                                                                                                                            : : 5 t L.A.A.S.A.oX.X.X.X.X3X3X4X4X4XbX6XvX6X6X8X7X7X7X5XJ.^.^.^.^.6X7X7X7X7X7X6X6XvX6X0X4X0X0X5XL.~.U.P.P.P.P.P.P.P.P.~.P.(.(...=.#.%.[ & X - o # $ - # # # o . . . . o . . . X p t 7 7 4 X X X X & T R ~ ~ N V.;.Z.M.Z.Z.Z.Z.Z.M.Z.Z.Z.Z.M.M.B.B.K.:.l b v A s * # # # # @ @ . . X W [ E ~ / U.A.G.A.N.C C / ~ / #.| | ( ^ z c y a 7 X . . . X $ $ $ # # # # > > > > : - # > > > : > > # . o . . s t x A a % o . + + . . O * * J K G F a X . . . . + . . . . 9.u.u.r.r.mXmXmXmXmX>X>X;X;X>Xy y r t z I.C.N.Z.N.F.A.Z.C.&.l e t x b I.F.F.F.d.2 7 e b l <X$X$X$X#Xl 9 6 u r 4 e e 7 e Q.Y.H.G./.3X%X%X$X$X$X$X$X$X#XU.U.U.U.G./.&X$X$X$X$X$X%X%X%Xz t 1 6 3 p.;.Z.Z.I.U y t w z %.X.&.&.$.2 w r s J u.u.u.9.a.5 X . o o                                                                                                                                   ",
"                                                                                                                                                                          o @ o X t E.L.A.A.A.oX.XXXXXXX.X.X3X3X4XbXvXvX6X7X8X7X7X7X5XJ.^.^.^.`.bXvX6X6X6X6XvXvXvX6XvXnXnXvXvX~.(.~.~.~.~.^.^.^.~.(.(.(.(.(...=.( %.Q % X o . o X o . . o o . . . o o . . . X s t 7 7 4 X X X X % G E ~ ~ N F.M.C.Z.C.C.Z.N.Z.Z.Z.Z.V.Z.B.B.B.V.V.B.b n S A r % X o o . . . . . % Q Q E / / U.U.U.G.A.O.O.| /  .| | | ( ^ z c y D a % . . . . . . . . . . o o $ . . . . . . o . @ @ > o . . . . 5 s A A a = o . . . . o X O % J K G F a X . . . . + . . . . 9.u.u.i.r.mXmXmXmXmX:X:X;X;X>Xy t w t z I.C.N.Z.N.F.A.C.C.&.9 e w e z I.F.F.F.I.2 7 e x l <X$X$X$X#X3 2 6 4 4 4 e 7 7 e Q.Y.Y././.4X%X%X$X$X$X$X$X$X#XU.U.U.U.G.).$X$X$X$X$X$X%X%X3Xz 1 1 2 2 $.;.M.M.d.H c y e z $.X.&.&.$.2 w r s J u.u.u.9.a.5 X . o o                                                                                                                                   ",
"                                                                                                                                                                          o . . . 6 E.P.P.P.P._.3X.X.X.X.X.X3X3X3XbXbX8X6X7X7X7X7X7X5XJ.^.^.^.^.nXbXvX6XvX6XvXvXnXvXvXvXvXvXvX~.~.~.P.P.P.P.P.P.~.^.^.^.^.(.OX( =.=.Q & X X . . . X . . . . . . . o . . . X X s t 7 7 4 * X * % = Q R Y ~ N V.B.Z.M.Z.C.Z.Z.Z.Z.Z.C.C.C.V.V.C.V.B.:.b b c A 4 X X . . . . . . . X P T E ^ ~ U.I.U.U.I./ / / #.#.| | | ( ^ z c c t s X . . . o . . . . . . . o . o . . . . . . . . o o O . . . . 0 D D A a ; . . . . . . . X * J G G F a X X o . . + . . o . 9.u.u.i.y.mXmXmXmXmX;X:X;X;X>Xt t w w 2 I.C.C.N.N.F.A.C.C.&.9 9 7 7 z d.F.F.F.I.2 7 t x l <X%X$X$X#X3 e w 7 w 6 w 2 7 2 Q.Y.Y.Y./.4X%X%X%X%X%X%X$X$X$XG.G.G.G.G.&X$X$X$X$X$X$X%X%X3Xe 9 e 1 2 p.I.>.V.I.T c y e k =.o.X.&.$.2 7 t t K u.u.u.9.a.5 X . o o                                                                                                                                   ",
"                                                                                                                                                                          @ @ o X 7 E.P.P.A.P.oXXXXX.X.X.XXX.X3X.X7X8X6X8X8X7X7X7X7X5X^.^.^.`.`.nXbX6X6X6X6X6X6X6X6XvXvXvXbXvXD.~.D.D.D.D.~.~.~.^.^.^.^.^.`.S.( ( ( ^ , & % % X o . o . . o . . . o o X X X X s t 7 r 0 * * * % & T E Y ~ ~ K.I.F.C.C.C.Z.Z.Z.Z.Z.Z.C.C.C.C.C.C.K.B.l b v G w % X . . . . . . . X P Q E E Y I.K.I.I.I.| | #.&.^ | | | / ^ z c c a a X . . . . . . . o o O O o X X X X . . . . . O # . * . o . . s d D D s = . . . . . . X X = I G G F a X o . . . + . . o . u.u.u.i.i.mXmXmXxXxX:X:X;X:X>Xt t w 6 2 K.C.N.N.N.N.A.C.C.&.9 e 7 7 9 p.F.F.I.I.2 e t x b <X<X$X<X#Xl e 6 r w 6 3 2 1 k Q.Y.Y.Y.Y.<X$X%X%X%X%X%X$X&X$XG.G.G.G.G.$X%X$X$X$X$X$X%X%X%Xb 9 3 9 9 p.:.:.<.d.H e e e k :.o.o.&.=.2 6 r t K u.u.u.u.a.5 X . o o                                                                                                                                   ",
"                                                                                                                                                                          # # O X 7 L.P.P.A.P._..X.XXX`.3X3X.X3X3X6X8X6X6X8X7X6X6X6X7X^.^.^.`.`.nXbX6X6X6X6X6X6X6X6XvXvX6X7X5XJ.J.J.J.~.^.^.~.~.^.D.^.^.^.^.S.OX( ( ( 8 8 , & & # . . . . o . . o . $ X X * = s t 7 r r - - * * & T E Y Y C ;.;.M.Z.;.F.V.Z.Z.Z.Z.Z.C.C.C.C.C.C.C.V.N n v v 1 % % X X X X X X X % a P K G v t.p.p.p.:.$.#.| =.#.} | | / ^ z c c a d X . . . . O o o o o O O O O X X X X X X X X . * ; X X o o o p s D J a < . . X X X X X % = t G S S a X o . . . + . . X X u.u.u.r.y.mXmXmXxXxX>X>X;X:X>Xt t w 6 2 K.V.N.N.N.N.N.Z.V.&.l e w 7 2 :.>.F.I.I.l z t e b 1X<X<X<X1X2 e e t w e 2 2 k l U.Y.Y././.%X%X%X%X%X%X%X$X&X&XG.G.U.G.G.&X$X$X$X$X$X$X$X%X%Xl l 9 2 l &.p.K.p.p.T c y e 2 =.o.*.&.=.2 7 t t F r.u.u.u.a.5 X . o o                                                                                                                                   ",
"                                                                                                                                                                          # # X X e E.P.P.P.D.P.D.D.D.^.7X6X6X6X7X8X6X6X7X8X7X6X6X6X7X^.^.^.`.`.nXvX6X6X6X6X6X6X6X7X7X6X7X7XbX7XbXbXbXbXbXbXbXbXbX`.^.^.^.^.^.`.(.(. XE.E.E.E.E.: X . . . o . . . O s d d a 7 r t 7 r r ; - - * = Q E R Y N  .~ C / / V.M.Z.C.Z.C.C.C.C.C.C.C.C.C.U.B.K.K.K.t.U D D J K J J J D s % X X = % % X % & 3 } $.| / ..}  ./ / ( b c c t s . . . . # h _ _ _ _ _ _ _ [ [ t.y.y.y.d.d.j.T.g.z.* X . O . X * % X % 4 u f s d a a a D c T S c A s X o . . . + . . X X u.u.r.r.r.mXmXmXmXmX>X>X:X:X>Xt t r w 2 K.V.A.N.N.N.N.Z.V.&.z e 7 7 2 >.>.<.F.I.2 z c x l E.U.G.F.:.l c e 1 e p.W.Q.Y.!.<X%X%X%X$X3X%X%X%X%X%X%X$X3X%X&X$X%X$X$X3X3X$X$X$X$X$X$X$X$X<X#X<X1X1Xn 2 3 9 e 1 w e y e t.o.*.*.=.2 2 w t F r.u.u.u.a.5 X . o o                                                                                                                                   ",
"                                                                                                                                                                          # - * % x E.~.P.P.D.D.D.A.D.D.bX8X6X6X6X6X9X6X7X6X6X6X6X6X7X^.`.^.`.`.bXvX6X6X6X6X6X6X7X6X7X7X7X5X7X7X5X5X7X7X7X7X7X6XbX^.^.^.`.~.^.^.~.~.(.~.(.(.L.L.p o . . . o . . X X s s u r a s t 7 r r = - - % % T E R Y ~ ~ ~ N ~ C V.V.V.V.Z.C.C.N.C.C.C.C.N.N.A.C.K.K.:.=.v v S S S S S D A h . . X . . . X X X , @.$.| / o. .| ( / | b c c a a X . . . o ' m _ _ _ _ _ _ _ ` -.>.>.-.-.-.d.>.d.'.* * o # . . X % % & a F y A K A D A S c c v c c t X . . . . + . . X X u.u.r.r.r.xXmXmXmXmX>X>X:X:X>Xy t r w 2 K.C.C.N.N.N.N.Z.V.:.z e 7 7 9 >.>.<.<.p.2 z e z l I.F.F.I.V.9 z e e z d.Q.E.Y.H.&X%X%X%X%X%X%X%X%X%X%X%X3X3X$X$X%X%X%X%X%X%X%X$X$X$X$X$X&X&X&X$X<X<X1Xl l e 9 e w y r y e t.S.M.*.=.2 2 w t F r.r.r.u.a.5 . . o o                                                                                                                                   ",
"                                                                                                                                                                          - - & & z L.~.~.D.D.P.P.D.D.D.bX7X7X7X9X5X7X6X7X6X6X6X6X6X7X^.^.^.`.`.nXbXvX6XvX6X6X6X7X8X6X7X7X8X7X5X7X7X7X7X9X7X6X6XnX~.^.~.~.~.`.~.^.~.~.~.~.~.P.P.j . . . . o . . . . s a t r t 6 r 7 r r = = = * = Q T R ^ ~ ~ ~ C ~ C B.B.V.C.C.C.C.N.N.C.C.N.Z.N.Z.C.Z.V.:.:.b v v v v v v v v h . . . . o . . . X = [ @.&./ (  .| ..( | b c c A s . . o o . ' _ _ _ _ ) ) ) ) ) >.<.>.>.>.>.<.d.d.h.% X O . o o . X X % u F c x S c c c F c c S c c t X X . . . + . . X X u.u.7.r.%.zXmXmXmXmX>X>X:X:X>Xy t r w l K.C.C.A.N.N.N.Z.V.:.z e w 7 9 >.>.>.p.p.2 z z z V !.F.F.I.V.b z e 9 9 >.Q.Q.H.H.%X%X$X%X%X%X%X%X%X%X%X%X$X&X&X%X%X$X%X3X%X%X$X%X$X$X%X&X&X&X&X%X&X<X1Xl 9 e w w r r 4 e t t.M.*.*.=.2 2 e t F t.r.r.9.a.5 . . o o                                                                                                                                   ",
"                                                                                                                                                                          = % , , b (.P.~.~.D.D.P.P.D.D.7X6X7X7X7X7X7X7X7X7X6X6X6XvXvX^.^.^.`.`.bXbXbXbXbX6X6XbX7X7X7X7X7X7X7X5X7X7X7X6X7X7X6X6XnX^.~.^.~.^.~.^.^.^.P.P.~.L.L.L.p . . . . . X . X X r u r y w t r r r r = = = * & Q T R Y ^ ~ ~ ~ ~ ~ B.B.C.V.C.C.C.C.C.N.N.Z.Z.N.Z.Z.Z.M.V.&.V b b b b v v b v d X . . . . . . . X * [ [ @.#...../ o.( ( v c t t s X . o o . W _ H _ H m m B ) ) <.I.I.F.<.>.<.<.<.h.% X . o . . . . X % t F c ! v v v c c c S c c c u X . . + . . . . X X 9.u.7.r.r.xXMXmXmXmX>X:X:X:X>Xy y w w 2 K.V.A.A.N.N.Z.Z.V.&.l 2 2 2 9 -.p.I.>.p.l k z l l !.I.F.I.F.l b z 9 9 >.Y.Y.H.H.%X%X&X4X%X<X<X<X<X%X$X$X$X&X&X&X3X$X3X%X%X%X3X%X&X$X%X&X&X%X$X&X$X#X1Xz e w r 4 w w e e e t.B.B.:.p.2 7 e t G r.r.r.u.u.: o o . o                                                                                                                                   ",
"                                                                                                                                                                          & 1 , 8 k P.(.P.~.P.P.P.D.D.J.7X6X7X7X7X7X7X9X7X7X6X6X6X6X7X^.^.^.`.`.nXbXvXvXvXnXvX6X6X6X7X7X7X7X7X7X7X7X7X9X7X6X9X8XnX~.~.~.J.^.^.^.^.^.(.L.E.E.I.R.: . . . . . X X X X a a r t w w r r r q ; * * * = P T [ R R ^ Y Y ~ ~ :.:.V.V.V.V.C.C.C.C.Z.Z.Z.Z.M.N.Z.;.;.X.V V b b b b b b b a % X X . . . . . o : 4.5.] @.%.#...*.( / b c c t s X . o o X W H H H m H m B B ) >.F.F.F.H.+.F.<.<.h.% X . o . . . . X X a G M M n v v v c c c c c c u X . . + + . . . X X 9.u.u.r.r.xXMXmXmXmX:X;X=X=X:Xy r w w 2 I.C.A.A.C.N.Z.C.M.X.l 2 2 2 9 d.p.p.p.p.l k l b V F.F.F.F.>.l l 9 9 l +.Y.Y.H.@X<X0X0X<X<X<X<X<X<X$X%X$X3X&X3X%X3X%X$X%X4X%X$X3X%X%X%X%X&X@X&X#X#X1X=Xe < 4 r w 9 3 z 9 z -.K.p.p.t.x e w e G r.r.r.u.u.: o o o o                                                                                                                                   ",
"                                                                                                                                                                  O O O = [.E. X(.(.`.~.~.P.^.bXvXbXvX7X6X7X7X7X7X7X7X7X7X9X6X6XbXvX6X3X3X3X3X4X~.~.~.~.`.6XvX7X7X7X7X7X7X7X7X7X9X7X6X6X4X4X4X4X0XJ.^.J.J.^.^.^.^.^.~.8 , & % % . . . . . . X X X X a r r t 6 = % % % * 5 q 5 4 4 y w e 2 z R } ^ ^ Y | } ~ / / C.V.C.C.V.Z.Z.Z.Z.M.Z.N.Z.F.F.;.V.V.:.:.V.V.K.I.s.v c F d s O o @ . . . X X % & ~ #...( | b c t a s X . o o . L P P ` ` -.>.>.<.F.#X$X$X&X$XF.F.+.<.j.% X . o . . o o o % P %.$.#.#.v m v v c v c c A u X . . + + + . . X X 9.u.u.r.%.>X>X:X:X;X;X[.*X*X>Xu r w w 9 I.C.A.A.A.N.L.K.C.C.>.>.>.p.d.1 e 7 b l Q.#X#X#XQ.Y.U.F.I.F.d.d.>.>.;.#X%X%X$X<XV k l l l l l l l 3 <X$X&X$X&X&X%X3X3X&X3X3X3X%X%X$X%X%X$X%Xl 3 3 3 e < 0 a 4 e %.p.I.B.>.b l l z v 7 w t t G r.r.r.7.u.: o o o o                                                                                                                                   ",
"                                                                                                                                                                o O # X % R.(.(.~.~.P.P.^.~.D.nXvXbXvX6X6X7X7X7X7X7X7X9X7X9X6X6XvXvX6X3X3X3X3X3XD.~.~.~.~.6XvX6X7X7X7X7X7X7X7X6X7X7X6X6X4X4X4X4X4X/.J.J.J.^.D.^.(.(. X, % X . . . . . . . . . . X X u 4 u y w % X X X X 5 q 5 0 4 w 6 w e e R E Y Y Y ~ ~ ~ | / V.V.V.Z.Z.Z.Z.Z.Z.Z.Z.Z.M.Z.F.C.V.V.V.B.B.B.V.V.p.z b G P W X . + . @ . o X X % ^ $.#.#.#.z e e a s X . o o . L m H m _ >.<.>.>.+.@X#X&X#X$X+.+.+.<.j.% X . o . . . . . X K %.| &.=.v m v v c v c c a u X . . + + + . . X X 9.u.u.r.t.[.;X:X:X;X;X[.*X[.:Xe r w w 9 I.C.A.A.C.N.C.C.Z.M.Z.Z.>.:.p.7 7 z 3 l #X#X#X#X#XG.G.I.I.I.>.>.>.>.+.).$X$X<X0Xk b z c l l z 9 l k <X&X%X%X3X3X$X$X3X%X%X3X%X%X3X%X%X&X$X%Xz 9 1 1 w r 0 5 w 1 $.:.B.F.I.3 b z z c t t t t F r.r.r.u.u.: o o o o                                                                                                                                   ",
"                                                                                                                                                                . o O X & |.E.L.~.~.^.^.~.~.`.bXvX6X6X6X7X7X7X7X7X7X7X7X7X7X7X6X6XvX6X3X3X3X4X3X~.~.~.~.~.5X5X7X7X7X7X7X7X7X7X6X6X6XvXvX4X4X4X4X3X~.D.^.^.^.^.~.(.(.E.& X - . @ . . . . . . . O X X s r r r r & X O X X 5 q q r u w w w w 2 [ E R } } } } ~ / C K.V.V.V.V.C.C.V.C.C.C.C.C.C.Z.Z.C.C.C.C.C.V.V.C.I.v v S F L X o o . . . o . X - ` $.^ #.} e e a t s X . o o X g m _ m ) <.1.,.1.+.Y.@X@X@X$XF.H.<.<.j.% X . o . . o @ # * P @. . .$.b M m G c c c A a u X . . . + . o . X X 9.u.r.] r.;X:X;X;X;X;X*X*X[.:Xe r w w 9 I.K.A.A.A.N.C.C.C.C.M.;.>.>.p.2 7 z k 3 #X#X#X#X$XH.H.U.F.I.>.>.>.>.;.#X%X%X#X1Xb v z 7 c e e x 2 3 <X<X$X%X$X%X3X$X$X4X%X%X%X3X%X%X<X%X4X<Xe < 1 w 4 0 0 s r w  .V.F.;.K.l 2 2 e e y y y y F r.r.r.r.u.5 o o o o                                                                                                                                   ",
"                                                                                                                                                                o . o . & R.(.(.D.D.^.P.~.~.`.bX6X6X6XvX7X7X6X6X7X7X6X6X7X7X9X9XvXbX7X3X3X3X3X4X~.~.P.A.P.7X6X7X5X7X5X7X7X7X6X6X6X6X6XvX4X4X4X4X4XJ.^.J.~.D.`.~.L.E.{.% X . + . . . . . . . . X . . 0 r u r w % X . . X 5 0 0 0 0 0 w w w 7 T E Y R Y ^ Y ~ } ~ B.V.V.V.V.V.V.V.B.B.B.V.C.C.V.C.Z.C.C.C.V.V.V.V.p.b U T Q W - # . o # o X X % X R @.@.@.T w w y a a X o o o o g m m m ` <.<.1.1.+.Y.@X#X@X#X1.+.<.<.j.X o . o . . . . o % P $.| =.$.b b z c c c A A a u X . . + . . o . o X 9.u.u.r.%.;X:X;X:X;X;X*X*X{.*Xe u 0 w 9 I.K.A.N.A.N.N.N.C.C.B.K.V.:.p.2 < 2 3 k #X#X$X$X#XG.F.U.F.I.d.p.:.>.+.#X%X%X<X<Xk z c t 9 e w w e 2 1X$X<X%X3X$X3X4X&X%X%X%X3X%X&X3X4X<X<X<Xe 1 2 w w 0 0 0 w 1 @.:.V.:.d.2 e e e t t r w w F r.r.r.r.u.5 o o o o                                                                                                                                   ",
"                                                                                                                                                                . . o X & E.L.D.J.J.^.~.~.~.~.nXbX6X7X7X6X6X6X7X6X6X6X6X7X7X7X9X6XvX7X3X3X3X3X3XD.^.~.P.~.5X7X5X5X5X5X7X7X6X6XvXnXnXbXvX5X4X4X4X4X^.^.~.~.`.(.E.{.{.[.= X . > + . o . o . o . . X X 5 r s u w = O . X - : 0 r q r a w 4 6 w Q [ } } Y #.~ ~ ~ ~ B.B.V.K.V.V.V.V.K.K.V.B.B.V.V.C.V.C.I.F.C.V.V.V.h.S U Q W W ; X $ $ . X X % % % [ [ [ R G y y a s d O O o o . g I H m ` d.<.,.1.+.!.Y.#X#X#XF.F.1.<.j.X o . o . o o . # * P  ...| } M b e c c c c A a s X . . . . . o . . X 9.u.r.i.] ;X;X;X;X].*X*X*X[.:Xu r w w 9 I.I.A.N.A.N.N.N.Z.I.K.K.I.p.:.3 2 l 2 3 1X1X#X#X$XG.G.I.I.I.:.:.>.>.+.#X%X3X&X%Xl k z e 1 9 y y w 3 pX<X<X<X3X4X$X3X%X$X%X%X%X%X0X<X0X0X0X0Xx 2 9 2 e 4 r q 0 1 -.d.p.I.h.< w 6 w y r u u y F r.r.r.r.u.5 o o o o                                                                                                                                   ",
"                                                                                                                                                                . . . X % E.(.P.J.J.4X5X4X0X4XnX9X6X6X6X6X7X6X7X6X6X6X6X7X7X9X9X6XbXvX6XnXbXbXbXD.~.D.P.A.D.A.D.D.D.D.J.J.J.~.~.J.J.J.^.^.^.^.^.^.^.P.^.(.~.8 , & % % X X X . $ . o . . . : : : : 5 0 s r r a a h g g d - X X X % r w r w 6 e 2 3 l b ^ Y ^ Y N N C C C C C C C N ~ ~ ~ ~ ~ C /  . . .C N n n n K % & % % - % % X X * 9.u.5.] t.= % & % & < < q 4 s X o o o . g I m m ` d.d.<.<.+.>.X.X.+.>.>.<.1.<.j.X o . o . . . . # X y b b b n Y @.@.[ P c c A a s X . . . . . o . . . 9.u.5.r.r.mXmXmXmXmX[.*X*X*X:Xy u w w e I.U.A.N.A.N.N.N.Z.M.b k k 3 9 1X=X{.{.{.I.I.G.H.G.2.2.2. .| p.p.:.>.+.#X%X%X&X%X>.I.p.p.d.9 w 6 w e 3 k V l V 3X%X$X%X$X%X%X%X%X%XV V V V V p.-.p.p.t.r 0 0 0 1 m B Y R ` 0 w w w a r u u w F r.r.r.7.u.5 o o . o                                                                                                                                   ",
"                                                                                                                                                                . . . . % R.E.P.P.~.5X5X4X5X5X8XbXvX6X6X6X6X7X7X7X7X7X9X7X7X9X9X7X7X6X8X8X8X8XbXD.A.P.P.P.P.P.P.U.A.^.^.^.^.^.~.~.^.~.~.^.~.~.~.J.^.^.~.(.E.& % X . . @ . + . + . . . . . p 5 5 5 4 6 w w e w H G G G P * X X . X p s r 6 w 7 3 w w e ` ` Y C C C C C ~ / ^ ^ ^ Y ~ C ~  ./ ~ / } } } R Y M M N g O . o . + @ . . . ; h.s.p.:.:.$ . . . o q 0 4 r 0 O O O o . W m I H ` d.<.<.<.+.+.+.,.,.<.>.<.1.<.d.% X . + @ @ @ @ o X c U n v b } |  .} #.x S D s s X . . . . . o . o . 9.u.7.u.u.mXMXmXmXmX*X*X*X[.>Xy u r e b I.G.A.N.C.C.N.A.Z.&.9 w w w l 1X&X&X&X&XF.G.I.I.I.} }  . .,.<.>.V.;.+.#X$X%X%X$XZ.V.V.p.p.7 t t u r r r u w V <X%X%X&X%X%X%X%X<X<Xl 9 z y c >.>.>.>.-.e r r w w M ` Y ` [ w e w r r r y w w I t.r.u.9.9.5 o . . o                                                                                                                                   ",
"                                                                                                                                                                . . . . % R.L.L.L.D.0X0X4X5X5XbXnXbXvX6X6X7X7X7X7X7X7X7X7X7X7X7X6X6X6X6X6X6XvXvXA.A.P.P.P.P.D.A.A.A.~.^.^.^.^.^.~.~.^.^.^.~.~.~.~.D.~.(.E.{.& X X . . . . . . . o o o X . 0 5 5 5 4 w e w e w I G G P P * X . . X p 5 0 t w e e e e c ` ` R Y Y ~ ~ ~ ~ ^ ^ ^ R ~ ~ ~ ~ ~ ~ ~ ^ ^ @.@.R T U M M L X X o o . . $ . O = h.p.p.B.:.- $ . . X 5 5 u r 0 * O . O O g f m m _ d.<.<.<.+.+.+.,.,.>.<.>.>.-.y.X X o . + @ . . O % t v ! v z } } | #.$.n S D a s X . . o . . o . o . 9.u.7.u.r.mXMXmXmXmX[.[.*X[.>Xt r w e l I.U.G.N.C.Z.N.A.V.:.9 2 6 e l 1X#X&X@X@XU.F.F.I.!.} }  . . .<.>.>.>.+.#X$X%X$X%XF.Z.>.:.p.e e e t w w e u w V <X$X#X$X3X%X%X$X<X<Xl 9 9 e e >.>.>.>.t.e r r 6 1 G } ` ` ` 1 w 6 r r r y t u I t.r.u.9.9.5 o . . o                                                                                                                                   ",
"                                                                                                                                                                + . . . % K.L.L.P.A.0X0X0X0XNXnXnXnXbXvXvX6X6X6X6X6X6X6X6X6X6X6XvXvXvXvXNXvXvXvXA.D.A.A.A.P.P.P.D.P.`.`.XX.X`.`.`.`.`.`.`.^.~.~.~.~.(.E.E.[.% % . . . o . o o . . . X X X 0 0 r 4 6 6 w w e e E M G T K = X X X . h p p s 4 r r t t c Q R R E E E E E R R R R R R ^ ^ ^ ^ ^ ^ @.^ [ [ Q T U U U W % % X X . . X X % & s.p.:.*.M.X X X X * s 0 0 s s X X . . . g I L I _ d.>.>.>.<.>.+.>.1.,.<.-.y.-.a.X X . . # o O X X X y A A S c @.} | | #.n ! S D s $ . . . . . o . . . 9.u.9.u.r.mXmXmXmXmX[.[.*X[.>Xy r w e l I.U.G.N.U.C.C.V.B.:.9 9 9 9 l <X@X&X$X#XF.I.I.I.I.~ } }  . .>.>.:.:.>.#X$X%X$X$XM.M.V.:.K.2 9 e e e 9 9 9 9 l <X<X$X%X3X&X3X%X<X0Xl l l c z >.F.F.:.>.e t u r e U ` ` } [ 2 w 6 w r r y y y I t.r.u.9.9.5 o o . o                                                                                                                                   ",
"                                                                                                                                                                + . . . % K.L.L.A.L.1X1X1X1X2XcXNXNXNXNXNXNXNXNXNXNX0XNX0XNXNXNXcXcXcXcXcXcXNXNXA.A.A.A.D.A.L.L.P.P.~.(.`._.`.`.`.`.(.^.~.P.P.P.E.L.L.R.T.z.% X X o . # X X X . . X X * * r 7 6 4 < 6 6 9 e e G U U E G < * X X O q q q 0 p s s t t t Q Q Q Q T K K K P E T T T Q R ^ ^ @.@.@.R Q [ [ Q P P P P P & % , & % = % & & < p.K.:.*.;.= = % % , 4 s s s p * X X O O f L L I H d.-.>.>.>.<.1.+.1.d.-.-.u.i.u.X X X * * % = % % * u d L D y ] @.} | | N v v a s X . . . . . o . . . 9.u.u.u.u.mXmXmXmXmX[.*X*X=X>Xy t r e l U.U.A.C.U.*.K.K.:.&.b 9 9 l l #X$X#X$X#XI.I.I.I.I.|  . . . .d.p.p.>.*.#X%X$X$X$XF.F.Z.>.>.V l l b b l l l l V <X<X%X3X3X$X3X%X<X<Xl l l b z +.Z.F.>.p.9 e r w 2 T } }  .@.3 w 4 w r r y t y G t.r.u.u.q.5 X o . o                                                                                                                                   ",
"                                                                                                                                                                + . . X & K.L.L.L.( , & % = % & = = = = = = = = = = = = = * = = , , = = = & , 8 0X4X4X4X4XD.P.L.P.P.OX( C ( ( ( ( ( ( ( / C Z Z U & & & % ; X . . o o q p 0 r r q q 0 r 4 a a r 6 w F G G G G E M M U T G P L W d O . o o . . . % % % < < < 5 5 4 4 4 4 1 1 1 1 7 6 7 7 w t 4 = % % X X X X . X & |.{.T.W.W.R.R.W.R.K.=./ ../ / [ [ %.e.[ = % * o $ s s 4 0 q O X O X * i i m m B >.<.<.<.-.% X X . X s d a y G %.%.%.%.[ 5 . . X X r w 9 l l k l z 6 7 X . . + . . o . . . 9.9.u.u.r.mXmXmXmXmX*X*X;X;X>Xa t r e 2 I.A.G.G.C.l z 2 3 N Q.1X#X#X).Z.+.M.+.+.N Y ) `  .:.:.I.<.d.l z 9 9 l Y.$X%X$X%X$X$X<X<X<X<X<X<X<X1XY.!.I.I.F.4X%X%X$X3X3X3X%X3X0X;.V.K.p.p.%X<X<X<X1XM e w w e %.p.p.:.p.9 w 6 r r r y w y G t.r.u.u.q.5 . o . o                                                                                                                                   ",
"                                                                                                                                                                + + . X % K.L.L.C.*.& % X X X $ . . o o o . . . . . . . . . . o % X X . . X % , NX4X5X4X5XD.P.~.^.~.( / / / ( ( ( ( ( / ~ ~ ~ C Q % X % X . $ . o o $ p r 4 4 6 0 0 0 6 6 t r 6 6 6 S G G G G G U U M U T P J J L . . . . # $ $ % % % < 5 5 5 5 4 4 5 4 < < < 4 6 6 w r r u 5 % X X . . . . . . , E.E.{.E.E.E.I.I.E.E.....X.| ..$.$.=.%.@.% X O O . s s s u a X . . . O i i F m m >.<.1.<.d.X X . . . p r a c b =.$.$.@.] ; o . X X u w e 9 b z 2 2 6 4 X . + + . . o . . . 9.9.7.r.{ xXmXmXmXmX[.*X*X;X>Xy t r 6 2 I.C.A.U.K.k e 2 l V Q.#X).#X).+.F.F.>.:.Y R ) N N I.I.I.:.>.z c e 9 3 Y.%X%X%X$X<X%X%X<X<X0X<X<X<X<XY.U.U.U.Y.3X%X%X&X&X3X%X%X%X<XM.;.>.X.>.#X%X<X<X1Xb e w w e $.p.K.p.p.3 r 6 r r r u w w I t.r.u.9.9.5 . o . o                                                                                                                                   ",
"                                                                                                                                                                @ + . . % s.K.L.K.=.% X . . . . X X X X X X X . X X . . . . o o X X + + + . X & NX0X5X5X5XP.~.(.^.(.( ../ / / / ( ( ( ( ^ R ^ ^ W % X . # $ . # . o X 0 r 4 6 6 5 < 5 4 4 r t 6 w 6 G G G G U U U U M m U G G F F X X X . o $ . X X X < 5 5 0 4 4 6 4 6 6 6 6 6 w 4 0 r 0 r 5 X X o o . . . . . , E.R.E.U.E.U.U.U.U.K.....| / .. .....#.%.& X . o o p p s r 4 X . . . O f f f I U >.F.1.<.d.X . + . . s r e b b | &.$.` [ < o . X X s r w w e e e t r 0 X . . + . . o . . . 8.9.7.7.] sXmXmXmXmX,X*X*X[.>Xy t r 2 2 I.C.C.A.U.V a w 9 b ).#X).).).>.>.>.I.>.N } ` ) B V.V.V.I.>.z c t t 9 Q.%X&X%X$X%X$X%X%X$X%X%X%X<X<XU.G.U.U.H.%X%X%X&X&X&X%X%X%X%Xo.+.X.,.,.&X%X%X<X1Xb x t e e -.:.:.>.d.9 w 6 r r w u w w I t.u.u.9.9.5 . o . o                                                                                                                                   ",
"                                                                                                                                                                @ $ . . % s.K.K.s.@.% X . . + + . X X X X X X X X X X . . . . X . . + + + . X & NXNX5X5XvX~.(.E.(.(.( ( / / ( / / ^ ^ ^ ^ Q ^ ^ W . o $ $ > $ $ . o $ 5 7 6 6 6 6 6 4 4 6 6 t 6 w 6 G G G G G G M U M m U G G G K % X X X . . o . . X 5 4 4 6 4 6 6 4 4 6 6 7 6 0 5 0 0 5 q 5 X X X X X X o o . , E.E.U.U.U.G.U.A.U.C.....|  .#.O.o...=.@.& X X . . p p 0 s s % . . . o h h d J K >.<.<.<.t.X . + . . s r c b l X.&.| #.@.< X X X X s 0 r r w r r r 4 5 X . . . . . o . . . 8.9.7.7.] sXmXmXmXmX,X*X*X[.>Xy t r 6 3 I.U.G.A.U.k s r e B Y././.).).>.>.p.>.>.` ` ) ) N V.F.V.I.>.b c t y l Q.%X3X%X%X%X$X%X%X%X%X%X$X%X%XG.U.U.U.H.3X%X&X%X&X&X%X&X%X<XO.+.O.,.,./.%X%X<X1Xb x t e e >.:.V.>.d.3 w 6 r r w u w w F t.r.u.9.9.5 . o . o                                                                                                                                   ",
"                                                                                                                                                                . @ o . X h.s.h.s.4.X . . . # . X X * X * X X X X X X X X X * X $ o . . . . X & zXNXNXNXNXE.E.E.E.E.( ( ( ( ( / / ^ ^ ^ Q e.Q Q W o X $ . > # . o X * 5 7 6 6 6 4 4 4 4 6 7 r r w 6 F K K G G G U U U m U U G G G & % % X X X X . X X < 4 6 2 1 7 7 < t 4 s 5 p 5 0 5 5 p s 5 % & & & & , & & % , E.E.I.U.U.A.U.G.A.Z.X.|  .$.$.O.o.&.| @., & % X X s p s p d X + . . O h g g W P p.<.1.-.d.. . + . . s t v n b &.| | @.[ 3 & & X - 0 s s p p s s p p 0 X o . . . . . . . . 8.9.7.7.r.sXmXmXmXMX[.[.*X[.>Xt r r 6 l I.I.C.C.I.l a r 9 n Q.).).Y.Q.:.d.p.>.p.) ) ) )  .M.F.C.V.p.e A a t 9 Q.%X3X%X$X3X%X$X$X3X3X$X$X$X$XG.U.U.U.G.<X%X$X%X$X%X$X%X$X%X+.o.O.o.O.@X$X<X<X1XM c w t z >.K.V.>.p.3 r 6 r r r r w t F i.r.u.9.q.5 . . . o                                                                                                                                   ",
"                                                                                                                                                                @ . o o X : * - * ; 6.3.' 3.W k.f.i.f.g.uXiXiXuXuXuXiXiXiXiXaXaXyXiXtXc.z.c.z.h., 3 3 3 1 , , , , , E.L.B.B.( ( / ^ @.Q 1 , & < :           > . . . X 5 4 4 6 6 4 4 4 4 4 6 6 6 w 6 w 6 w w c U G U U U U U U T R c G G y a f d a J y G G G G v b v K a s % - $ X X $ $ . X 7 s.s.K.K.K.K.K.p.p.B.&.| o./ 2.o.O.O.O.O. ./ } #.@.....| $.$.m E Q Q [ * X . > X X + . . . o . o $ & I ` ) m I . + . . . [ Q R /  .&.|  .} #.R E R [ L - X . o o . $ o $ - . . o o . . o . . . 8.9.i.r.] >X>X>X>XuXmXmXxXmXmXA r 6 e l I.I.C.C.K.k w w e b >.;.M.M.:.9 b v 9 l Q.Y.Q.Q.Y.F.F.C.V.:.v t t a e I.Y./././.3X3X3X3X%X$X%X%X%X<XG.U.I.U.U.%X3X3X3X$X$X%X$X$X3X/.#X).#X).Z.F.Z.M.:.2 e t t z >.K.V.>.p.3 w 6 r r r r r t F t.u.u.9.q.5 . o . o                                                                                                                                   ",
"                                                                                                                                                                o . # # # . $ . X % 6.4.4.9.5.z.g.h.g.T.sXsXdXiXdXsXsXsXsXsXmXmXjXsXsXT.'.'.'.].X X * X X $ O X % & p.K.L.B.S./ / ^ ^ Q , % . o X           # o o . X 5 s 4 4 7 4 4 4 5 4 4 4 4 4 6 6 6 6 7 e G G U U G U G M U U M U G S G G G K K G G v n M M m c y D d . o o o . . . o X 4 R.R.U.U.U.U.U.U.E.E./ | *.X.o.o.O. .O...| | $.$.$..... .$.$.#.$.=.@.%.% X . . . . . . . . . . . # % y m m m L X . . . X e.e.$.&.| #.$.} } ^ ( ( ( ] [ % X X $ . . + $ . X . . . . . . o . . . 8.9.7.r.{ ;X*X;X>XtXmXmXmXmXMXD a 6 e z I.I.A.V.K.k y w w z :.;.;.X.&.b 1 e z l #X#X#X#X#XF.C.I.I.:.9 y A t e I.Y.G.Y.Y.3X$X$X3X$X%X$X$X$X<XG.U.!.!.J.3X3X$X&X3X3X$X$X$X$X$X%X4X%X4X+.Z.+.;.:.l t t t e &.K.V.:.p.3 r 6 r r r r r r F i.u.u.9.q.5 . . . o                                                                                                                                   ",
"                                                                                                                                                                . o o o . o - . . ; 8.9.5.[ r.h.g.T.'.'.dXiXdXiXiXsXsXsXsXsXsXsXdXdXdXW.{.{.].].X o o @ . o . . . % s.R.L.K.=.( ( ^ ^ Q , * X $ X           : . o . X 5 0 5 5 5 4 4 4 4 5 4 4 6 6 w 6 7 e 2 2 U G G G G U T U E Y Y U M U U G G U T E E U U M m m P F f d X O . . . o . . X < R.I.U.U.~.G.U.U.U.E.*.*./ ..O./ X.X.X.X.| | | #.| #.#.$.%.} =.$.=.t.@.& X . . # . . . . . . . o . X d I i i f X . X X X %.@.#.&.| ( #.| $.( =.X...@.e.X X . . . $ + X . . . . . . . . . . . . 8.9.7.i.r.>X;X>X>XtXMXVXMXmXMXt a 7 e l I.I.C.V.K.k w w e c >.>.>.>.$.3 e c 2 l #X@X#X#X$XF.C.C.M.>.l e w t e I.Q.Y.Y.Y.3X%X%X%X$X$X%X$X%X<XF.U.!.!.J.3X3X4X3X$X&X%X3X$X$X$X$X%X$X3XF.>.>.>.p.2 w t t e &.V.V.:.p.2 r 6 r r r u r t F i.u.u.u.a.5 . . . o                                                                                                                                   ",
"                                                                                                                                                                o o X > X O X O X * 9.4.5.5.r.g.g.g.'.T.dXiXiXuXiXsXzXsXsXsXsXsXdXsXpXR.W.{.{.T.X . . @ . o . . % % s.s.K.( K./ ( ^ Q Q & X . o .           # . . . X 5 5 5 5 5 4 4 4 4 4 4 4 6 6 1 e e z 2 k M G G G G U U U U U U v v M U m G S S U U U U G G F F J f d . X X X . . . X % 1 R.I.U.U.U.G.U.U.U.E.| &...&... ...X.X.X.| | | | | $.$.@.@.} $.%.%.t.t.X X . o . . . . . . o O o o X h f f f L X X % % % %.$.| | | | ..| #./ #.| | ` %.% % X X . . X X X X X . . . . . . . . . 8.9.u.i.r.;X;X;X;X>XmXmXmXmXVXt t 7 e l K.I.C.V.K.k e e e c -.-.-.-.p.3 e e b l #X#X#X#X#XN.Z.F.V.>.9 z e z z d.E.Y.U.Y.<X%X<X%X3X$X%X$X%X<XG.U.U.Y./.4X3X%X%X%X%X$X$X$X$X#X<X<X$X<Xp.>.:.>.p.2 r r e e &.V.F.:.p.2 t w r r r u r t F i.u.u.9.q.5 . . . o                                                                                                                                   ",
"                                                                                                                                                                o . X % * * O * X < 9.9.5.5.5.h.g.g.T.'.uXuXuXuXuXsXsXsXsXsXsXsXzXsXuX{.|.|.|.'.% * O O O X O X % , u.i.t.t.^ ^ Q Q Q W - X . . #           > o . . X : : : : : < 4 4 4 4 4 6 6 w 1 x z l l b b G K G G U E U U S U v U U v M U T U U A D K J L L a J L a < % X % % & % % & z I.I.U.U.~.G.U.U.U.E.:.&...| | | #.&.&.&.&.&.......} } @.$.=.%.%.t.%.e.& X . X . o . . X $ . X O O # h d d d f % % % & , @.$.$.| ......| =.=.$.#.$.@.@., = % X * * X % % X . . . + . . . . . . 8.9.u.y.r.>X>X;X>XuXmXmXmXmXMXD a r 7 2 K.K.C.V.K.k y e w S r.y.y.-.-.z 2 2 k l #X#X@X#X#XZ.M.Z.>.X.3 b l 2 z I.Q.Q.Q.Q.0X<X<X$X$X%X%X%X$X$XG.G.G.G.Y.<X0X0X<X<X0X<X<X<X<X1X1X1X<X<Xh.p.p.t.p.w u r w e -.:.F.K.p.2 t w u u r u r r F t.r.u.9.q.5 . . . o                                                                                                                                   ",
"                                                                                                                                                      : o . # . q.9.a.9.u.a.a.a.a.u.9.5.7.7.7.7.e.r.r.e.t.t.%.t.s.|.[.|.[.|.|.|.'.'.].iXpXiXpXpX[.;X}.}.;XT.'.T.z.'.X X . X X % % % X - . o . . .           > . . . . $ X $ X X < < 4 4 4 4 6 6 1 z s.d.K.p.&.k 1 1 1 e c G S U S U S U U ! U U G c t % X X X X X - % % & T.R.R.I.K.K.R.R.R.p.| / C / O.n l l l l o.....=.&.| | #.#.&.X.X.....O.N n n n v & % X * - 5 4 4 5 5 5 5 5 q 5 o X X o . > o . . * [ u.e.t.@.$. .|  ./ ........| M b b v U c F K J J K K K a r $ . . . . . . . . . 8.9.u.i.y.>X>X;X;X;X;X>X:X;XuXt t 6 7 2 K.K.C.V.K.k t A t w w < 9 9 3 p.t.p.K.:.#X#X&X$X#X).).#X#XQ.:.>.p.p.t.v 3 3 3 k I.U.Y.G.G.&X$X%X%X%X%X%X3X4X=Xb 8 3 l 2 3 2 2 2 1 < 3 < 3 3 2 2 1 1 e < u a w e -.:.F.p.d.2 t w u u r r w r F r.r.u.9.q.5 . o . o                                                                                                                                   ",
"                                                                                                                                                      : o o o # 8.8.5.u.5.u.u.7.7.u.u.7.7.7.] 7.] r.r.r.t.y.t.s.t.|.[.[.[.|.|.|.}.].].sXiXpXsXpX|.[.[.[.:Xh.R.h.h.z.X . . . X X X X . o . . . . .           : $ . o . o . . X X < < 4 4 4 4 6 6 1 z s.p.p.K.K.k 7 7 2 e S U S S S U v S U U E v G F y X . . o . O X % % , T.R.K.L.K.K.K.K.R.K./ ( / O...n l z x k M.*.&...( #.$.$.=.| ....o.o.o.N N n M U & % O O . 5 7 4 4 5 5 5 5 5 5 X X X o o . . X X X e.[ @.%.@.@. .|  .o.( ....( =.E m m n v S S D F F D y A y s X . + @ . . . . . . 8.9.u.i.y.;X;X;X;X;X>X;X:X;XuXt r r 7 2 K.K.C.V.K.k e t t w w 1 9 9 9 -.p.t.:.:.#X#X&X&X/.#X#X).).#X*.&.:.p.p.b 2 l l k Q.U.G.U.G.3X3X$X$X$X3X3X%X%X>X3 2 2 2 e w w 6 t 6 6 6 6 6 6 1 e 2 e 6 r s r w e -.V.F.K.d.9 t w u u r r w w F r.r.u.9.q.5 . o o o                                                                                                                                   ",
"                                                                                                                                                      : o . . # e.5.] ] ] %.r.r.r.r.r.r.r.e.u.e.8.0.9.r.r.y.i.s.s.[.[.].|.].|.|.|.|.|.pXpXiXpXpX[.].*X*X*Xj.g.j.h.z.X X X . o . . . X . O . . o .           : . o . . . . . o o 5 5 5 5 0 w w 2 2 3 I.:.K.K.V.k r r 7 6 K G v v v v v ! U U G ! S D t X . # . + + . X & , E.U.U.G.G.G.A.C.U.V. .| } } @.z z e c l ;...&.*...X.| &.| | #.&.=...=.U U G S L X X X X X 0 5 4 4 6 1 4 6 5 < X X . o . X . X X X 5.5...| | ..| ........( #.=.#.~ n n v v v v n n ! ! S S A s % $ o . . X . . . . u.u.i.t.r.;X>X;X:X;X:X:X:X:X>Xa s r w 1 K.I.V.V.K.k e w e w w 0 r 0 e %.,.+.+.+.#X#X_.).&X@X@X@X#XQ.&.=.:.-.>.x w w 9 9 W.!.!.!.H.#X%X%X3X3X3X%X%X%X1X9 3 7 7 t t t t 7 r r w r 0 s r 6 w w w w r t t 7 -.>.<.<.p.2 t w r r r r w r D t.r.u.9.q.5 X o . o                                                                                                                                   ",
"                                                                                                                                                      : o . . # e.5.] ] ] ] %.r.r.y.i.i.u.e.e.e.6.5.5.7.r.i.s.s.r.'.].'.].].|.|.].|.|.iXsXiXdXdX*X[.*X*X=Xj.h.d.g.h.X . X . $ . o . . . o . . . .           : # . o . . . # . . < 5 5 5 4 w 6 1 1 3 I.p.K.K.K.k u 7 7 t K T K S S S S G U K K K D F J X X . o o o O X & , E.U.U.U.A.G.U.L.U.V. .|  .} @.z z t c l ;.*.*.*...X.*.&.&.&.$.$.$.#.=.T v U K W X X X X X q 5 6 4 6 6 4 6 4 < X X . . . X X X X % [ 5.#.| #.#.| &.......#.#.=.#.Y n b v S v v v n S S S S A a % X . o . . . . . . 9.u.r.r.r.;X>X;X:X;X:X:X:X:X>Xa a r w 2 K.C.Z.V.V.3 e e 9 w 0 r r 7 1 -.+.+.+.+.#X#X$X).#X@X@X@X@XQ.&.=.:.>.>.c w w 9 1 !.W.I.!.Y.$X%X3X3X3X3X%X%X%X1X3 2 x e 7 c t t t r 4 1 < r 6 7 4 w w w w t t t e -.<.<.<.p.9 t w r u r r w r D r.r.u.9.q.5 . o . o                                                                                                                                   ",
"                                                                                                                                                      : o o . o r.5.] ] ] ] %.r.r.i.i.f.f.a.9.0.0.0.0.u.i.i.s.h.f.].}.}.[.}.[.[.}.}.}.iXaXaXaXsX*X{.=X{.=XR.R.h.g.i.= X X X - . X . X $ . . . . $             . # . @ . # . . # < 5 4 4 6 w w 2 2 2 p.R.K.K.:.l t 6 7 t J K K D D D J J L K K K L a u % X X % X % % % & 8 I.U.E.U.L.L.U.L.K.C.X.....| ^ l z 2 z l | &.*.*.B.&.*.| $.$.@.@.%.%.e.[ K P J d * % X % % 4 4 6 6 6 6 6 w 6 5 % % X X X % X X X = W 5.%.@.@.%.@.$.|  .| | #.$.@.Y ! S S S S S v v v v S S S a % X . . O . . . . . 9.u.r.r.r.;X>X;X:X;X;X;X:X:X>Xc y r w 9 K.C.C.C.V.l 3 2 2 e < w 0 w 2 >.,.2.2.O./.#X$X#X#X@X#X#X#X#X&.=.:.>.-.c w r e z R.W.!.!.Z.%X%X3X3X3X%X%X%X%X+Xl 3 2 2 b x c c w < 9 < < 9 1 6 4 w w w w y r 7 7 -.<.F.F.d.9 y w r u r u r r D r.r.u.9.q.5 . o . o                                                                                                                                   ",
"                                                                                                                                                      : o o o # r.5.] ] ] ] %.e.u.' < O X O O O . . . X X % * * X - * % * % % % % % X ; - - ; ; T.R.R.R.R.d.h.h.s.g.s.h.z.z.k.4.6.4.3.3.# $ + + o                     # . o # . < 4 4 7 6 6 6 6 2 < 2 3 k k l l a 7 t 6 = % X . X X X X X X % % X X , e.u.i.t.t.t.t.s.p.:.:.&./ *...o.o......./ / | | =.^ #.$.=.| ;.;.X.*.*.N n n b e & % % X X X % % ; - s d s s u K D D A D A t a a D t a s a r s a a s 0 = % X % = t b M v N n n n v v c c c S S S S S v v v c x c S r a a s 0 O . . $ . 0.r.r.r.r.;X>X;X:X;X:X;X:X:X>Xc y r w 9 K.K.C.Z.K.&.p.I.p.-.e r w t e Q.Q.#X#X/.#X)._.#X).+.O.X.X. .:.&.&.&.-.x 6 7 e 1 e 2 9 l l <X3X3X3X3X%X%X%X%X2X<X2XcX2X2X` z 2 e b 2X<X2X2X1X7 6 r r w r u r 7 7 -.>.F.F.d.2 y r u u r u r r F u.u.u.9.q.5 X o . o                                                                                                                                   ",
"                                                                                                                                                      : . o . o u.5.] ] ] ] ] 5.r.W * X O O . . . . . . . . . . . . . . . . . X X * o $ . . . % g.s.R.K.R.s.h.h.h.g.g.g.z.z.z.5.4.4.6.3.o . . + #                     . . . o . < 4 6 7 6 6 6 6 6 1 1 1 z 2 3 2 7 6 t 7 * X $ $ . . . . . . . X X X X i.t.p.-.p.:.:.:.:.:.| &.=.X...( ..( ....X.X.....=.| #.#.#.|  .X...*.B.n n v v w % X X X X . X X X X J K D D A D A A A A A G S D K t A t t D a t u u r X X X X % y c c z b b b b v v S S G S S S S S c c c S v c S y A A y d - . . . o 0.r.r.r.r.;X>X;X;X=X:X;X:X:X>Xy y r e 9 K.C.C.M.C.K.p.K.p.-.1 1 4 w 9 =X#X#X@X/.).).).$X#XO. .X.&.=.:.&.&.&.>.c 6 7 w e w 9 z 9 3 4X3X3X3X3X%X%X<X<X%X0X<X<X<X2X` m y e k <X<X4X<X<X6 6 w r w r u r t 7 -.>.<.F.K.k u r u u r u r r F u.u.u.u.q.5 . o . o                                                                                                                                   ",
"                                                                                                                                                      : . . . o u.9.5.5.5.5.5.5.5.' * X X o . . . . . . . . . . . . . . . . o X . X . . + . X * T.R.R.R.R.R.R.T.h.h.g.g.g.z.h.[ 5.4.4.6.o . + + .                     o o . . # 4 7 7 7 6 6 6 6 6 6 t t 6 w e 1 t 7 7 4 % X . . . . . . . . . . X X & s.t.p.:.:.B.B.;.B.:.&...&...............X...........=.....$.| $...=.:.M ! S A t X X . . . o . X . X D D x c c c c S c A S A x c S c S A S c c c y y a % % . . . a a c x v v v v v S S S A S S S S c c c c S v v v c c F F d * . . o X 9.u.r.e.r.;X>X;X;X[.:X;X:X;X>Xy y r e b K.V.Z.C.V.B.K.I.p.-.9 w 6 7 9 =X#X#X@X/.).).).#X#Xo.|  .| =.:.;.;.;.>.c w r e e y y 9 z l <X3X3X3X3X%X%X<X<X%X%X4X4X4X<X` 9 y e l <X3X%X3X%Xw 6 w r w u u r 7 7 $.>.<.<.p.k u r u u r u r r F r.r.u.9.9.5 . o . o                                                                                                                                   ",
"                                                                                                                                                      : . . . . 5.5.4.4.4.4.[ 4.[ W X X X X X O o o . . . . . . . . . . . . X X % X X . . . . % z.g.R.R.R.g.h.h.g.g.g.g.g.z.g.[ ] [ [ 4.O . + @ o                     O . o . o 4 7 r 7 4 4 4 0 4 7 s u r t a r r 7 7 r ; $ X o . . . . . . . X X % , s.-.:.;.*.*.*.*.:.*.&...........X.&.......| ..| | | |  .| %.` @.@.@.%.S S D a s X X . X . . . X X % D S S c v b b v x c S S S c S x x z z z e e t t t % % X X X s a D A D A S S S S S S A S S S S c F c c v v v v c c c S f X o o . X 9.u.r.e.r.}.;X[.;X[.;X;X=X=X>Xy y w e b K.C.Z.C.C.M.V.V.:.-.9 e w 2 l =X).@X/./.).).).#X#XX.&.$.#.=.:.;.>.+.>.c w s w w t t 7 9 l <X%X%X3X3X3X%X<X<X4X%X3X3X%X<X .y r t l <X$X$X%X%Xw 6 w r w r u u s t %.:.>.>.:.k u r u u r u r r F u.u.u.9.9.5 X o . o                                                                                                                                   ",
"                                                                                                                                                      : . . . . 3.3.' 3.' ' ' ' ' ' X X * * = ; = = % % % % X X X X X X % % = = = = & % * % % = h.h.h.h.f.h.a.f.f.f.h.g.h.h.f.[ [ [ 5.4.* . . # #                     o . o o O 5 5 4 5 5 5 5 5 5 p 5 5 s 0 5 0 4 0 r s ; * % = % % % X X X % % * % , p.=.:.*.*.*.X.;.&.*.| | ..........&.&.| | | &.$.| | } } } [ P K T Q Q s a d s p X X X * X X X X % % G v ! n n b b b z c c S S v S c v b b b z z e e t % % X % X s s d s s D D D A A S S S S S S c c F c S S S v v v v c c d X . . . o 9.u.r.e.r.[.;X[.=X[.;X[.=X[.:Xy y r e 2 K.U.Z.Z.Z.V.C.V.V.&.9 9 e 2 l #X).#X/./.).).#X#X#X| $.=.=.=.B.;.M.+.>.m w u w t w t c e l <X%X%X3X3X3X%X%X<X$X3X3X3X%X<XU t r t k 4X$X3X%X3Xe w r r w r r r t w %.:.>.>.:.k u r u u r u r u F u.r.u.u.q.5 X o . o                                                                                                                                   ",
"                                                                                                                                                      : . . . . . . . . . . . . . O d J K Q [ Q @.@.%.@.t.@.%.%.%.e.%.%.%.-.R.R.R.R.R.p.s.s.d.h.% % * O X X X O % % [ [ [ [ [ [ [ [ ] 5.= X X $ #                     O O . # o X X $ X X X . $ X X X o o o o o $ $ X % [ u.r.e.%.@.%.] ] e.K J L K G S v b b l l l l b b ....&.....X...........&.X.| &.b b b l a X X X % X X X * $ - W J J J J d d D D S p.=.:.*.;.&.*.=.$.%.c A x S U =.$.&.&.| #.#.@.@.%.y K J D J X . X X $ X - % & & x S S c S S c G c c c v v v v v S A A J X X . o X 9.u.%.r.r.[.;X;X;X=X=X[.=X[.:Xy u w w 2 K.C.Z.Z.Z.Z.Z.Z.V.&.z e e e l #X#X#X/./. .O.2.O.X. .| =.=.&.#X#X$X#X#XB e r u y t y t e l <X%X%X%X&X&X%X%X%X$X3X3X3X$X<Xm t s a k 0X%X3X4X3Xe w 6 y w u u r t 6 %.p.+.>.K.3 t r r a r a u r F u.u.u.u.q.5 X . . o                                                                                                                                   ",
"                                                                                                                                                      : . . . . . . . . . . . . . * f a K ! U %.| | / | &.&. .| #.$.#.#.X.X.U.U.I.I.I.B.K.K.p.s.% X o o o o . . X X 4.4.4.4.[ [ ] ] ] 7.; * X X o                     o . o # O o o . . X . . . . . . . . . . o . X X X ` %.%.$.=.| $.@.@.%.G G K K S S v v b b b z b b b ..| ..X.O.O.O.....X...&.| $.$.v b b b s X X . . . . o o X - d D A D D D D D S n p.=.*.*.*.o.X.&.$.%.b S x S ! =.&.&.&.....#.@.@.%.e S K D J X . X . + + X X % % t A v v v v x S c G S v v v S S S S A d X X . o . 9.u.r.r.r.[.;X[.[.[.*X[.=X[.:Xe u w w 9 K.C.N.Z.Z.Z.Z.Z.V.&.z e e z b #X).@X/./. . . . . .| &.$.$.*.$X#X&X#X#XB e t u u w t t e l <X<X%X&X%X&X%X%X%X3X&X3X$X$X#XB w s a l 0X3X3X0X4Xe e w r w w w r t 6 %.-.:.>.>.2 w w r t r r r r F r.r.u.9.9.5 X . . o                                                                                                                                   ",
"                                                                                                                                                      : o . . . . . . . . . . . . * a y G ! ! =./ | / ..................O.o.U.G.I.U.U.M.Z.V.:.p.% X o . . . . . X X 4.3.4.4.[ 4.5.] 5.u.= * X . o                     o o o o o o $ . . . . . . . . . . . . . . . X X % Q %.$.&.X...&...$.$.S S G G G S v v v c x x c c b #...| o.o...o.O.......#.#.$.$.m v c x h . X . . o . . o X % J D S S ! c v v c n =.*.*.o.o.o.X.&.$.%.b S x v n =.&.&.X.....X.$.#.%.z v F A K X X . . . + + o $ X u D S S S S c c A S A S S S S A A S D d X . . o . 9.u.r.r.r.[.;X[.[.[.*X[.[.[.:Xu u r w 2 I.C.C.N.C.C.N.Z.V.&.z e e z b 1X#X@X).). .}  . .|  .$. .X.*.#X@X&X#X#XB 9 6 w w t t e e 9 <X<X%X%X3X%X3X%X%X3X&X3X$X$X#XB w u y l <X3X3X4X4Xz e w r w w w e e e %.>.>.>.>.2 6 6 w t t w t y F r.r.u.u.q.5 . o o o                                                                                                                                   ",
"                                                                                                                                                      : o . . . . . . . . . . . X * J c v U Y ( ^ / | | *...o.....X...O.O.o.U.G.U.U.U.N.A.C.V.p.% X o . . . O X X $ 6.6.3.3.4.0.4.5.9.u.; X . . o                     o > o o . . $ . o . . . . . . . . . . . . o X X % Q $.#.X.......&...$.n v S S S S S v A A A A c x v $.&.&...&...&.=.=.&.$.#.#.%.%.G S c c d . . . . . . . . . % D S v v n c v b b n X.*.o.o.o.o.X.&.$.$.b A x v v $.&.&.&.....X.&.$.#.b v v c F X X . o o . . . X X 4 a a D A F D S S A A A S S S A S S S d X . . o . 9.r.r.r.r.,X;X;X*X[.*X[.*X[.:Xt u r w 2 K.C.N.Z.C.C.N.Z.V.&.z e e x b 1X$X#X#XQ.` } }  .$. . . .,.X.$X@X&X&X#XB 9 w w u y w w 9 9 1X<X<X%X3X3X3X%X3X&X%X$X#X#X1Xl 1 w w l <X4X4X3X4Xe 9 t t w e e e w 2 -.>.-.-.p.3 7 7 6 w t e t e I r.r.u.u.u.5 . o . o                                                                                                                                   ",
"                                                                                                                                                      : o o . . X X X X X X X X X & K G U ! b ^ [ R #.$.| ..X...........O.X.U.I.G.U.U.N.N.Z.B.:.& % X . X . X X . * W 6.6.6.6.6.9.9.9.8.: $ . . o                     # # o # o $ . . . . . . . . . . . . X X X X X % = T -.$.&.&.X.&.&.$.#.S S c v S S S S S S D D A c v @.#.#.$.t.@.$.%.$.%.%.%.%.] ] K D a a p X . X . . . X X % & S v v n n b b n b n ....O.X.o.X.X.*.&.$.b c x c v $.#.........X.X.| ^ v n G v S & % X X X X . X * * 0 f d a a f a a a y K D S S S S S c c d X X . . . 9.7.r.r.7.,X;X;X;X=X*X[.*X[.:Xr u r w 2 K.V.Z.Z.C.C.N.Z.V.&.z e t c b 1X#X#X#XQ.Y ` ` ` } -.,. .X. .%X&X@X&X@XV 3 1 w e w w w e z 1X<X<X<X%X4X3X$X$X<X$X1X1X1X=Xm w e e l <X4X3X4X4Xe e w 6 4 e 9 9 9 e %.>.%.-.%.1 3 3 1 e w w e y I t.r.u.u.u.5 . o o o                                                                                                                                   ",
"                                                                                                                                                      : o o o o 0 0 5 0 0 0 7 r a D K x S S U uXiXiXuXuX=.:.X.X...X.......X.I.I.G.G.G.S.S.o.X.&.E P P K W r u 0 s 5 ; - # > : : : : : 5 O o . . o                               h # . o . p 5 0 s r r r r u s s s u y w G U n M N U M M n U x x c c c v S v S A A D A A c U U v y c < < < < < < < , = ; * * * - < 0 0 4 5 r 0 r r r e %.@.#.#.| | | | | ..*.*.X.X.X.X.X.*.&.&.n c e c v $.#.....X.O.....| | ~ / ^ } $.U R T [ [ y t a s 5 5 - * - * - * * = = s D A D S c c c c d X o . o . 9.7.r.r.7.,X;X;X=X[.*X*X*X[.;Xr u r w 2 K.V.Z.Z.C.C.N.N.V.>.e y y c b I.I.F.F.p.9 e e 1 9 -.d.<.F.F.#X&X@X&X#X,.R [ [ [ e w w 9 3 d.:.>.M.F.%X3X3X3X#XV b b z x 1 < w 9 9 Q././././.e 9 w r c %.-.-.%.@.m 9 z e c Q @.@.@.[ e 6 w e I t.r.u.u.u.5 X o . o                                                                                                                                   ",
"                                                                                                                                                      : o o o O a a a a a A A D A K S S G c c sXsXzXzXzX#.&...*...o.....X.o.U.I.G.U.U.;.o.X.&.&.} @.@.[ [ t t 6 r 0 . X . o o . O X O o # . . . o                               g . . . . d a d a s t t t t a a D A K S S S S S v S v S v G c G c c c v v v v S S A A A c c c e s s X X X X X X X . . o o o O # X a a D D D D a A c c %.$.$.&.*.&.&.&.&.&.&.X. ...X.X.X.&.=.=.n c z c v $.$.&...X.............&.$.&.&.#.$.#.@.$.v c S K a < X . . . . . . . X a D S S c c c c y d X . . . . 9.u.7.r.7.,X;X*X*X{.*X*X*X[.;Xr r 0 w 2 K.V.C.Z.C.C.A.C.F.>.x y t t b V.Z.M.V.>.9 2 t 6 2 d.d.F.F.F.$X$X&X&X#X,.Y [ [ [ 1 w w e 9 >.&.*.X.o.<X%X%X%X1X3 2 6 6 4 w w u z l Q.Y.Y././.y e w r e t.-.-.p.p.v 2 9 < < [ @.@.%.%.7 2 e c F t.r.u.u.9.5 X o . o                                                                                                                                   ",
"                                                                                                                                                      : o o o # a a a a a A A S S S S K c F F iXsXpXsXzX#.&.*...O.o.....X.o.U.I.G.U.U.o...X.&.=. .} } @.@.e c t r s X X . . o # O O # . # . . + o                               g . X X . d s a A a c c c A S S A x K S S S S S A S S S c S t c A S c c c v v S S A A D S c v c p p . . . o o O O o . . . . . . % J a D D a A D x x x %.$.$.&.&.*.X...&.&.X.*.X.....X.X.*.=.=.n m c x v $.$.&...X...........| ..#...| ..X.X...=.M n v A s ; X X . o . . . . X J D S S c c c y y a X . . . . 9.7.7.r.7.,X;X;X*X=X*X[.[.[.;Xr r 0 6 2 p.V.Z.Z.C.C.A.C.I.>.x y t t b :.Z.Z.F.>.e w 7 t e d.>.I.F.F.#X&X&X#X#XX.Y Q [ [ w e w 9 9 -.&.:.;.o.4X%X%X3X1X9 1 r 7 7 4 w w x l Q.Y./././.u e w r e p.y.p.p.p.v z 2 9 4 ] #.@.%.%.1 7 e e F t.r.u.u.9.5 X o . o                                                                                                                                   ",
"                                                                                                                                                      : # o o # F y c x c x x x c K D S G c v sXsXsXsXzX..X.*.o.X.X...X.X.o.U.U.U.U.U.X.....X.X... .C  .} e t r r a X X X . O o o @ @ . > o . . O                               g O . . . d s D a D a D A c c c S S S S S G G G v S S S S S v S f f y c c c c c A s d a a D A A s s . o . . o o X X . X o o . o % K G A c c c c v l b $.=.=.=.=.&.&.&.&.X.X.X.X.*.X.*.&.$.$.:.n m x z b $.$.$.&.&.&.X.| | | | | O.O.o.X...=.| =.M v v c y , X X X . O . . X . g d d s a s a a a d . . . . . q.q.9.9.u.;X:X[.{.[.*X{.[.*X;Xu w w 1 9 p.K.B.Z.Z.Z.A.A.F.:.x t r t e p.p.I.p.d.3 x t e 9 d.>.F.F.F.#X&X&X&X#X .} } ` %.2 < x e 9 -.-.>.:.&.0X<X<X%X1X9 3 9 2 1 1 7 1 S b {. XQ.Y.Y.c e r r c p.:.>.>.:.I u r w 2 `  .| $.%.1 w r t F u.u.7.u.9.5 . o . o                                                                                                                                   ",
"                                                                                                                                                      p . o # O A A c c z z c S S S D S c x R iXsXiXsXcX&.&.*.O.X.X.X.X.X.o.U.U.G.U.U.O.X...X.X./ / ..} @.z y w r r X X X X - O # @ @ @ . # - O                                 h . . X $ d s D a a D D S c c e c c S S S c v v S S S S S S S S F F c c c c c c D u s s s s t t s p X X . . . X X X X X X X O O & S c c v c b b v b n  .| X.X.=.*.*.*.X.X.X.X.X.X.O...&.&.&.=.b c x b v =.&.=.&...X.| | | | | | ..O.*.....*.&...n v v c y , X X X X X X . X X p s s s s s s s s p O . . . . q.9.9.u.u.[.*X*X*X=X{.{.].[.;Xw w w w e p.:.;.Z.Z.N.N.N.C.:.v c t t c p.p.p.p.p.e e t e 9 I.<.Z.Z.M./.@X@X&X@X .~ ^ R ` x y e e z -.$.&.=.;.<X<X<X<X1X3 9 9 9 3 3 3 2 l b Q.Q.).!.#Xc e r t y p.:.>.>.:.I u r r 2 `  .| $.%.1 w r t F u.u.7.u.u.5 o o . o                                                                                                                                   ",
"                                                                                                                                                      : . O O > g.h.h.s.s.c c S G x c S K S 7 < < 1 3 2 =.:.....X.X.X.X.o.o.U.U.G.U.U.O.X...&.X... .| / R e e y a a a a d s p O O # . +                                         g o o . . * X X X % a A c x c c c c S S S S S S S S S S S v S S S S c v v c x y % X X . X . X X X X . . . X ; s a a a D a a a f b %.$.$.$.$.| &.| | ..X...*.o...o.o.O.o.O.O.O.o.o.O.O.o.*.&.*.b c c b b &.....X.*.*.X.........X.O.O.o...*.*.*.=.#.@.@.@.] F a a a a r s d s p % X X X . . . . . O . . . . . 8.0.9.i.y.;X*X;X[.*X[.*X].[.;Xr w 6 1 9 p.:.B.Z.Z.N.A.A.I.:.b e 6 6 < e z e e c e e c c b Q.Q.Y.Y.Y.Y./.G.Y.Y.Z.B.I.R.p.9 e z c z >.&.| &.&.3 3 l 9 V cXcX1X<X<X#X<X<X<X2Xl l b b 3 e e w y e t.;.>.>.>.G t r r 9 @. .| $.%.2 w r t K u.u.u.u.9.q o o o o                                                                                                                                   ",
"                                                                                                                                                      : . o . O j.y.y.s.R.c x x A A K A e x A < < 1 e 2 =...X.*.X.X.X.X.o.o.U.U.U.U.U.O.X...&.../ / / #.} c e t t r y t a a s O o . # .                                         g . o . . $ X X X % K F S c c c c c c c c S S S G G S S S S S S S S v v v c c a * X X . . . o . . X X O . . X s y a A A c c c c b $.$.$.$.#...*...X...O.........o.o.o.o.o.o.o.o.O.O.O.O.X...X.b c z v n :.*.*.*.X.X.........X.X.*.X.*.X.*.....&.&.#.#.@.[ G c F D D a t r r s . . . . . . . . . . . . . . X 8.9.7.u.r.;X*X:X[.;X*X*X*X*X;Xu w w 2 9 p.K.V.C.Z.N.Z.C.I.:.b z w t w 6 6 w 2 4 e w y c b #X).Y.Y.Y.Y.Y.Y.!.U.F.V.K.d.d.9 z c c 2 >.$.&. .$.2 9 9 z l 0X<X0X#X&X%X#X$X#X2Xl l 9 e e w w 4 y e p.:.Z.>.>.G t t t e @.| | #.%.1 w r t F u.u.7.u.9.q o o o o                                                                                                                                   ",
"                                                                                                                                                      : . . o # j.j.y.s.d.G G U G A D D A t t < 4 w < 9 $.*...X.X.X...X.X.o.U.U.G.G.U.O.X...&.../ ..( @.@.z c e c t S a y a s . o o . $                                         g . . . . . . . X X a y A F S c c c A A S A S A S S S S S S S S S S S S v c c a X . . . . . . . . . . . . X * a u a A A c c c v b $.$.$.#.&.=.&...&.&.X.&.X.&.&.X.X.O.X.o.o.X.O.O.o.*.X.*.&.*.b c c v n =.=.=.X.&.X.&.......=.=.X.&.*.*.*.o.o.X...| #.#.@.G c F c y A A t u s . . . . . . . . . . . o . X . 6.9.i.i.r.;X;X;X*X:X*X*X*X*X;Xt w w 1 9 >.:.B.C.N.A.G.C.C.&.l z 6 6 w 4 5 r u r y y c m b #X#X/.Y.Y.Y.!.Y.Y.Y.F.F.F.<.I.z z 7 x v -.$.$.>.@.2 < 9 w V 0X4X%X%X%X&X&X&X%X<X9 3 u 4 4 1 w w r w p.>.+.;.:.G x t e e %.| | #.$.1 w r t F r.u.u.u.9.5 o o . o                                                                                                                                   ",
"                                                                                                                                                      : o . . O j.i.h.h.R.c v G S A D A D t t 7 w 1 1 b / =.*...X.X...X.X.o.U.U.G.G.U.O.X...=.$.#./ @.#.%.7 c c x x t t t u s X O . # .                                         g . . . o # O O X X J J a a t y a A a A D D D D A A D K K K K K S S S S D D a d - . . . . . . . . . . . . . * a a A c c c v c c b #.$.=.&.=.*.&.&.&.*.&.&.#.| &.=.=.=.&.&.:.:.&.&.:.:.$.:.-.$.l A c S G t.t.=.=.$.$.$.$.$.=.=.=.:.p.=.&...X.O./  . ...| #.U v v G y e t w s s X . . . . . . . . . . . . . . 4.5.7.7.y.;X>X;X;X;X*X;X[.*X;Xt w 1 1 2 p.K.C.C.A.A.C.C.I.;.l 2 2 w 4 r r 0 5 r r w w x l #X/./.Y.Y.Y.I.!.Y.Y.+.Z.F.F.I.l z v z z -.$.-.%.%.e e w u V 0X0X%X4X3X&X%X&X#X<X9 u 4 0 p 1 w 4 w 9 -.:.;.;.:.U x t z z %.| ..#.#.1 w w t F r.u.7.u.9.5 . . . .                                                                                                                                   ",
"                                                                                                                                                        . . o o z.i.g.h.T.U U U A S D A A x 7 6 1 e 3 3 =...| &.X.X.X.X.X.o.U.G.G.G.G.O.X...&.#.@.^ @.@.@.v 7 e 7 c 1 t a a r . . . @ $                                         g + . . . . . . . # s d a a a J a a a a s s s s d d d J J L L K J J L L J d d d - . . . . . . . . . . . . . = a y x x x c c b b N | | &.....X...=.*.*...=.$.$.$.%.%.%.%.e.t.t.t.t.i.t.t.t.r.e.K f d L J u.t.t.t.%.%.r.r.r.t.t.y.t.p.$.p.&.*...O.O.....| | N n v z x e F u r 0 X . . . o o o . . . . . . . . 6.0.7.i.h.*X>X;X>X>X;X*X*X*X;Xt w 6 e z p.K.C.C.A.A.C.C.C.*.k 3 3 1 6 < r r 0 r r r y m l #X/././.U.!.I.Y.Y.!.F.F.F.H.F.l l x 7 z t.-.$.-.-.3 3 3 3 V 0X0X0X4X3X3X3X%X<X1X9 4 5 5 p < < < w e $.&.+.;.:.m z e x z %.| ..$.$.1 w w t F r.u.u.u.9.q . o . o                                                                                                                                   ",
"                                                                                                                                                                X * X = & G S G S A A A x e c Q T ` R ^ #.&.X.X.X.X.X.X.o.o.U.U.G.G.U.O.&.#.$.@.8 3 3 < 7 R.s.h.s.s.c e w r 0 X X . o $                                         h . . @ . . o o O o O X . X . X X X X X X X X X X X X X X X X X X X X X X X X X . o . . X s s s h s s s s s D Q Q R R ^ #.&.=.=. .&.| *.&...*.o...&...N Y N n b % % X X X X % % X % % % X X * X o X X . * X X X X X X X X X % % & & , R }  .C  .O. .....;.*.=.=.$.@.z c y y r . . . . . . . . + . . $ . . . 6.4.7.u.r.y.r.r.i.i.:X;X;X;X;Xy w w e 2 =.|  .O.S.S.C.V.C.U.;.I.I.p.s.r 0 0 r r r r w m l #X/././.U.N } ` ) 2.Y././././.*.=.%.e.[ 9 2 2 1 3 W.W.Q.Q./.U./.Y././.G.G.G.F.Q.3 w 0 5 q ] [ ] %.` >.&.,.>.>.m z e x z %.X.&.&.$.1 w w t F u.u.u.u.9.q o o o o                                                                                                                                   ",
"                                                                                                                                                                X X % % = G G S A S c S x x c T T R Y ~ | ..X.X.X.X.X.X.X.X.U.G.G.G.U.O.X.#.#.@., , 1 3 1 h.s.s.s.s.t t w u q . . . . .                                         g o . . . . o . o o o o o . . . . . . . . . . . . . . X . . X X . O O o o . o o o . . X % s s s s s a A c c G E R ^ ~ / ..&.&.*.X.X.O.O.o.O.o.o.o.*...~ N N N n - . . X . . . . . . . . . . . . . . . . . . . X . . O o . X X X % X & [ R } ~ ~ | ....X.&.*.*.&.=.@.b x x t s . . . . . . . . @ + . o o . . 4.0.7.7.r.r.r.i.r.a.;X;X;X].>Xt t w e z #.&.X.o.o.N.C.C.C.Z.Z.B.B.:.p.6 4 7 6 t t w y y l @X/./.Y.U.} Y ` } 2.Y././././.O.X.%.@.@.1 2 2 1 3 =X).#X#X).U.Y.Y././.G.Y.U.I.R.3 w 4 5 5 [ ] %.@.$.$.$.>.>.-.v e c e x -.X.&.=.$.2 6 w t D r.7.u.u.u.5 o o o o                                                                                                                                   ",
"                                                                                                                                                                o X X % & K K S c c c v c c b T R R Y ~  .| ....X.X.X.o.o.o.U.G.G.G.U.O.X.#.@.@.< , < 1 3 h.s.h.h.h.e t w r 0 . . . . .                                         g . . . . . . . o o o o . . . . . . . . . . . . . . . . . . X X X O o o o . . @ o X X X X d s a x x x x x x v Y ^ ^ ~ ~ ..&.X.X.X...X.O.O.o.o.o.*.*.../ Y Y E M # . . . . . o . . . . . . . . . . . . . . . . . o . . o o O O X X X % P [ T ` Y | | X.&.&.&.&.X.=.%.v c x r s X . . . . . . . . . . . o . . 8.4.7.u.i.u.u.r.u.i.:X*X*X].;Xt t t e z -.=.&.*.S.C.C.C.Z.Z.Z.Z.B.:.-.e 2 6 y t w e u y l Q.Y.Y.Y.U.Y Y }  . .Y././././.+.X.@.@.%.9 w 2 2 3 =X).@X@X).Y.Y.Y.U.Y.U.U.Y.U.Q.9 e w 5 5 ` @.%.@.$.=.$.$.>.%.v z 7 e b %.&.&.&.=.2 6 w t D r.7.u.u.u.5 o o o o                                                                                                                                   ",
"                                                                                                                                                                $ X $ % % D G S S c c v b z z Y Y Y N ~  .X.X.X.&.&.X.o.o.o.U.U.U.U.U.O.| | #.@., < < 6 1 g.h.s.s.h.e y t w u . . . . .                                         g . . o . O O O X X X X X o o o o o . . . . . . . . . . . . X X X * O # # @ . . . o X X X s s s t t t t t c G T R E Y ^ #.$.$.$.$.$.#.#.$.&.&.&.$.&.$.^ Y T U G > . . X o . . . X X . . o o o o . . . . . X . . . O O > # O O O . O X W W [ [ ` %.%.$.$.$.$.$.#.@.Q z t a s s X . . . . O O O O o O . . . . 9.8.9.9.u.7.u.r.i.i.[.[.[.[.;Xy t e e z p.=.&.*.*.V.Z.Z.Z.Z.Z.Z.B.:.:.3 l z x t c e r y l Q.Y.Y.U.I.} }  .}  .Y.#X)././.+.,.,.-.%.9 9 2 7 3  X).#X/.Q.I.U.Y.Y.Y.U.U.U.U.Q.l e w w 4 @.%.$.@.$.$.-.-.%.-.c 2 e e 9 -.&.&.=.=.w 6 w t S r.7.u.u.u.5 o o . o                                                                                                                                   ",
"                                                                                                                                                                + + X X % D K S c c c v c b z @./ / /  ./ | ..........X.o.o.U.U.U.U.U...O.| #.@.< 6 < < 6 s.h.h.T.h.c t w w u X . . . .                                         g . . . . - * * * * - - - - - - * * * % X X X X . X X X X X % % = < < X O @ + @ . . X X * s s s s s r s s a D K Q T K T [ %.[ [ [ [ [ [ [ [ @.@.[ @.[ Q T P P J ; X X O . - * * * * * O X X X X o X X X X X X X $ - - - - : O ; $ X * L W L J [ ] %.%.%.@.@.[ [ [ Q t u s s q . X . . X - ; * * - O o o o # 3.8.8.4.' u.u.r.u.i.=X[.*X[.*XF y t t G %.-.:.:.X.K.Z.Z.Z.Z.Z.Z.B.M.B.l l b z v z e r e 9 !.!.Y.Y.E.^ } @. .,.Q.#X#X)./.;.X.$.] ` 9 2 2 7 8 1X#X#X#X).Q.!.U.H.G.G.Y.U.U.Q.l z e w w } $.$.$.=.$.-.-.%.t.G 1 2 l z -.*.*.=.=.e r r t D r.7.7.9.u.5 o . . o                                                                                                                                   ",
"                                                                                                                                                                + + . X % D D A c c v v v v M p.K.K.K.V.X.o.X.X.......o.o.o.U.U.U.U.U.......| #.v A K K F G c x t A w t t a q . o . . .                                         h . o X - d J L J K L K K P L P W L L J J d d a s W W Q [ [ ] ] %.e.[ = - . $ . @ o o o . X . . X . . . . . X X X % X X % X X X X X X X X X X X X % * X X X X X ] u.7.9.7.iXsXiXsXsXaXsXsXaXaXaXiXiXiXiXiXiXiXaXaXaXgXgXgXaXf.a.a.a.9.. . X * X * * = * % % % % . X . . . o O . . . X - s D K K d * X . . . > # O O * ] 7.u.r.i.[.[.*X[.>Xi.h.h.h.h.c z l l l :.Z.Z.Z.Z.B.B.B.B.M.V.V.I.R.R.e e t t 3 -. . .|  .} @.#.| | ;.*.*.o.;.| $.%.%.-.` @.%.%.t.8 2 3 3 V I.!.U.U.Y.G.G.H.U.Q.l z e e e $.$.$.| ^ 2 3 1 w 1 T @.@.} $.$.&.&.=.t.e t t t F u.7.7.5.u.5 o o o o                                                                                                                                   ",
"                                                                                                                                                                + . . X X a D A c c v v v v n R.K.K.K.K.O.....O.....o.o.o.o.U.U.U.U.U.O.O.....$.U S K D S e x x S c c t t a 0 X . o . .                                         g o o . X d a D S S S G G G G G K K G F D D a t t T Q R R R @.@.$.-.%.% % . # . . . o # o o . . . . . . . . . . . X . . . . . . . . . . . . . o . o X X o O O o ' i.{ 7.] sXsXsXsXsXsXsXsXsXaXsXaXiXiXiXiXiXiXaXsXiXaXiXaXsXu.u.u.9.a.. . . . X X X X X X X X X . . o . . . . . o . X * a D A A d X X . o # o o o o . 9.9.r.5.u.*X=X*X[.;Xh.h.f.g.T.e x z b k p.Z.Z.B.B.B.B.B.B.Z.C.C.C.I.R.2 e r t 1 @. .|  .$.} @.#.&.*.*.&.*.*.X.$.>.%.` @.@.@.$.%.%.e e 9 9 V Y.E.I.I.U.F.I.I.I.!.9 z y y y $. .$.&.} 3 1 w w < [ @.#.| &.| ..X.=.=.e t t t K u.r.u.5.u.5 o o o o                                                                                                                                   ",
"                                                                                                                                                                . . . . X a D A S c v v v v v R.K.K.V.K.O.X...X.........O.O.U.U.U.I.U.O.O.O.&.=.v G K S S x x z e x A A A D s X X o o o                                         g . . . % D D S c v v v v M v v v v v v c c x e e R R R ^ / / / } #.@.% % . o . . . o O o . . . . . . . . . . . . . . . . . . . . . . . . . . o . o o O o o o o [ r.] u.] sXsXsXdXsXsXsXsXiXiXiXsXsXiXiXiXiXiXiXiXsXsXsXaXsXr.r.5.u.u.X . O . # o @ @ . . . . . . . . . . @ . . . . . % a D c c a X X . . . . o o o . 7.7.5.r.i.{.*X*X;X;Xh.h.a.g.g.w e e z 2 p.Z.Z.B.B.B.B.B.B.Z.Z.C.C.B.I.e w s t 2 @.,.@.$.$.$.=.$.&.*.X.&.&.;.$.%.%.%.%. . . .|  .-.e t r r V I.I.E.U.I.V.I.I.I.W.9 c y y a >.$.X.&.} 2 w r 0 r Q ^ $.| / | ......=.e t t t K i.9.9.5.9.5 o o o o                                                                                                                                   ",
"                                                                                                                                                                . . . . X a A c S x v S ! ! n E.U.L.K.L.O.X.O.........O...O.K.F.U.L.U.O.o.o.*.=.n G A K S x z x e c t S D D s X . o o o                                         g . . X * D a A v v n n n n n b n v v v v v x z z R ^ ^ | / / / | #.` & % X . . . . o o o + @ + o o . . . . . . . . . . . . . . . . . . . . . . . o O O O O O O ] i.u.r.] sXsXdXsXsXsXsXiXiXiXuXdXiXiXiXiXiXiXsXsXsXuXsXsXsXr.r.e.u.u.. X o O @ @ @ @ . + + . . . . $ . + + . @ . . o % a y t c s % X . X o o . . . . 4.7.[ r.r.=X[.*X;X;Xh.h.f.h.g.y e 2 e 2 p.Z.Z.B.:.p.p.B.B.C.N.A.Z.K.K.2 e 7 t 1 ] %.-.$.>.#.=.&.&.*.*.&.$. .$.%.%.@.@. . . . .$.y.r s s p V Y.!.E.I.I.I.K.I.d.T.e c c y a -.>.&.&.$.2 w 0 r w Q %.( ../ /  .| ..=.e t t t K i.u.u.5.9.5 . o o o                                                                                                                                   ",
"                                                                                                                                                                . . o . X a a c c v v S S G T R.R.R.R.K.=.#.$.$.$.$.@.@.^ @.p.K.K.K.R.$.=.=.p.=.! S S S A t t s r a s d g d h o . o o                                           g o . X % a S A v v U U S G v S S S S S S c x x c U T R R R ^ ^ ] ] T , & & , % % & % % & % & % & , & % % % % % % % % % & % % X % % % & % & % & % % * X # o @ > ] a.{ r.] sXsXsXsXsXsXsXgXiXiXiXsXiXiXiXsXsXsXsXsXaXsXsXsXsXr.r.r.7.f.. # o @ - * % % % % % X X % % % % % % X X X X % % u t A x s X . . . . . . o . . 4.7.5.r.u.[.[.:X[.:Xs.d.s.h.g.4 r w t 1 t.B.V.B.B.B.Z.M.N.N.N.N.C.I.p.e 6 s r 6 @.$.$.&.:.$.$.-.%.>.:.&.X.$.} $. .~  .} | @.%.%.%.x z 9 9 m R.{.T.h.g.h.h.h.g.T.z b l n l o.o.:.$.%.w 6 w r w [ @.} } } } [ %.%.] t r t c T t.s.r.r.a.: X . . .                                                                                                                                   ",
"                                                                                                                                                                . . . . X d a D x x z x x x e T M M M n b b v v z b z z 2 7 c v z v U v n v v c z e w t t r r r t 7 = ; * > :                                                   g o . X % a y x x c v c c v S G S S S S S S c x x S G S S v v n v S T p.p.p.%.t.e.t.t.y.s.p.s.p.p.p.p.y.t.t.y.s.t.t.y.t.y.t.t.t.t.t.t.t.t.t.Q R [ [ W - O o @ @ tXdXsXdX>Xg.g.g.g.'.K Q D a K [ T T T Q Q Q Q [ [ [ [ ` [ P iXiXiXsXaX* o # > $ 4.[ [ Q T T P W T T c y t u s s s a a r a t t e s X . . . . . . . . . 4.5.5.r.r.;X;X[.[.:X'.[.;X[.[.4 6 6 w 1 s.;.B.B.B.V.V.Z.A.A.A.N.Z.K.p.2 6 4 r 6 @.$.| &.$.v M v c M $.*.*.$. .I.I.I.F.B. .@.%.%.-.` ` ` } T M b v c e w t t t e T %.$. .$.+.;.;.-.%.e w r w 6 [ @.@.@.~ l e e w y [ 5.%.%.%.t.t.r.u.4.h . o . o                                                                                                                                   ",
"                                                                                                                                                                $ . . . . s r a S A 1 1 e z e e e 2 7 7 1 2 7 6 7 7 w 6 1 < < < 3 3 7 1 e e e e 6 6 6 4 4 4 4 4 r 4 X X o O #                                                   g . . . X a D G c S S S G c c c S S S S S S S S x A x z x c b n b b b I.B.K.K.K.K.K.K.K.I.K.U.K.U.U.U.U.I.I.K.K.K.I.K.K.K.K.K.K.K.K.I.I.I.I.#.#.} %.[ X X O # # uXmXmXsXsXi.i.h.s.s.< 4 4 4 < r e z x c A A A D A a J f y w mXhXzXmXmX* X O * * e.%.$.#.#.@.@.@.%.%.S G F F K J D D J A t t t t s X X . . . . . . . . 4.7.5.r.r.[.;X;X:X>X:X:X>X>X;X4 6 6 w 1 p.B.V.V.V.V.V.Z.N.N.N.N.C.I.R.2 e s 4 < $.=...;.p.z c e e z @.&.O. . .E.Y.Y.Y.Q.X.$.$.%.%.%.%.%.%.@.2 9 e 1 1 w < 1 6 < %.%.>.&.&.o.;.&.>.-.e 6 6 w 6 [ @.%.$.#.3 6 1 1 < u.u.i.i.t.h.s.i.u.f.: o . o .                                                                                                                                   ",
"                                                                                                                                                                . o . . . d s D r A e e e e e e e w w w 6 6 6 4 6 4 4 5 4 4 5 4 w 6 6 6 e w 6 w r r r 4 4 0 0 5 5 5 X . . o :                                                   g . o . X d a t c c c c G c v c c v S S S S S S S x c x c x b b l l n K.K.K.K.B.K.V.K.C.U.A.G.G.G.A.U.U.C.L.U.U.K.A.A.A.U.U.L.K.K.V.C.K.K.I.X...$.$.%.% % . o # uXMXmXxXsXf.h.s.a.h.6 < 6 6 < A z z z c x x x c A A F F y K sXsXxXxXmX= * X X & %.$.$...| #.$.$.%.t.v G K G K D D A A S w t t e d X X . . . . . . . . 4.7.5.r.r.;X;X[.;X*X;X;X;X;X[.5 6 6 7 3 t.*.M.B.B.V.Z.Z.N.A.A.Z.M.B.K.3 2 5 r 1 #.| *.:.$.x c y a y %.&.| }  .Q.Y.Y.U.Q. .|  .@.@.%.%.%.$.` 2 x e 9 e y 6 < 7 1 @.@.$.>.&.>.:.&.>.-.e 6 e w 7 @.@.} } @.3 6 6 6 < r.e.u.i.i.r.] i.a.a.5 o o . O                                                                                                                                   ",
"                                                                                                                                                                . o . . . s s s D s 6 1 w 6 e e 6 4 6 6 4 4 4 5 4 5 < < < < = < < < 6 w r t 6 w 4 4 4 5 5 4 5 5 5 0 X X . . j                                                   g . . . X d d D K K S c S c S v S S S S S S S c A 7 c x v v v v v b M K.K.:.I.K.K.K.I.C.U.G.G.G.J.G.~.G.U.U.C.C.C.C.C.C.C.C.U.C.A.A.A.A.A.C.O...&.$.@.% % . . # >XmXmXmXsXf.h.f.s.T., 1 < 3 < 2 z z z z x x x x e S F y F w sXsXzXxXmX% % * % & @.$.&.....&.&.=.t.p.n ! v v S S K S A S w c t e s X . . . . . . . . . 4.7.5.r.r.;X;X:X:X:X:X:X:X;X[.< 4 1 6 1 p.B.V.V.V.V.C.C.C.Z.Z.N.C.K.K.3 3 r 6 3 $.$.:.:.p.c y t t w [ @.^ ` ` R.Y.Q.).). .X.X.$. .$.@.@.$.%.9 e e e e 6 w e 1 1 @.%.$.$.&.-.&.-.>.y.2 1 2 2 2 @.$.$.@.$.l 6 6 < < 5.u.i.r.r.i.a.a.a.a.p . o O .                                                                                                                                   ",
"                                                                                                                                                                . . . o O s d d J u r w t w 9 9 6 6 6 6 4 4 4 < = < = = = = = < , < 4 < 4 6 1 < 6 6 4 4 5 5 5 5 < 5 . . . . :                                                   h $ . . O d d J J y K S S c v c S S A S S S S c c S S e x G v ! x x U R.K.p.K.p.K.K.K.V.C.U.U.~.~.G.U.U.U.U.B.I.V.V.K.I.M.V.K.K.A.A.A.A.A.C...| $.$.] & X . . . uXsXmXmXsXf.h.h.h.i.6 3 3 3 3 z l k k l l z z z x e c F F y sXsXsXsXsX* X X X % ] @.#.......&.=.#.=.! U ! ! ! ! c S c S e t e c s X . . . . . . . . . 4.7.5.5.r.>X>X>X>X;X:X[.[.;X;X< 6 1 1 3 t.B.Z.Z.C.C.C.C.C.Z.Z.C.Z.B.;.k 3 3 3 e $.-.p.%.p.z e t y y [ %.@.[ ` Q.Q.Y.Y.U.O.2.2. .$. . .@.-.` x z e c x e c e 2 9 ` @.-.$.:.>.-.>.-.%.x 2 2 l 2 Y } @.} %.2 w 6 4 6 ] u.u.e.r.u.a.a.f.a.q . . .                                                                                                                                     ",
"                                                                                                                                                                o . . . . X X X X < 5.u.u.t.s.W.'.'.'.'.T.T.g.g.g.tXtXuXuXuXsXsXsXzXzXuXuX>XuX>Xh.h.h.h.s.i.r.u.9.0.X . . @ :                                 . o o o # # # $ o o . . o . - $ X = % D A A A v c A S S S S S S c G |.:X>X1X[.U v a a t t 6 e e e 2 2 k l n ..O.o.o.o.*.X.../ :.1X2X1X1X1X$.| | / O.O.O.O...| n b b S a X . . + . h.[.;X[.].< < % = < ] [ %.@.^ =.=.=.:.:.:.:.:.p.-.c t e < t [.[.;X,X-XX . . . X y x z b b b v v n ! b n n n ! S S U S S c x w c s X . . . . . . . . . 4.7.5.5.r.7.r.%.%.r.].:X:X[.;X< 6 6 6 3 @.O.O.O.o.Z.C.C.C.C.Z.Z.M.B.K.:.B.p.K.p.2 2 c c e c e e e 6 6 5 5 < 3 %.>.*.M.Z.F.U.U.I.I.$.}  .@.-.-.-.-.-.t.-.y.-.t.%.-.@.-.$.$.e 9 9 e e R @.$.$.} $.$.$.$.%.2 6 6 6 6 5.r.u.u.' % X X - O                                                                                                                                             ",
"                                                                                                                                                                . . . o o . . X X < 9.r.r.i.y.'.'.W.W.'.T.T.T.g.h.uXiXuXuXiXzXsXzXmXmXuX>X>XuX>Xh.h.h.h.s.t.r.r.0.8.. o . . p                               # o o o o o o o o . . . o # . # O - % X J D t A c v S A S S S S S A c >X;X[.:X1Xv U d a a t t t w 7 e z e z b &.X.*.*...&.*.*.| :.uXuXuXuXuX^ } / | X.......| | n c S F a * o . + . h.[.[.;X;X= < < = , Q %.@.#.| &.=.=.*.:.:.*.=.=.$.v x e t y ].;X,X-X-XO . . . . s y c v v v S S v v v n ! ! U ! S ! S c c c e x s X . . . . . . . . . 4.5.5.5.r.r.i.r.r.] ;X;X;X;X:X< 6 6 7 1 %.O.O.X.S.C.C.C.Z.Z.Z.C.Z.M.M.M.B.B.:.I.2 c t t c z e z e w 6 5 p 1 1 %.-.&.>.o.U.G.F.F.I.|  .} $.$.-.$.>.-.-.-.-.$.>.$.$.$.$.$.=.e e e e 2 -.$.| | | | | } %.@.2 6 r 6 < r.u.7.5.W X * X # o                                                                                                                                             ",
"                                                                                                                                                                . @ . o # o . X X ; 4.5.r.r.i.T.T.'.'.T.g.g.g.h.h.uXiXuXiXiXsXmXmXmXmX>X>XuX>X>Xj.j.h.h.h.i.r.r.q.q.. o . . j                               . . X X O . . o . . . . # . o # O X X X s a A x c x S S S S S S S S G :X:X:X:X:Xc S A A x t x x x x x x c v b &.X.&...X.*.....&.=.pXiXiXuXuX#.}  . .| #.| #.#.#.v c D D d $ o . . + h.[.[.[.[.< % < < = [ [ @.| / =.=.=.:.*.:.*.&.=.$.v c x y y [.[.,X,X-X. . . . . s a A c c S D D v z v c v v U S S U S S x x x S s % . . . . . . . . . 4.4.5.5.r.7.u.r.r.%.[.*X;X;X;Xw 6 w e e %.*.X.X.o.V.K.C.Z.Z.B.Z.Z.Z.Z.B.B.M.V.K.3 v e y e e e e 2 6 4 0 5 2 1 -.-.&.:.;.F.I.F.I.U. . . .$. .$.$.$.$.-.$.$.$.>.&.$.$. .>.$.w w e e e %.$.$.&.X... .| @.@.e r 7 6 4 e.r.9.5.W X X X X o                                                                                                                                             ",
"                                                                                                                                                                . o o o @ O X X X ; 4.4.7.7.i.g.'.'.'.z.g.g.g.h.h.uXaXiXaXiXsXmXmXjXjXeX>X>X>X>Xf.f.h.h.f.i.u.u.9.8.. . . @ p                               o X O X X X X X o O O o . O O o . o . X s a A x c c c c A S S S S S c >X:X:X>X>Xc G c c c x x c c c x c c v b &.&.&.&.........| &.uXuXuXuXuX@.| | | #.#.#.#.#.#.S v D K d X . . . . t.;X[.;X].= < < < , [ U Y | / &.=.:.:.*.B.*.*.=.$.v x x t y [.;X;X;X-XX . . . . s a A A A S D D c S c S c x x G ! U ! S x x e x s % . . . . . . . . . 4.0.5.5.e.7.r.7.r.%.[.*X;X;X;Xw t w w e p.=.&.*.;.C.V.C.C.B.B.Z.Z.Z.Z.Z.Z.Z.V.K.k z e c c w e 2 w 6 6 4 4 1 1 t.-.t.>.:.I.I.I.I.I...| | $.,.,.&.$.| | $.X.,.,.| &.$.$.@.$.w w w e e $.$.&.......| #.@.@.2 7 4 6 4 5.e.5.4.W X o . . .                                                                                                                                             ",
"                                                                                                                                                                $ . # o o : - X X ; 5.5.[ [ u.f.k.z.z.f.f.f.f.f.k.>XtXuXtXuXaXaXaXiXaX-XwX-X-X-Xa.a.a.a.a.u.9.q.a.8.# . . # p                               X O * X X * O X . . . O X X # . # $ . X s s a c c v A S S S S S S S U [.;X:X[.[.S x c x x x c c c c c c v v v =.&.&.| ..X...~ / p.uXuXiXiXuX$.}  ...| #.| | #.#.v v S D a % X . . . g.[.].[.[.= < & , , T %.@.^ $.&.=.=.&.&.B.*.&.#.$.n x x t t |.].{.].[.X . . . X s a A S S S S D e F c e x v c G K G K G S S A A s X . . . . . . . . . 6.7.5.e.e.7.r.7.r.%.[.[.;X;X[.w w e t c %.>.>.:.;.K.C.Z.Z.B.B.Z.Z.Z.Z.Z.Z.V.V.B.n b l z e w r 5 6 < w 7 2 1 e [ %.p.%.-.I.I.I.U.F.X.| | X. . .| &.&.| X. .,.,.*.| $.$.%.t.r w w e z $.$.&.X...X.| #.@.[ 2 4 4 6 4 e.e.5.4.L . . . . .                                                                                                                                             ",
"                                                                                                                o O # O o . . o o o # # O                       $ . # O > w.q.a.a.[ 4.[ 7.5.' * X X X X X X X X . X X X X X X . . . O . . . . X X . X X X . . . . - . o @ # j                       o o O X eX>X>X>XtXsXjXjXjXjXMXgXjXMXgX# . . . . s s a x x x A A S S S S S S e 6 w 1 1 t t A x x x x c c c A S S S v v $.$...&.#.~  .=.=.U < 3 < , < @.$.|  .| | | | #.$.n v S D a X X . . . [ '.h.g.g.hXhXsXsXmXzXiXpXzXcXk 2 2 l b X.*.*.&.$.n v c x w T.T.R.R.'.X . . . X a A S v v S S S F c '.|.T.'.|.6 7 7 7 e e x e e s X . . . . . . . . . 4.7.7.r.r.7.u.r.r.] ].[.*X>X[.h.T.h.h.h.c x z l n B.C.C.C.Z.Z.Z.Z.Z.Z.Z.Z.K.K.U.V.K.I.I.p.< r 5 r w e.p.:.t.@.2 1 < 2 2  . . . .o.Y.).).Q.Q.;.X.|  .*.!.Q.Y.!.Y.l l 3 2 1 r w w e z $.$.&.&...X.| #.@.[ 2 7 4 6 4 e.r.7.5.W . . . . .                                                                                                                                             ",
"                                                                                                              g . o o . . . . . o . . # . h                     @ $ o . . 8.9.9.7.9.5.4.5.[ 4.. . . . . . X . X $ X . X X X X . . . o . o . . . X . . X . . o o . O o O @ @ j                     : # . X X }.;X;X,X;XsXsXsXsXsXsXsXmXgXaX. o . . . s s a A c x y c c A S S S S G 2 w w 4 1 c A x x x x c A A D D D D c c %.#.#.^ $.#.} ^ @.[ < < 4 < < %.@.| X.......| ..&.n v v S a X X . . . i.g.g.g.g.sXiXsXsXsXpXzXsXpXmXz 2 2 k l *.*.X.| $.v c x x e T.h.R.R.'.. . . . . s A v v v S S S v S |.T.|.|.;X< 2 6 6 w c A A x s X . . . . . . . . . 4.5.5.e.e.7.r.r.r.] ].[.*X;X:Xh.s.g.T.g.e c e z n B.V.Z.M.M.Z.Z.B.Z.Z.Z.Z.K.B.K.A.A.F.B.-.1 u 4 4 1 %.:.;.-.%.< 1 1 e 9 @.} | o.o.Y.Y.).).!.X.| | | | I.E.Y.Y.Q.3 3 2 w 7 w w w e z $.$.X.X...X.| | @.[ 1 4 4 4 4 e.r.7.5.W . . . . .                                                                                                                                             ",
"                                                                                                              g o o o o . . . o o o # # # g                     . $ o O X 9.9.5.[ 7.[ 4.5.' 4.. . . . X X . . X . . X $ X X X $ X X . . X . . X X . . . . . . o O X O # # @ p                     > . O . X -X}.[.[.;XsXsXsXsXsXsXsXsXsXiX. . . . . s s D S A x A A c A S S v c c w 1 w 6 w t A c c c A c A D D D D D c x #.#.#.@.#.#.| } } [ , 6 4 4 6 R $.X.| ..........&.n v v A a X . . . . i.'.h.T.h.sXsXsXzXsXmXzXsXzXmXe 7 1 2 l ;.*.*.X.$.v x x x e T.T.T.T.'.. . . . X s A v v v S S v S v {.{.'.|.;X1 6 2 w w c c c z s X . . . . . . . . o 0.9.7.r.r.7.r.5.r.] ].[.;X:X>Xh.h.h.h.g.e y e e b B.B.Z.M.M.Z.B.B.Z.Z.Z.Z.K.V.C.A.Z.Z.B.>.2 4 5 r 1 $.;.M.-.%.2 1 e w e %.-.|  .2./.Y.Y.G.!.|  . . . .I.E.!.!.!.9 9 t r s w 6 w e z $.$.X.....&.&.$.@.[ 1 4 4 4 < ] 5.5.5.W . . . . .                                                                                                                                             ",
"                                                                                                              h . . . . . . . . o o o . # g                     @ . . . X ' 5.7.7.u.5.4.4.' 3.X . . X X X X X X X X $ $ X X . X X X X X X X X % X X X X X X X o O # > o . . p                     $ # . X * }.,X[.[.*XzXdXpXdXdXxXsXdXgXyX. . . . . p s a c c z y t y A A S c c y e 6 w 6 r a A c c c c c A A S A A c x b #.| ..#./ | ..#.| ^ 3 3 < < 2 R &.o.O.O.....| | $.n S S a s X . . . + r.'.g.h.g.sXsXsXsXsXmXsXzXmXmXc e e z b :.*.*.*.$.v x x c e W.R.g.z.c.. . . . . s a S v S S S S v U W.{.{.{.'.e w 1 w e c c c e s X . . . . . . . o O 9.9.9.r.r.9.u.5.r.] [.[.;X[.uXs.h.h.h.s.y s r e b p.B.Z.Z.Z.Z.B.B.Z.Z.Z.Z.C.Z.N.Z.M.M.:.>.2 1 w w 2 $.;.;.>.-.9 1 y w y t.@.| *.o.Y.Y././.I. .} ~ ~ / I.E.E.!.!.z e t 4 s w w e z z $.$.&.X...X...#.@.[ 1 4 4 4 < ] 5.7.4.W . . . . .                                                                                                                                             ",
"                                                                                                              3.p p q q p p p p q : : : : h                         h h s ' [ ' P P W W W W W : ; ; : : 5 : : 5 : : : : 5 5 5 5 ; 5 : : 5 5 < < < < ; ; : : : : : - # . @ @ :                     > # O . X ].[.].{.=XdXpXpXpXpX>X1X>XuX-X. . . . . 5 5 r w w 2 4 6 6 e c S v v G 2 w w < < K A c c c c c c c c A A c z l | | ( #.( | ..|  .} 1 1 w e 1 $.| O.O.O.....| | $.v v S a s . . . + + u.g.g.g.h.>X:X>X>XuXuXuXiXuXiXS A c v b :.&.&.=.$.v x x c e T.h.z.z.v.. + + . . s a D S S S S S n n R.R.R.R.T.< w 1 w w c c c e s X . . . . . . o . . 3.' W P Q 9.r.5.r.] ].[.;X:X:Xh.h.h.h.T.1 r 0 w z p.V.Z.Z.Z.Z.Z.B.C.Z.Z.Z.Z.Z.S.M.C.B.:.-.e e c e 2 =.:.o.>.-.2 2 w a y t.-.$. .O.Y.Y.G.G.I. .} ~ / ~ K.I.I.I.W.3 e r p s y t y c c %.=.&.X...|  .} } [ 2 4 4 4 < ] e.7.7.W . . . . .                                                                                                                                             ",
"                                                                                                    . @ @ . * eXMXMXmXxXxXxXmXmXmX>X:X].>Xc.o @ + @ .                     @ o . . # . @ o % & uX_._._._.oX_..X_._._._._._._._.oX_._._._._._._._.oX_._._.oX`.(.(._. X% o . . X . . . o .           # # . O X }.[.].].[.:X>X>X>X:Xt.[ ] 5.' . . . . . . . . . . . + . . X 0 a A c c c c c c A A A c c c c c v c c c c c c l |  ...| ..| ....| | #.#.#.$.=.$.=.=.........=.| =.n n v A s X . . . . r.h.g.g.g.< < 6 6 w R ^ / ~ C M.;.;.;.;.*.*.X.&.#.n b c c t g.z.T.T.c.X . . . X a A v n S S S A c c c c A c A x D A A D A A A t s X . . . . . . @ + # # O o O : u.5.7.] ] ].*X=X=X:X:X:X>X;X>Xw 0 r w z p.K.Z.Z.N.M.C.C.Z.C.Z.N.Z.Z.M.*.:.:.:.:.M.V.Z.Z.M.;.;.;.:.>.9 e y y w p.$.*.X.X.*.&.%.-.2.U.I.I.U.F.+.X. .-.p.< r 4 w w @.#. .$.X.X.&.&.&.| n b z c x %.e.e.5.e.5.5.5.9.W X X . # .                                                                                                                                             ",
"                                                                                                    . o o O . eXmXmXzXzXzXxXxXxXmX].[.[.[.g.X . @ . @                     > . # O o . . . X ,  X`._._._._._._._._._._._._._._..X_._._._._._._..X_._._._._.`.(.(.(. X% o . . . . . . . $           > . # . X -X[.[.].].=X:X:X:X:Xy.] [ [ ' . . . . . . . . . . . . . o X s a A c c c c c S A A A c c c c v c c c c c c z z } / |  ...| ......| | | | $.&.........X......./ #.b v S A a X . . . . r.g.T.g.h.< < 4 6 7 R R / / C *.;.;.;.*.*.o.&.&.#.n b c c t g.z.T.T.c.. . . . X a A v v v S S S S S S S S A A c A A D D A A c c s X . . . o . . + . # o o o O : 9.5.u.r.%.].=X*X*X=X:X*X*X[.;Xw 0 w w z p.K.Z.Z.Z.M.Z.Z.Z.C.Z.Z.Z.Z.Z.;.B.:.B.B.B.V.Z.Z.M.M.;.;.p.:.z e w F m -.-.&.X.X.&.&.%.%.,.U.I.I.I.F.X. .,.-.-.e t t w w $.#.| | X.X.X.&.&.&.N b z c c e.e.e.5.5.5.5.5.9.W . . o . .                                                                                                                                             ",
"                                                                                                    # O o # X eXmXmXmXxXzXxXxXxXmX].].[.[.g.O @ @ . #                     @ o o O . o O o . & :X^._.`._._._._._._._._._..X.X.X.X.X.X.X.X.X.X.X.X.X.X.X.X.X`.^.^.(.(.& . . . . . . o # .           : . X X X ,X[.[.].].*X:X:X:X:Xr.] ] 4.6.. . . . . . . . . . . . . . X u a m c c c c c v S S D A A c c v v c A S D A x z #.#.|  . .| | ..| ....| | | | ........&.X.| ..| #.v v c A s X . . . . %.g.T.g.g.< 4 < 6 1 T E Y ~ Y &.*.*.*.*.&.&.&.&.$.M z c c t z.z.h.'.c.. . . . . a A c v v v S S F F G G S S A c x A c S A A c x h X . . . . . o . . o o o o O : 9.7.7.7.%.[.*X*X*X:X*X*X;X[.;X1 r r w b p.K.M.Z.Z.Z.Z.Z.Z.C.Z.Z.Z.Z.Z.;.V.B.B.B.B.V.Z.Z.M.M.B.B.:.:.z z e m c -.-.=.| &.&.&.$.@. .U.U.I.U.!.>.+.,.,.-.w w t w e |  .| | | | X.X.&.&.M v c c c t.r.e.e.5.5.5.4.4.W . X # . .                                                                                                                                             ",
"                                                                                                    X O o X * eXmXzXxXxXdXzXxXxXsX].'.T.].g.. o . . .                     . @ . o * X * % % & :X`._.`._._._._._._._._._._._..X.X_._._..X.X.X_.XX.X.X3X.X.X`.~.^.(.(.& X X X X X X o X $           o X X . X ,X;X].].{.*X:X:X:X:Xi.7.4.' ' . . o . . . . . . . . X . . X r a F y c c c A F D D D D D D S A A A D D a t 7 e R @.@. .} |  . . .| |  .|  . .| | .... .|  .| } } v c c A s X . . . . r.h.h.'.g.< < < < 4 K T E Y Y :.*.*.&.&.&.&.$.$.$.U c c y t z.z.h.g.c.. . . . o a A c c c c S S F F G S S v c c c c t c c A A t h - . . . . . $ . . o o o o O : u.7.] ] ] ].*X*X*X*X].[.[.].*X1 0 w w b p.B.M.Z.Z.C.C.Z.Z.C.Z.Z.Z.Z.Z.;.V.B.B.Z.V.B.Z.M.M.M.B.B.:.K.l z b c z p.%.-.$.&.$.$. .@. .!.Y.I.F.F.X. .@.-.y.1 1 2 e 9 } | | | | | | X.#.$.M v v S c t.u.r.e.e.5.9.4.4.g o . . o .                                                                                                                                             ",
"                                                                                                    O ; * * X >XmXmXzXzXzXxXxXxXmX'.'.'.].a.X . @ . #                     @ . o X % , & & , 8  X^.`.^.^.XX_.`.`.`.`.`.`.`.`._._._._._._._._.`.`.XXXX.XXX.X^.^.^.~.(., & & & & % % & & =           O . = X X ].].{.W.{.*X:X:X:X:Xi.4.0.6.3.O . . . . X . . . . . X X X * q a f f a a a f f a a D d d a a D a a a a a s s a Q [ [ ` T $.@.} } | | | |  .$.$.$.$.$.$.$.| $.#.@.G v c a s X . . . . a.T.g.g.j.< < < < 6 D Q [ R T %.$.$.$.$.$.$.$.$.@.G c c t t g.g.h.T.c.o . . . X f c c v v c c F c S S S v v c c c c t c t D D K p - o o . . . . . . o o o o X : 7.7.[ 7.i.].;X>X;X*X;X*X[.].[.1 r w e v p.K.V.C.M.C.Z.Z.Z.Z.Z.Z.M.M.Z.;.V.Z.Z.Z.Z.Z.M.M.;.M.M.M.B.K.l l b b M >.t.-.-.%.$.$. . .~ I.!.Y.!.Y.+.$.@.@.-.9 9 9 e 2  .} | | | | | X.| &.M v v S c i.i.i.i.a.4.5.4.6.g . . O .                                                                                                                                               ",
"                                                                                            : : : s eX-X-X}.>X].].'.'.[.pXxXxXxXtX: * = - ; . # . + . : - p p j : p q : : . . . % t {.{.E.E.E. X_..X`.XX5X5X5X5X5X5X5X5X5X5X5X5X5X5X5X5X5X5X5X5X5X5X5X5X7X5X5X4X5XvXK.K.K.K.K.( ( =.( Q a h p p q l.c.f.'.g.[.*X].W.{.=X:X:X:X:Xs - O X > . . o o X q q 0 0 0 0 0 u u 0 = * * * * * - - - - - - - - - = = = * - * % $ $ % ; = = , , S S G v U M M M M M M M M M E E M M U U v c c a u X . . . . r.T.g.'.'.y.a.i.h.i.t 6 1 1 7 G M M M M U U U U U c c c y t g.g.h.'.].X . . . X f A c v v v S S S S S S v v c c c c y r % % % * : O o o o . . . . . o . o o X : u.u.7.7.[ 7.] [ [ ] ].].[.[.:Xe 0 4 2 e #.| ....O.Z.Z.M.Z.Z.Z.Z.M.M.Z.M.V.Z.Z.Z.Z.M.M.M.;.;.M.M.B.V.;.V.:.p.>.M z e e e @.@.$. . .U.U.!.!.I.B 9 9 9 9 U T ` R @.} | | | |  .| #.#.$.v z e t t s.r.u.u.4.= X X X g                                                                                                                                                       ",
"                                                                                          : o . X 0 -X-XeXtX].].].'.W.|.zXxXxXdXlXo . O . . . . + . . . . . . @ $ $ X . . o . o X 6 1X X_.oXoX_.`.`.`.XX7X7X8X6X6X6X6X7X7X7X6X7X6X6X6X6X7X7X7X7X6X6X8X7XbX6X6XvX7XvX(.(.(._._.S.S.Z.B.=.4 X o . . -Xc.].[.].'.W.{.Q.{.=X:X:X:X:Xh X X . o . . . . X a f F D F D a f d d X X o o . . . . . . . . . . . . . . . . o . . . . . . . X X a D S S S S v S S G v S v S v v v v v v v S A a a X X . . . i.'.'.g.g.g.g.g.h.h.< 4 < < < t v v v v v v v S v z c c e e g.g.T.'.}.% X X X X F S c v v v S S S S S S S v v c e t y u X . O O X X . o o . . . . . o o o o X : u.9.9.7.7.' ' ' P P ;X*X[.].*X3 y w w x @.| |  .O.Z.Z.M.Z.Z.Z.B.M.Z.Z.M.Z.Z.Z.Z.M.M.M.;.M.M.M.M.C.B.V.C.V.I.I.z z w w 1 %.@.@.` | I.U.Y.!.!.m 3 3 1 < @.@.%.@.#.| | | | | | | | #.#.z 1 2 6 w i.u.i.a.u.% X . . g                                                                                                                                                       ",
"                                                                                          : . o X 5 -X-XtX;X>X].T.T.'.|.zXzXxXsXyXo . . . o @ . . o . . $ . + @ $ X X . . . . . X 1  X_._..X.X.X_.`.`.`.6X7X6X7X7X7X6X6X6X7X6X6X6X6X6X6X9X9X7X9X6X6X6X7X6X7X7X7X7X6X^.^.^.`._.S.S.S.A.p.< . . . . ].].'.'.[.{.{.{.Q.{.=X:X:X:X:Xp . # . . o . . . X J F F A S S d a a d X X . . o o o o o . . . . . . . . . . . . . . . . . . . X % J K S A S S S S S S S S S S v S v v S x A A D D s X X X . X s.'.g.T.g.W.g.g.g.'.< < < < < A x c c c c c v v v x c c e e T.g.T.|.}.* X X X % D D S v S S S S S S S S S S c c A y a s . . o . X O O o . . o . o . o o o o o : u.7.7.5.7.W ' ' ' J ,X].].[.:X9 w 6 6 z @.} | ../ C.C.Z.C.M.B.B.B.V.V.M.Z.Z.Z.Z.M.M.;.M.M.M.M.B.C.C.C.C.F.C.I.l 9 6 w < %.` @. .| !.!.Y.!.Y.M 2 2 e 3 @.,.} $.#.|  .| | | | | #.#.#.z 1 1 6 6 i.i.i.i.a.X X . o                                                                                                                                                         ",
"                                                                                          > o . X < -X}.>X;X;XT.'.W.'.'.xXxXxXsXyX. . o . . . X X X X X X o # # $ o . . . . o . X 3  X_.XXXX.X.X_._.`.`.vXvX6X6X6X6X6X6X6X7X7X7X7X7X6X6X6X6X6X6X6X6X6X7X7X6X6X7X7X6X^.^..X`._.S.S.S.S.=.< X . . X c.g.'.].'.{.W.W.{.{.:X:X:X:X:Xq . . . . . o . X X J D G G c c A D D J X X . . . . . . . . X . . . . o o . . o o . . . . . @ @ X * J K S S S S S S S S S S S S S S D D D A A D D a d X X X $ X a.T.'.'.R.T.W.g.T.'.< < < < < t x x x x x x c c c c e c c e W.T.W.'.}.* X > . * J J F D D D D D D D D D D D A A a a d s X . o O X X X X X X o O . O . o . o . : 9.0.4.4.9.W W ' W ' ].'.[.[.*X9 w w e 7 %.#.} &...Z.C.V.Z.V.M.V.:.B.I.M.C.Z.N.S.M.M.M.;.M.M.M.Z.M.C.Z.Z.N.C.K.k 2 2 1 < %.[ @.@.| Q.Y.Y.Q.!.M 2 9 e 9  .$. .#.$.| |  .} | $.} } @.@.e < 1 6 < a.r.i.a.a.* X . o                                                                                                                                                         ",
"                                                                                          > o . X < -X-X>X[.[.'.'.T.W.[.sXmXmXzXrXX . . . . * X X % % X X O O O > . . o . * . % % k (.^.`.XX`._._._._._.6X6X6XvX6X6X6X6X6X6X7X7X7X7X7X7X6X6X6X6X6X6X6X6X6X6X7X7X6X6XXX^.^.^._.( S.S.S.=.< . . . X z.z.].'.T.W.W.{.W.{.{.>X:X;X>Xp . o $ # $ . X X X F D c G c G G S A a % % X . X X . . . . X X X X . X . . X X . . . o # . # > * ; d K K K D D D D D D D D D K L J J J L L W W J s s $ # o o . h.'.'.T.j.W.T.T.T.g.4 < = = , w t x y x x c c c c c e e e c T.'.'.}.}.* O o O O W L d s a a a a d d d d a a d d L L d s ; % X X X X % * * - o o o O . . . . . > 0.9.8.8.6.' W L ' f ,X[.].*X:X3 u 2 w c [ -.=.| | I.V.;.;.V.*.B.p.:.;.V.Z.Z.S.Z.Z.Z.M.M.M.M.M.Z.C.C.Z.N.Z.M.M.l 2 3 < w [ %.%.@.>.Q.Q.Q.Q.!.Y 2 2 9 9 `  . .$.&.|  .| | | } Y ^ [ Q t 1 < 4 4 i.r.i.a.a.* X o o                                                                                                                                                         ",
"                                                                                          > o . X * 5.' P Q [ t.h.T.'.h.r.] ] ] 4.. O X . * r.s.p.p.p.T T ` [ ` > > # . X [.[.{.E.(._.`.^.XX.XbXnXnXbX6XnXvX6X6XvXvXvXvXvX6X6X6X7X7X6X6X6X6X6X6X6X6X6X6X6X7X7X6X7X6X7XbXbXbXbX_.`.`._.(.< . . + X z.g.g.W.{.pXzXxXzXxXd.r.r.r.r.: o . . . $ o X % % K K G x T x v v v S t D J J a d J J D D K K a a d d d d D D D J d d d O # o # o ; * X % % % % X X X X X X X X X X X X X X X * X # . . . . . W [ [ ] ] h.j.g.j.'.i.g.g.g.f.h.h.h.h.s.h.h.h.h.h.h.h.g.h.s.%.[ [ 5.9.X # . o # # O O . X X X . . . . . . X X X X % % < D W W W W L J J L L - O O O o o . . . . . . . . . d W ' ' L ].].[.'.=X[.[.*X;XT.e 1 3 k k ;.V.F.V.;.l k l l V E././././.Z.Z.Z.M.M.M.Z.Z.Z.M.M.Z.Z.M.V.| =.=.%.%.1 1 1 2 3 l l 3 3 l E %.%.%.} >.&. .| | | | | | } n b v c z 1 < < < 4 u.r.i.f.a.* O O #                                                                                                                                                         ",
"                                                                                          > o . X - 9.5.[ Q Q y.h.g.T.'.r.r.y.t.5.X . . . * s.>.:.>.p.M G T ` T @ o o X % :X X(.(.^.~.XXXX^.^.bXvXbXbXvXbXvX6X6XvX6X6XvX6X6X6X6X6X6X6X6X6X6X6X6X6X6X6X6X6X6XvXvX7X7X8XbX8X8X7X`._.(._.).1 X . . % ].'.'.T.W.pXzXxXzXxXt.r.r.i.u.: . o . # . . . X X P A S S G K v v v c c S A D D K D D S A c x D D D D D D D A x A A K W % * o # o # X . X . . . . . . . . . . . . o X o X X o X o o o o @ . @ W [ ] ] [ T.j.h.g.g.g.h.a.f.f.s.h.h.h.h.h.h.h.h.h.s.s.s.h.g.] ] 4.9.9.O O # o o o o o o . . . . . . . . . . . X X % % & W K D A K D D J L W * O X . . o . . . . o . . . . W W [ ' [ [.;X].[.[.[.[.].].T.e e z l l I.B.;.;.:.k k l l l )./././.U.Z.C.V.M.M.M.Z.Z.Z.M.Z.Z.Z.M.;.;.*.=.:.p.< 1 w w b 2 9 l l 9 Y $.} @.} $.$.| X.| | | | $.#.n b c c c < < < < 5 u.r.i.i.a.* O O #                                                                                                                                                         ",
"                                                                                          : o . . * 4.4.[ [ [ h.'.g.g.'.{ r.r.] [ * X . . % y.&.;.;.I.N M E T U : X . % &  X(.`.^.`.^.XX^.XX`.8XvXvXbXbX6X6X7X7X6X6X6X6X6X6X6XvX7X7X7X6X6X6X6X6X6X6X6X6X6X6X6X7X7X6X8X7X8XbXvX^.`.^.(.(.1 X o . X g.z.'.'.W.pXzXxXzXzXs.i.u.a.u.: . o . . > . O X = a D K K A S v v c c S S D F G D D S S S S S c c x A A A x c c v x S K % * % o . o O o o . . . . . . + + . . . . . . . . o o X X o . . . . . W 4.] [ [ ].g.g.g.h.z.h.f.f.f.a.f.f.f.s.s.s.s.f.s.s.h.s.h.g.[ r.5.4.9.# O o o o o o . . . . . o . . . . . . . . . X & & T K K K S G F F D d X * * . . . . . . . . . o X . W W ' ' W }.].].*X].].].[.[.g.w w e l 3 I.B.;.:.K.l l b b l Q.U.U./.~.Z.Z.B.B.M.Z.Z.M.Z.Z.Z.M.;.;.o.*.*.*.&.:.2 e w w e 2 9 2 9 l ` }  .$.$.#.#.| | | | | | | | M m v c G 4 4 < 5 ; 7.r.i.i.a.O O O #                                                                                                                                                         ",
"                                                                                          > o . O : q.5.5.5.[ i.h.g.'.'.] ] r.i.4.* . . o * t.>.*.;.>.N M U T T O X O % ,  X_.^.^.^.^.^.^.^.XX8X7X6X6X6X6XvX6X6X6X6X6X6X6X6X6X6X6X6X6X6X6X6X6X6X6X6X6X7X6XvXvXvX7X6XvX8X8X8X5X`.(.(._.(.1 . . + * ].z.z.T.g.pXzXdXzXzXi.u.u.a.a.: O . # + o # O * * L K F A K A S D A A A a t y a a a A A A c x v c x x x x x n b n v v G & % % o o . o . o . . . . . . + + + + o o . . o . . . o X . . . X o o W 4.4.[ ] c.g.h.z.f.z.a.a.f.h.f.f.f.f.f.f.f.f.f.f.f.f.f.h.h.[ 7.u.5.a.* O . o o o . . o o . . . . . . . . . . X X X % % D S S c S c A G K J = % X . . . . . . . @ . . . . g ' 4.[ [ ;X[.[.T.'.[.].].].h.t w 2 2 l I.B.B.:.:.l 2 e z b Q./././.G.Z.Z.M.B.M.M.Z.M.S.M.M.M.;.V.;.M.o.B.B.:.9 2 w u w e e e e 9 }  .} } } } | | | | | | | } | n U G G K 4 < < < < 5.r.u.i.u.X X O # w.                                                                                                                                                      ",
"                                                                                          : o . o > 9.6.5.5.] i.g.g.g.h.u.] 7.e.w.O + . . ; %.-.;.;.&.Y M H U G - o X % ,  X`.XX`.J.^.^.^.J.^.5X6XvX6X7X6X6X7X6X6X6X6X6X6X6X6X8X6X6X6X6X6X6X6X6X6X7X7X6X6X7X7XvXvXvXvXvXbXvXNXQ.{. X XR.6 X + + X z.z.'.'.T.pXdXmXzXmXi.a.a.8.q.: . . . . . > o O * W L J L D J d d a d d d d d a d a a s s a D v z z c c z z z b b b v c , * X % * % * % % X . . . . . . . X X . o X . X X . X X X X X X X . . ' 4.4.7.9.z.z.z.f.a.h.a.a.a.a.a.f.f.f.f.f.f.f.f.f.a.a.f.f.f.9.4.5.u.5.* X $ - . o o . . . . . . X X X X . X . . X X X * y G G c S v x c F a = X X X X . . . . . . . . . . g ' 4.[ [ [.[.].[.;X].{.{.].g.t t e z b K.:.K.:.p.b z c c b Q.U./.~.~.M.Z.M.B.M.Z.M.Z.Z.Z.M.V.;.B.;.*.S.M.M.:.z e r u u y 6 6 z z Y  .X.| $.@.#.| |  .| X.&.=.:.M U G G y w < ; = 5 ' 5.r.u.u.X X O # 3.                                                                                                                                                      ",
"                                                                                          : o o o : q.8.5.5.] e.] ] 7.[ 7.] r.r.3.o @ @ . O F M V V B B T T ` E X . X X ,  X_.XX^..X5X5X7X7X5X8X7X6X6X7XvX6X6X6X6X6X6X6X6X6X8X8X6X6X6X6X6X6X9X9X6X7X6X8X5X.X^.`.).)._._._.$XQ., & & & , X . + + X z.z.'.'.T.dXsXzXzXsX; X X X X . . . . > PXSXPXSXSX* * * % & X X X X X . X X X X X X X X = 7 D b b U @.%.%.%.=.:.=.>.>.p.%.u.i.i.u.W K D J a d s d h p - X X X o p d s d d s d d d d d J s s d O # X O X X X X X X X X X X . X X X X X X X X X X X X X X X * * & = = J W L d W O O . . - p d d D D d d d d h h h s s a y c c c c v S S S K J W d g p o . . . . + + . . . d ' 5.[ ] I A I I F '.{.'.'.g.w r 6 e l | ~ ~ ~ #.v v c v b ).U./.G.U.M.Z.M.B.M.Z.M.S.Z.M.o.V.;.:.M.M.S.S.M.B.k e r r y ] e.%.%.@.$.| | } #.} #.| | | ;.:.:.p.:.l 2 1 1 4 ] r.u.[ 4.5.5.r.u.9.X X O # 3.                                                                                                                                                      ",
"                                                                                          > O o X 5 5.5.5.e.5.[ ] ] ] ] [ ] { { 3.o o . o * J F m m m U ` T U m . . . X ,  X_.XX`..X5X7X7X7X7X7X6X6X6X6X6X6X6X6X6X6XvXvXvX6XvXvX6X6X6X6X6XvXvXbX6X6X6XvXvX`.`.`.`.`.`..X.X_. X, X . + + $ . . o X z.z.T.T.T.uXzXxXzXjX; . . . . . $ . . # KXKXFXKXLX> O o . . . . . . o o . . . o . . X . % d s v b n *.O.O.O.o.o.*.*.:.;.S.S.S.p.p.S c G y c D A A A a - . . . X D D S S S A A y y G S v c c z X . X $ X X X . . . . . . . + + . . . . . . . . . . . . . . + @ o o % K U U G I O . . . . u A c c S x S S c c v v c c x x x A D A A S S v S S S S D a X . . . . $ . . . . d 3.5.5.[ L W J W J }.T.].].g.t w 6 e e @.@.} } } n n M E N Q.U.~.~.U.M.M.Z.Z.Z.Z.M.S.Z.Z.Z.Z.M.M.M.M.M.M.;.p.9 e w r b $.$.#.$.&.| |  .| | | | | | / S.o.:.:.p.2 w 6 4 4 ] e.5.5.5.5.5.5.0.9.X . o # 3.                                                                                                                                                      ",
"                                                                                          > . . X : q.a.4.5.] r.] ] ] ] ] ] ] ] m.. o o X * J F I m M U T T U v . . . X ,  X.XXX`..X7X7X7X7X7X7X7X6X6X6X6X6X6X6X6X6XvXvX6X6XvXvX6X6X6X6X6X6XvXbX6X6X6XvXvX^.`.`.^.XX`.`.oX_. X, X . . + + $ . . X z.h.g.T.W.iXzXxXzXjX; . . . . . . . . o KXFXLXJXFX> O o o @ . o o o o o . . . . . . . . X s J c x v &...o.o.X.*.&.&.&.*.o.S.S.=.=.v c c c c x A A A a - . . . X a D A S S S F F c G S v v v v # X X $ X . X . o o o . . . . + . . . . . . . . . . . o . o o o o . % F U S c F O . . . . s S v v S x x c c c v c z z x x x A D A A S S v v S S D D s X . . . . . . . . . W 4.5.9.5.J W J J J }.].].'.g.w t w 6 e %.@.` @.$.N n M M N E.U.~.Y.U.M.M.M.Z.M.Z.M.S.M.M.M.Z.M.M.M.M.M.M.;.:.2 9 1 r b $.$.#.| $.| |  .| | | | | | / S.o.:.:.p.2 w 6 4 4 ] u.5.5.5.5.5.9.0.9.. . . # g                                                                                                                                                       ",
"                                                                                          # . O X - 8.4.9.5.7.5.r.r.] ] ] ] ] [ m.. . o X ; L L m m m U E T U c . . . X , 1X.XXXXX.X6X6X7X7X7X7X7X7X7X6X6X6X6X6X6X6X6X6XvX6X6XvX6X6X6X6XvX6X8X8X6X6X7X7X7X^.^.^.^.`._.). X X{.& * o o @ . o . . % ].'.T.R.R.pXzXmXzXjX; . . . + . o . o o KXFXGXJXJX- O . o . # . . . . . . . . . . . . X % s d a a S -.=.:.:.:.:.=.p.:.:.M.M.S.&.=.b b b c S c A S A D - . . . . a a A S A S S F c v ! v v v v # o . o . . . . . . . . . . . . . . . X . . . . . . . . . . . . o X % G T U S J X . . . X a S S ! ! S v v v v v v b b v x c D A A S S S v v A A A a u X . . . . . . . . . d 3.4.4.5.J W L W L }.T.'.T.T.w e e e 2 [ @.@.} #.N N M U N E.U.U.~.U.M.M.M.M.M.M.M.S.M.M.Z.Z.Z.M.M.M.Z.B.;.:.2 9 2 w b #.$.$.| |  .|  .| | | | | |  .S.o.B.:.p.2 6 6 6 4 [ u.5.7.u.5.7.0.4.4.* X . O w.                                                                                                                                                      ",
"                                                                                              g g g W g W d W 5.r.r.] ] ] ] ] [ ' . . o X * s u y y y T T G G x . . . X , 1X.XXXXX3X6X6X7X7X7X7X7X7X7X7X6X6X7X6X6X6X6X6XvX6X6XvX6X6X6XvXvXvX8X8X8X8X7X7X7X^.^.^.^.`.K.E.T.'.T.= X . o . 5 0 5 5 < [.].|.W.W.pXzXxXzXjX; . . . . p h p p h SXSXSXSXFXg W g h h h h h h h h h h h h g p g d s s 5 p s a Q ` [ ` ` [ [ [ } / :.*.O.....V b n v m z x A A a ; . . . . a a A A A S S S S v E E E E E : - - - * * * * * * * * * * * * = = = = = = * - - - - - - ; - - ; * = S U S S F X . . . X a S ! S S U ! U n n n M n n n x x x x A S S S v v A A c a r X . . . . . . . . . p W W W W W W W W W ].'.].'.T.P G G G G G T T U U M M M M n E.U.U.~.U.S.S.M.M.M.M.M.S.M.M.Z.Z.Z.Z.M.M.M.M.;.;.l e e e b #.#.#. .|  .|  .| | | | | |  .S.o.:.:.p.2 6 6 w 4 [ u.7.7.u.J ' W W 3.g 3.3.3.                                                                                                                                                        ",
"                                                                                                    O . . X X L r.r.e.5.5.] ] [ g . . o X X - O X X % y F S G S . . . X , 1X_.XX`.3XvXvX7X9X7X7X7X6X6X6X6X6X6X6X6X6X6X6X6X6X6X6XvXvX6X6X6X8X8X8X8X8X9X8X7X^.^.^.`.`.8 % X $ % . X . o # k.}.].|.'.mXmXzXzXpXzXzXxXzXmX; . . . . eXfXgXfXlXkXfXaXjXjXJXDXPXKXSXKXDXFXFXFXFXKXKXKXKXDXKXSXFXDXX . . . . * % % * % % & % , 8 &.*.*.o.o.....| | R z 2 z t s - . . . . a a D S A S S S S S @.#.#.$.$.J s a a s s a s s a a a a a c c a a a a a a a a a a a a a a d a f a A T U U G J X . . . X a S ! ! U %.$.$.#.#.#.$.$.#.#.! S S S S S S S c v S A c a r . . . . . . . . . . . . . . X 9.u.i.u.5.'.'.'.'.'.'.].'.'.h.e e e e 2 v v M M n E.U.U.~.U.S.S.M.M.M.M.Z.Z.M.M.Z.Z.Z.Z.M.M.Z.Z.M.K.Y R E T M @.} #.} #.| | | | | | | | |  .S.*.:.:.:.1 2 1 4 6 ] u.u.9.4.* . . X .                                                                                                                                                                 ",
"                                                                                                    . # O X . W 7.r.e.5.5.e.] ] ' . . o o o X . O X X F F A S c . . . X , 1X_.XX`.3XvXvX6X9X9X9X6X7X7X6X6X6X6X6X6X6X6X6X6X6X6X6XvXvXvXvX6X6X8X8X8X8X8X8X7X^.^.^.`.(.% X . + . # X . . . z.].].|.'.sXxXzXxXzXzXzXxXzXjX; o . . . wXfXgXaXgXaXgXjXjXaXGXSXFXDXPXDXDXDXDXPXPXDXDXDXDXFXFXPXFXDX. . + $ . o o . X O O * % % & :.:.*.O.O.O...&.#.^ 3 2 7 t a - X o . X d D S S S S S v S n #.$.$.$.$.S x y A A a A A A A A c c c c c A A A A A c c A A A A A A A A A m c S U v v S a X . . . X a S ! v n =.$.$.#.#.#...#.$.$.v v v v S S S S c S S S y a u X . . . . . . . o . . . . X . a.u.5.r.e.'.'.'.T.g.].'.'.'.'.1 2 2 e 3 G S m M n E.U.~.~.U.S.M.M.M.M.M.Z.Z.M.M.Z.Z.M.M.M.M.M.M.;.:.~ } T U U @.} @.} | | | | | | | | | |  .S.S.:.:.-.1 2 1 4 6 [ u.u.u.5.X . . . .                                                                                                                                                                 ",
"                                                                                                    . . O . X W 5.9.u.e.5.e.5.5.3.o . o $ # # # X . X d J F K A . . . % ,  X_.XX`.3XvXvX6X7X7X7X9X9X7X7X6X6X6X6X6X6X6X6X6X6X6X6XvX6X6X6X6X6X6X8X8X8X8X8X8X^.`.`.(.(.% $ . + . . . o O o z.].].|.'.zXxXzXzXzXzXzXmXzXhX; . . . . -XfXfXaXgXaXhXaXaXgXGXDXFXFXSXDXDXDXDXDXDXDXDXFXKXFXFXKXPXPXO . + @ + o @ o @ @ o O O % % y.=.=.X...&.| #.$.@.2 7 7 a a ; X $ . % D D S S S S S v n b $.| | |  .v x x c x x c c x x v v v v n n v v v v v v c v x x c v c c c x x z v n ! S G J $ . . . X s A S v n =.&.&.| ......| =.=.n n n n S c c c c c S S a a u X . . . . . . . . . . . . . . a.9.5.r.r.].T.'.'.'.'.T.T.'.h.1 w e e 2 G G v U n E.U.~.U.U.M.M.M.M.M.M.Z.Z.M.M.M.M.M.M.M.M.M.Z.M.B.} } Y U U } ^ @.^ | | | | | | | | ..| | M.M.:.=.-.1 2 1 6 6 [ e.u.9.9.X . o o .                                                                                                                                                                 ",
"                                                                                                    . . o . . W 5.9.u.9.7.5.5.5.3.o . o + @ + @ o . . f f J K a . . . X ,  X_.XX`.3XvXvX6X7X7X7X9X9X7X7X7X6X6X6X6X6X6X6X6X6X6X6X6X6X6X6X6X6X6X6X8X8XbXbXvX`.(.(.(. X% . . $ . X o . o o f.].].W.'.xXxXxXxXzXxXzXxXzXhX; o o o . -XaXfXgXaXaXaXaXaXaXFXFXFXDXGXDXPXPXDXDXFXFXFXFXDXFXDXPXFXFX. . $ # $ $ @ @ @ @ @ . # X X e.e.%.$.| $.@.%.%.[ 6 7 7 s s - X . . % D D D S S S v n n b #.| | |  .n b b b z z v v v v v n n n n n v n n n c c c n c c c c c c x c b b v M U S S d O . . . . s D A v v =.#...............=.n n b b v c c c c c c A a a u X X . . . . . . . . . o . . o a.9.r.r.%.|.'.'.T.'.'.'.'.T.h.w 1 < 6 w S S S U n E.U.U.U.U.S.M.M.M.M.M.Z.Z.M.M.M.M.M.M.M.M.M.Z.M.B. .| R T M ^ ^ #.^ } | | | | | | | ..| | B.B.:.:.-.1 2 1 4 6 [ u.9.4.9.X . . . o                                                                                                                                                                 ",
"                                                                                                      o o . O W 6.0.9.0.0.0.0.9.w.. o . # $ + # @ o . d d d J D . . . % ,  X_.XXXX.X6X6X7X9X7X9X9X9X7X6X7X6X7X6X7X6X6X7X6X6X6X6X6X7X6X7X6XvX7X6X7X8X6XnXnX(.(.(.{.{.% X X % X X . . . X z.].W.W.W.xXxXzXzXcXzXzXxXzXjX= . o o @ >XaXaXaXaXaXaXaXaXaXDXFXDXFXFXDXDXDXDXDXDXDXDXDXDXDXFXFXPXFX. o O # # @ # @ @ > > @ . . X 9.] e.%.%.%.] [ 5.[ 7 7 s s 0 - o . . % J D D K S v U n n N / |  . .| b l b n l b b v v v v v v v n b b b b b b b b b b b b b b b v b b n b M n S D J % . . . . p a a c x =.$.| ......X.X.&.| Y n n n G v z v c c c D A s s X X X X . . . . . . . . . . o q.9.u.e.r.].'.'.'.g.'.T.T.'.h.w w 1 6 t D D S G b E.U.U.U.~.M.M.M.M.M.M.M.M.Z.Z.M.M.M.M.M.M.Z.M.Z.C.| | } Y M @.} ^ } } | | | | | | | | | | B.:.:.p.%.e 1 6 4 6 Q u.u.5.0.X o . . o                                                                                                                                                                 ",
"                                                                                                              h - ; - - ; - ; ; - O . # . p           : ; ; * = . . . X ,  X_.XX.X3XvX6X7X9X9X6X9X6X7X8X6X6X6X8X6X8X8X6X6X6X7X7X8X6X6X7X6XvX7X6X.X3X3X3X1Xn k z 2 e e F K K a X . . . o z.].W.W.{.xXxXxXxXzXxXzXxXsXjX= . o o # -XaXaXaXaXaXaXaXaXiXMXmXjXjXjXjXjXjXjXjXjXjXjXjXMXjXjXjXjXjXSXIXMXVXVXIXIXIXIXIXkXIXkXkXjX- < = = = = = = 5 ; X % % - - o . . . X ; - ; & , @.E #./ / | ......O. .~ ~ Y N ^ #.#.} } } } @.@.^ } } } } / / / / ^ ^ ^ ~ ^ ^ ^ ^ Y ~ / ~ Y U U K J X . o o . - O X , , %.$.&.X...O.....&.&.| /  ./ R G c S v c A S F a J 5 0 5 5 5 . . . . . . + . . o a.9.u.r.%.%.5.] ] r.g.T.T.T.g.y.y.h.g.h.t t e x z E.E.U.U.U.Z.M.Z.M.M.M.M.M.Z.Z.M.M.M.M.M.M.M.M.M.V.C N M v M } } ^ } / | | | | ..| | | | | N N n M U R [ Q Q P 5.u.4.9.6.. . . o .                                                                                                                                                                 ",
"                                                                                                              3.. o . . o o o X o # . . . h           - . X X X . . . % ,  X_.XXXX3XbX6X9X8X9X7X7X6X9X6X6X7X7X7X6X7X7X7X7X7X6X8X7X7X6X7X7X6X6X6X`.`..X_. X8 & % X X [ [ ^ @.Q % . + + X z.].W.W.].zXzXxXzXzXxXzXmXzXjX; . o o # >XgXaXaXaXaXaXaXaXaXgXaXaXaXaXgXaXaXaXaXaXaXaXaXaXgXfXgXhXaXLXGXJXJXJXJXJXJXJXJXLXKXKXKXFX* . . X . . X . X $ X . . . . . . o . # # o . X % ] t.=.=.| ........O.} | | | #.| #.| ..=.=.=.$.$.$.$.&.&.....| | | #.| | | #.#.$.$.$.#.#.$.U v S A a % . . o . o . X % % e.#.&.&.O.o.......&.&.&.&.X.$.U z z c c S S S t D a J s s r . . . . . . . . . . q.6.9.7.r.[ [ [ [ ] g.'.T.g.T.].'.].[.[.< r 6 2 3 E.U.~././.Z.Z.Z.Z.Z.M.M.M.Z.M.M.M.M.M.M.M.M.M.M.V.N N v v N } } / }  . . .| | | | | | #...b n l z c %.r.5.e.] 5.5.9.9.6.X . o . .                                                                                                                                                                 ",
"                                                                                                              h . . . . . . o o o . o @ . h           O X . - . o . . X ,  X_.XX.X3XbX7X7X7X8X8X7X6X6X6XbXbXbXbX6X8X6X8X8X8X7X7X8X8X6X6X7X6X6X8X^.`._. X X, % % X X ] Y ~ | U % . + $ X h.].W.W.'.mXxXmXxXxXxXzXmXxXjX; . o o # >XaXaXaXaXaXaXaXaXaXaXgXgXhXgXgXfXfXfXaXgXgXgXgXgXhXaXgXhXjXKXJXJXJXJXJXLXLXLXLXLXKXKXLXDX. . . . . . . . . . . o . . . . . o . . . o o . O r.@.#.$.$.#.#.......$.=.$.#.&.| &.X.X.X.X.X.=.=...$.| | ..| | | #.| | | #.| | | | #.#.#.=.U M U K K % X . X o o . o X % t.$.&.&.O.o.X...#.&.| ......$.v b b v c c x S A D a K a s r . . . . . . . . O . f.q.u.4.r.[ [ [ [ 5.g.'.T.T.T.T.].'.].[.6 4 t 7 2 E.U.~.U.U.Z.Z.Z.Z.Z.M.M.M.M.M.M.M.M.M.M.M.S.M.Z.V.N N M M M | | /  . .| |  .| | | | | | ..b b z c c ] ] ] [ 5.r.4.7.8.3.. . . o .                                                                                                                                                                 ",
"                                                                                                                o . . . . . o o . . # . .             O o # . > o o o % ,  X_.XXXX.XbX6X7X7X7X8X6XvXvXvX6XvX6X6X7X8X7X7X7X8X7X8X8X7X7X6X7X6X8X8X^.`._.(. X, X X X X ` }  .| U % . + . X h.|.W.W.'.mXxXzXzXzXzXzXmXmXjX; o o o @ -XaXaXaXaXaXaXaXaXgXaXgXgXgXaXaXfXfXaXaXaXaXaXaXaXgXgXhXgXaXJXKXGXGXGXGXKXGXKXKXDXKXGXFXFXX . . . . . o . o o . o . . . . . o . # . o o . X 5.e.%.%.%.%.@.%.@.@.^ @.@.@.=...X.o...........X.....| | ....| | | | | | ..| | &.| =.$.#.=.U v S A D % X . . X . . . X X t.%.=.&./ O.....| #.| | ....$.n b z v x x S A A A A D A a t . . . . . . . . . X a.0.7.5.9.[ ' ' [ 5.h.g.g.g.T.T.[.].|.[.6 < 4 1 2 E.E.(.~.U.M.Z.M.M.M.M.M.M.M.M.M.M.M.M.M.M.Z.M.Z.B.N N v v N | |  . . .|  ./ | | | | | | | z z c c F ] ] 5.5.5.5.5.9.6.6.. . . . .                                                                                                                                                                 ",
"                                                                                                                  # # # # # # > > :                     O : : $ O O O % ,  X_.XXXX.X5X5X7X5X4X8X7X6XvXbX7XvXbXbX7XbX7X7X7X8X5X7X7X7X5XbX7X9X7X7XXX.X_. X X, X . % X `  .~ C T X . . . X h.'.W.W.W.sXxXxXxXzXxXxXmXmXjX; X o o o -XaXaXaXaXaXaXaXaXhXaXgXaXgXaXgXgXgXaXaXaXaXaXgXgXgXaXhXaXhXGXGXGXGXGXGXFXFXDXDXDXSXSXDXSX. o . . o o o o # # o o . o o . . X X . > o o o . 4.] [ [ [ [ [ [ Q Q [ ] @.@.@.=...O...O.............| | | | | | | |  .| &.| &.&. .&.#.#.#.U G G A A & % X X $ . . . o % e.@.$.../ *...| #.$.| | ....| N b b b z 2 z e A A x A A A 7 . . . . . . . . X - 8.q.q.7.' 4.4.[ [ 7.g.T.g.h.W.W.'.T.'.|.< w 6 7 2 R.U.U./.U.Z.Z.M.M.M.M.M.M.M.M.M.M.M.M.M.M.Z.M.M.B.N N n v N | |  .|  . ./ / / | | | | | ( x e c w a e.u.] 5.[ 5.5.4.8.' o o . o                                                                                                                                                                   ",
"                                                                                                                                                                # # O % ,  X`.XX^.^.`.^.^.^.`.8XvXvX6X6X3X3X3X3X3X7X8X8X5X5XXXJ.XXXXXX7X5X9X8X8X^.`.`. X X& X . X X `  . . .T X . + . X s.T.W.'.h.'.W.T.T.W.pXzXmXjXjX; X o o . -XaXaXaXaXaXaXaXaXgXgXgXaXsXaXgXgXgXaXaXaXaXaXaXgXgXaXhXaXjXhXhXjXjXjXjXjXgXgXgXaXaXyXaXyXJXPXFXKXLXJXJXJXJXJXKXKXKXKXKXFXKXKXKXJX# # o o # X % % % % X X X X % X X % & , #.=.*...o.o...O.......................=.&.=.| =...n n b b b v S G S G A D J W g ; o . . . J c n b n | X.| #.#.| | ..| #.#.$.$.$.@.z x x S A A A A A w . . . . . . . . # . O X X X X W ' ' ' 5.g.'.T.T.T.W.T.'.].|.< w 6 6 3 #.|  .O.O.Z.Z.M.M.M.M.M.;.M.M.M.M.M.M.M.Z.M.M.M.:.N M M G N | | | | | | /  . . .| | #.| } < < < < 4 u.u.5.5.u.5 X * . >                                                                                                                                                                           ",
"                                                                                                                                                                # # # % ,  X`.^.`.^.^.^.^.^.^.8X6XvXvXvX.X3X3X3X3X8X8X8X7X5XXXXXXXXXXX9X7X7X8X8XXX^._. X X% O o X & ` ` 2. .P X + + . X s.T.T.'.'.h.T.].T.T.zXxXmXhXjX< O o o . -XaXaXaXaXaXaXaXaXaXgXgXgXgXaXaXgXgXgXgXaXaXaXaXaXaXgXhXgXgXhXgXjXjXjXjXjXhXgXsXsXiXsXuXaXGXDXKXKXJXJXJXLXJXKXKXKXKXKXKXKXJXLXLXJX# o o o . * X % X X X o . . . . . X X & -.=.&...O.O.O.....| | ..................| &...:.&.n b z z e G G G c A G D J W W - . . . $ d c b l b ..| | | #.| | ....#.$.#.} @.^ 2 x x c z A A x c w . . . . . . . . X X O X X X X 3.4.4.4.7.h.g.g.T.W.T.'.W.'.'.2 1 6 t 2 #.X. .o.O.Z.Z.M.M.M.M.M.;.M.M.M.M.M.M.M.Z.M.M.M.:.N n v G N ....| | | | | |  . .| | #.| } < < < 6 4 u.u.u.i.7.; X X O O                                                                                                                                                                           ",
"                                                                                                                                                                O O O % &  X`.`.^.^.`.`.^.^.`.bXvXbX6X6X3X3X3X3X3X7X7X5X7X5X`.`.XX^..X8X8X8X7X7X^.`.`._. X, % X X % ` |  .} P X . . X X a.'.|.|.'.T.T.W.W.R.xXsXmXsXjX5 o # . o -XaXfXaXaXaXgXfXaXgXaXhXhXaXgXaXaXaXaXaXaXaXaXaXaXgXgXgXgXgXgXgXhXhXjXjXjXhXgXgXaXgXaXgXaXGXGXFXGXGXGXGXGXGXFXFXPXFXFXFXFXGXJXJXKXO . o . . o . . . . . . . . . o . X % % t.%.&.X.............( #.#.| &...*.o.o.O.S.*.*.=.=.n v c c c D G D S S U U U K W ; o . % % J D S c z #.| | | | ........| | | } @.@.e x x S c c c c c e X . . . . # o . . . . o . . . 3.' ' ' 5.g.z.g.T.T.g.T.g.'.'.4 w 7 r 7 $.*./ o.o.Z.B.B.B.M.M.M.S.M.M.M.M.M.M.M.M.M.M.;.B.n M S G N | | | | | | | | | } | } } ` ` < < < < 4 r.u.u.i.u.5 X o o #                                                                                                                                                                           ",
"                                                                                                                                                                o . o % &  X(.`.`.`.^.`.`.`.`.bXvXnXvXvX3X3X3X3X.X7X7X5X5X5X`._.XX^.XX7X7X8X7X7XJ.`.`._. X, % X X X Q } ~ @.[ X . . . X a.].|.T.'.'.'.W.T.R.dXzXmXsXMX: o o O o -XaXfXaXfXaXaXaXaXaXaXaXaXgXgXaXaXaXaXsXgXgXgXgXaXgXgXgXgXgXgXgXgXgXgXhXhXhXhXhXgXgXaXaXaXDXFXFXFXFXFXFXFXFXFXDXDXDXPXFXFXGXJXJXFX> o . > o . o o o o o o o o . . . X X < %.p.#.$.....#.| #.} } [ %.#.$.| ..O.o.o.*...*.=.=.M v z z z c S S S ! ! U U K W ; X o X % J a c c z #.| | | | | ......| | | | } R 2 e e c x x A S c c X X X X . o . . . . . o . o o 3.[ ' [ 5.g.z.z.T.g.'.].'.'.g.4 4 6 w 1 $.&.*.o.o.V.M.B.B.M.M.M.M.M.M.M.M.M.M.M.M.M.M.;.B.n M S G N | | | | | | |  .#.| | } } R R < < < < < r.i.u.u.9.5 X o o #                                                                                                                                                                           ",
"                                                                                                                                                                > o o X %  X(.`.`.^.~.(._._._.nXnXnXbXbX.X_._._..X7X7X5X7X5X`._._.`..XvX7X5X5X5XJ.^.`._. X& X . o O [ %.@.[ W . . . . X i.'.'.T.h.'.T.h.R.{.pXzXmXgXgX5 O . O o wXlXaXaXaXaXaXaXaXfXaXaXaXaXyXgXaXaXaXaXaXgXgXgXgXgXgXgXgXgXgXgXhXgXgXgXhXgXhXhXaXaXgXgXhXDXFXFXFXFXFXDXDXDXDXDXDXDXDXDXFXFXKXJXJX# # # . o O # o o . . . . . . # o O . - a.[ t.%.%.%.@.[ [ [ [ [ [ T ` -.:.*.*.*.:.*.*.| #.b b b b b c v v ! U M M U U P < O o X X a a y x 9 @.|  .| | ........| | | | | ^ b v x S c e x x x e X X X * - o o # . . . o . o . 3.' ' [ 5.h.z.T.'.g.'.g.g.T.h.u 4 1 7 z -.p.:.| ;.C.B.Z.M.M.M.Z.M.M.M.M.M.M.M.M.M.M.M.;.B.n M v G N | |  .| | | | / | #.^ } } } ` = < < < 4 ] r.u.i.u.5 X X o #                                                                                                                                                                           ",
"                                                                                                                                                                @ . . . % E.(.`.^.A.Z Z Z Z ( _._._._._.( ( ( ( ( ~.^.J.^.~.Z Z Z Z Z ~.^.^.J.^.^.`.`._.{.& X . . . X X % % X . . . . . ' ] ] ] ] h.].'.W.h.r.] [ 4.9.# . o . . W 8.8.w.6.6.8.6.6.3.4.4.9.9.u.yXaXaXaXgXgXgXgXgXgXgXgXgXhXgXgXgXgXgXgXgXhXgXgXgXhXgXhXaXaXhXhXgXgXgXgXgXgXgXgXgXgXhXjXjXjXjXjXjXjXGXKXLXLXLXLXFXKXKXKXKXKXKXKXKXPXKXLXLXDXX * X % % % % X X X X % % % = v M M n N | X.*.$.=.| $.| } } } #.#.=.=.N N E U T < O o X X s y y e 9 @.| | | | ......X.| | |  .| | Y ^ #.%.@.S S S S S J a f f p O . . . . . . . o . 3.4.[ ' ' [ [ [ [ ] T.T.T.'.].h.g.'.{.T.x z b b l B.M.M.M.M.M.B.B.M.M.M.M.M.M.M.M.M.M.;.B.n M v G N | |  .| | | | | &.} b l 2 3 3 7.5.] ] [ 7.5.u.9.u.5 X X o #                                                                                                                                                                           ",
"                                                                                                                                                                @ + . X % {.(.^.^.A.Z Z ( ( (  X.X_._._.( ( ( ( ( ^.^.^.`.^.Z / C Z Z (.^.^.^.^.^.`.`._.{.& X $ + . . . X X . @ . . . o ' 5.] ] 5.g.'.T.T.T.] ] u.9.6.> . . . . 3.q.9.8.8.9.9.8.q.8.9.0.8.6.8.hXaXgXgXgXgXgXgXgXgXgXgXgXgXgXgXgXaXaXaXgXgXgXgXgXaXaXgXaXgXgXgXgXgXgXfXfXgXgXgXgXgXgXjXgXgXgXgXgXjXJXFXKXFXGXFXKXGXFXFXFXFXFXFXFXJXJXJXJXFXo - X X X o o o o o o X X % & G G M N N &.&.&.| |  .| | | } | | | ..&.C C ~ Y Q < * X . . s u t e 2 } | | | | | | | | | | | | | ..| &.$.$.@.c x c c c a a a d s * . . . . . . . . . 3.' ' [ ' [ [ ] ] [ T.T.T.h.g.g.'.R.R.{.c F e z b :.;.M.Z.M.M.B.B.M.M.M.M.M.;.M.M.M.M.;.B.N M v m n } |  .| | ....| | | b 9 9 e 9 [ [ [ 5.5.5.[ 7.7.9.q O O O >                                                                                                                                                                           ",
"                                                                                                                                                                . . . . % E.)._._.~.Z C / ( (  X_._._._.( ( ( ( / (.^.^.`.(.C / ~ C C (.(.^.^.^.`.`._._. X, X . . . o X . o o . + . . X ' 7.[ [ ] '.].T.T.'.%.r.4.8.q.> # . . . W 8.8.8.q.8.8.w.w.w.8.8.8.9.8.fXgXgXgXgXgXgXgXgXjXjXjXjXjXjXjXjXjXgXgXaXaXaXgXgXaXgXgXaXgXaXgXgXgXgXgXgXgXhXjXjXgXgXjXjXjXjXgXgXfXJXFXJXJXDXLXFXGXGXGXFXFXFXFXKXFXFXGXGXFXo O o o o . . . . . . X X X * K G G U N #.=...| ( | | } } } | | ..X.*.C C ~ Y Q 5 * X o . s u t w 2 $.| | | | | | | | | | | | ..| ......#.$.v v v A c S D a a a X X . . o . . . . . 3.4.4.4.[ [ [ [ [ [ g.h.g.T.T.T.g.R.W.{.e t y e 9 :.B.Z.C.Z.Z.V.B.S.M.S.M.;.;.M.M.M.M.;.B.N M v v n } | | | | ....| | $.b e e w w [ 7.7.5.5.7.5.7.9.9.5 o . o >                                                                                                                                                                           ",
"                                                                                                                                                                . . . X & E. X X).E./ #.( ( (  X_.`._._.( ( ( ( / (.^.^.`.(.C ~ C ~ Z (.(.`._..X.X`._._. X8 % % X . . o . o o . . . . O ' u.7.7.] '.].'.'.'.7.7.9.9.q.# o . . @ W 8.8.8.q.8.8.8.9.8.8.6.w.q.q.aXfXgXgXgXgXgXgXgXjXgXhXhXjXjXhXgXhXgXaXaXaXaXaXgXgXgXgXaXgXgXgXgXgXgXgXgXgXgXgXhXgXgXgXgXgXgXgXgXfXFXLXFXFXJXFXGXFXFXFXFXFXFXFXGXGXGXGXJXGX. . . o $ . . . + $ $ X X X = L K K U U #.#.@.#.^ @.^ ` @.@.@.#.$.&.*.~ ~ ~ Y [ < % X . . p 0 r w 9 $.| | | | | | | | |  .| | .. .....X...=.v v v c c c S c y a % X X X o . . . . . 3.3.3.4.[ [ [ [ [ P h.T.T.g.h.T.T.W.R.W.c y t w c p.:.B.V.Z.B.V.B.S.S.M.M.;.;.M.M.;.M.B.B.M M v v v } | | | | ......| $.b x y t w [ u.7.] 4.4.4.4.4.6.5 O o # :                                                                                                                                                                           ",
"                                                                                                                                                                    p p 4 |.E.E.E.R.! R E Y /  X`.^.`.(./ / / / Z (.^.`.`.(.Z C C / Z E.L.(.(.^..X`.`.(. X3 8 < 5 < . . o o . > > > - ; W 5.] 5.] '.'.T.'.z.[ ' ' ' 3.: : : # > 3.9.8.8.8.8.8.8.w.6.8.q.8.8.w.yXlXlXaXaXaXaXaXaXfXaXaXaXfXaXaXaXaXaXaXaXaXaXaXgXaXgXgXgXhXgXgXgXgXgXgXgXgXgXhXhXhXhXgXgXgXgXgXgXgXSXSXDXSXSXSXDXSXSXSXSXSXSXSXSXDXDXDXDXFX: 5 : : : : : : : : : : q q 0 J a a D c Q Q T T G U G P T T Q Q @.#.#./ ~ ~ Y Q < X . . . p 5 4 6 2 $.#.| | | | | | | | }  .| ....*.X.&.&.=.v v S A A c S c t A % % X X . . . . . . 3.W W ' ' [ [ 4.Q [ h.g.g.g.T.T.T.T.T.[.F F A c c p.>.:.:.;.;.Z.M.S.S.M.M.;.;.M.M.M.M.:.B.n M v v v } | | | | | | X.| $.z e y r r 5.7.5.5.4.' W ' ' 3.h p p                                                                                                                                                                               ",
"                                                                                                                                                                          * % & = & , = & , ,  X^.^.(.(.Z / / ( Z _.^.^.`.`.~.(.(.E.E.Z Z Z ( ( _._.`.(.(.(.E.E.|.|.X . X . # q.q.q.q.q.9.5.7.5.] '.'.'.'.].% X X X o k.v.v.b.l.l.l.l.l.l.l.l.l.l.l.l.v.x.x.x.8.8.8.8.8.8.8.8.8.q.8.q.q.q.q.q.q.9.9.k.aXaXgXaXfXfXgXhXhXhXhXhXhXhXgXgXgXgXhXjXgXjXjXgXgXgXgXgXgXaXfXfXfXgXgXgXgXgXgXgXgXgXgXgXgXjXgXjXjXgXJXKXJXLXJXKXKXKXKXJXJXKXKXJXSXO # X X X X X X X X X X X X X % % & , , Y Y Y R Q = X . . . . X X % % -.#.#.| | ..| | ..} | | | ......&.X.#.=.v v A c A c c c c c y a a d d . . . . . . X . . ; 4.4.[ [ [ g.g.h.T.T.W.T.T.T.W.T.T.T.W.T.2 e 9 l V ..Z.M.S.o.S.M.;.M.M.M.M.;.;.:.M M v m M } } |  ./ |  . .$.%.< 1 < 4 5 { 7.7.7.7.X . . . .                                                                                                                                                                                     ",
"                                                                                                                                                                          ; . X * O - - = % 8  XJ.^.^.~.Z / ( ( ( (.`.^.^.^.`.~.(.~.(.Z Z Z ( ( _._.`.(.(.(.(.~.E.|.% X X X * a.q.9.0.9.5.5.4.5.%.'.'.'.].}.% X X o . n.v.v.x.l.l.l.l.l.l.l.l.l.l.l.k.x.l.l.x.8.8.8.8.8.8.8.8.8.8.8.8.8.8.8.8.8.9.8.f.aXaXgXfXgXgXgXhXhXhXhXhXhXgXhXjXjXjXgXhXgXhXhXgXgXgXgXgXaXaXaXaXaXfXgXgXgXgXgXgXgXgXgXgXgXgXgXhXgXfXJXJXGXGXFXFXFXFXFXFXGXKXJXLXIX# o . o . . . . . . . . . . . X X % % & Q R T U P = X . . . . X X % % %.%.#.#.| ........| #.| | | ....X.X...=.n S S c A c c c c c c A A a f . . . . . . o . . - 3.3.[ [ [ z.'.g.T.g.T.T.g.T.T.T.T.W.W.T.w w 2 9 l | ;.M.+.S.M.M.M.M.M.M.M.M.;.:.n M v v b ^ } | | | X.| | @.` < < 4 < q 7.u.7.7.7.X . . . .                                                                                                                                                                                     ",
"                                                                                                                                                                          # . # X # @ O - * , {.J.~.~.L.Z / / ( O.(._.`._._.`.^.^.^.(.Z Z / ( ( _._.`.^.~.~.~.~.E.E.% X X X % a.q.9.0.5.e.5.7.0.r.'.'.].].}.X X . o . n.b.b.x.l.l.l.l.l.l.l.l.l.l.x.l.l.l.x.x.8.8.8.8.8.8.8.8.8.8.8.8.8.8.8.6.6.3.3.a.gXfXfXfXfXfXgXgXhXhXhXhXhXjXjXhXhXgXgXjXjXgXgXgXgXgXgXgXaXaXaXaXaXsXsXgXgXgXgXgXgXgXgXgXgXaXgXgXgXaXJXJXGXJXJXGXGXGXGXGXJXKXLXLXVX# o . o o . . . . . . . . . . o o X % % P T K F K * . . . . . . X X % %.%.@.#.#.| | ....#.#.| #...........&.=.n v v c A c c c c c S A D a a . . . . . . . . . - ' 3.3.' ' z.z.T.'.g.T.T.z.'.T.T.T.W.W.T.w w w e 9 $.;.M.;.;.;.;.;.M.o.M.M.M.;.:.n M v v M #.| } } } / ^ } } [ 1 < 4 < q r.u.u.7.0.X . . o .                                                                                                                                                                                     ",
"                                                                                                                                                                          . > . # . # > . = , {.P.(.(.E.~ N / ../  X X X_._.^.`.^.`.`.Z / / ( (  X_.`.^.^.^.^.~.E.E.% . X . % a.a.9.7.e.e.e.7.0.%.'.'.].].}.X X . o . n.b.x.l.x.l.l.l.l.l.l.l.l.l.x.x.x.l.x.l.8.8.8.8.8.8.8.8.8.8.8.3.3.3.3.3.3.6.3.9.fXfXfXgXjXjXhXjXjXjXjXjXjXhXhXjXjXjXjXhXgXgXgXgXgXgXgXsXsXsXsXaXaXgXgXgXgXgXgXgXgXgXgXgXgXgXjXfXfXfXGXGXGXGXGXGXGXGXGXGXJXLXLXJXSX. . o . o o o o o $ $ $ . . . . . . X X J P K J L : . . . o o o X X % u.[ @.@.#.|  .| ..| | | ..........&.=.&.v b v v c c c c c c c c A a d X . . . . . o . . > W 3.3.' [ z.z.'.].T.'.T.'.'.T.W.T.W.T.g.4 w r 4 3 $.&.X.;.;.;.X.;.M.M.C.M.M.;.:.n M v G N | | } } | } } R ` %.< < < 4 5 r.u.7.7.9.X . X o .                                                                                                                                                                                     ",
"                                                                                                                                                                            > # $ : # > > X & {.E.E.R.R.Q Q ^ #.#.1X X1X X X_.XX^.`._.Z ~ / ( ( _.`.^.~.^.^.^.^.~.E.% . o . * a.u.7.7.e.e.e.{ 0.%.'.T.].].}.X . . o o n.b.x.l.x.l.l.l.l.l.l.l.l.l.x.x.x.l.x.l.q.8.8.8.8.8.8.8.8.3.3.3.3.3.3.3.3.3.6.f.fXhXhXhXhXjXjXjXjXjXjXkXkXMXhXMXhXgXgXhXjXgXgXgXgXgXgXgXaXgXgXaXaXaXaXgXgXhXhXhXhXhXhXhXhXaXgXaXgXjXDXFXFXFXFXFXFXGXGXGXGXGXJXJXVX; . . X o o o o o o o o . . . . + o o $ J W J a s ; . . . . . . o X * ' 5.] [ @.=.&.| ..| | ............| ..| n b b b b c c c c c c c A a D X X . . . . . . o : W 3.w.w.4.}.'.'.'.h.'.g.g.T.T.T.T.T.g.h.w 4 4 1 e ` >.p.;.*.V.*.;.;.o.;.M.M.;.:.n v v G n | | | #.$.Y T [ T [ < < < 4 4 r.u.7.7.9.O X o o o                                                                                                                                                                                     ",
"                                                                                                                                                                                              K 3 < < < % & , , & < < , 8 k `.`.XX_._.Z ~ / ( ( `.(.~.^.^.^.^.P.(.E.% . . . * a.u.7.7.e.e.e.{ { ] T.T.'.].}.X . . . . q.x.l.l.x.l.l.l.l.l.l.l.l.l.x.x.l.l.x.x.k.k.k.k.k.k.k.k.k.k.k.k.k.k.k.k.k.a.k.a.a.q.a.f.q.f.f.f.f.f.f.k.k.f.f.gXjXjXhXhXhXgXgXgXgXaXaXaXaXgXgXsXsXaXaXgXgXgXgXgXgXhXhXhXhXjXhXgXaXaXgXaXaXaXaXaXfXgXgXgXgXjXhXhXjXhXMXkXjXkXkXkXkXkXkXkXkXIXkXkXkXkXkXkXMXX X X X * X . $ . . . . o o . ; X X % , R | | ....................*.&.| | | } ^ c c c c c c c A A D X X . . . . . . . . # o O O - 4.5.u.i.u.'.'.T.T.T.T.T.T.g.g.h.j.h.g.d.G 2 2 l l X.&.:.B.M.Z.S.M.;.:.n M v G N &.$.#.@.} z 9 2 1 6 K ' [ [ [ r.r.r.7.9.* X o o $                                                                                                                                                                                     ",
"                                                                                                                                                                                              5 X X . . . X X X X X + o % 8  X`..X_._.( / / ( ( ^.^.^.^.^.^.^.^.(.E.X . o . O a.0.7.7.r.e.e.{ { %.T.T.'.'.].X . . . . q.x.l.l.l.l.l.l.l.l.l.l.l.l.l.x.l.l.x.x.x.x.x.x.x.x.x.x.x.l.k.k.k.k.k.k.l.l.v.k.w.3.6.3.3.w.w.w.3.3.w.w.3.8.w.kXjXjXhXhXhXgXgXgXaXaXaXaXaXgXgXgXgXgXgXgXgXgXgXgXgXgXgXgXgXhXhXhXsXaXaXaXaXaXaXaXgXgXgXhXhXaXfXgXjXJXJXJXJXKXJXKXKXKXKXKXKXGXGXJXKXKXKXKXKX- X X . . . . $ o o # . . @ . . . X X % %.$.&.X.X.........O...../ ......&.&.|  .c c c c c c c A A D X . . . . . . o o o o . X $ X 4.4.5.] ] g.g.T.T.T.T.'.c.c.z.T.h.h.R.T.y 4 w k k :.:.:.;.;.;.S.S.;.B.M M S S n | #.#.#.@.2 1 1 < < r.i.i.7.7.r.r.r.u.9.* o o o $                                                                                                                                                                                     ",
"                                                                                                                                                                                              0 . . . + . . . . . # . $ X ,  X_..XoX X( / / ( Z ^.^.~.~.~.~.P.P.(.E.X . @ + O a.0.7.7.r.e.%.{ { %.T.T.'.'.].X . . . . q.x.l.l.l.l.l.l.l.l.l.l.l.l.l.x.x.l.l.l.x.l.l.x.x.x.l.l.l.l.l.l.l.l.l.l.l.l.l.l.w.8.8.3.8.3.3.w.3.3.3.3.3.8.3.kXjXjXjXhXjXhXhXgXgXaXgXgXgXgXgXgXgXjXgXgXgXaXgXgXgXgXgXgXgXhXgXjXaXsXsXaXaXaXaXaXgXgXgXgXgXgXaXaXjXJXKXFXKXJXJXKXKXKXKXKXKXJXJXJXKXKXKXKXKX- . . X . o . + o . o . . . . . . X % % %.@.| &.o.o...O.........X.*.....&.X.|  .F c c c c c c S A D X . . . . . . . . . o o o X X 4.4.4.5.r.'.T.R.T.T.g.z.c.z.g.g.W.R.R.'.y 0 r k k :.:.;.;.M.M.S.S.;.B.N U S S N &.$.$.$.%.9 1 1 6 < ] 7.[ 7.7.%.r.7.u.9.* $ $ o $                                                                                                                                                                                     ",
"                                                                                                                                                                                                . . . . . . o o . . . X % < :X X_._. X( ( ( ( Z (.(.(.E.P.P.~.~.|.|.& % X O O a.9.7.r.r.e.5.7.7.-.T.W.].z.c.O . o . . q.b.l.k.l.l.x.k.l.l.l.x.l.l.l.l.l.l.l.x.x.v.x.l.l.l.l.l.l.l.l.l.l.l.l.b.b.v.v.l.q.q.8.8.6.8.6.w.w.w.w.w.w.8.6.kXjXjXjXgXfXfXaXaXaXaXfXgXgXaXgXaXhXjXjXaXgXaXhXgXgXgXgXgXaXgXgXsXsXaXaXaXaXgXaXhXaXgXgXgXhXhXaXgXjXJXGXGXGXGXGXGXGXGXGXKXGXGXFXFXFXFXDXDXFX# o . . . . . o $ $ @ @ + + . . . . X X r.%.%.$.=.=.#.#.| | | | } $.| | | #.=.^ b v v v v c c S A D X X . . . . o . o $ . # o # O 3.6.4.[ 5.'.z.g.'.'.g.g.g.g.g.T.T.h.z.'.u r r z 1 p.p.:.B.B.;.;.;.;.B.n M M M Y $.$.$.@.@.y 4 6 0 < 5.] 7.%.] 7.0.7.a.8.- - X # .                                                                                                                                                                                     ",
"                                                                                                                                                                                                o o o O # # # # > # - * = 6 |. X1X X X( / / ~ / E.E.E.L.E.E.E.E.|.|.% % O O O 0.9.7.e.r.e.5.7.7.] ].g.'.].c.. . . . # q.k.l.l.l.k.x.l.k.l.l.l.x.l.l.l.l.l.l.l.l.k.x.k.x.l.x.l.x.l.k.k.k.l.l.b.b.x.x.k.q.q.8.8.8.w.w.3.3.w.8.8.w.3.q.fXjXhXfXfXfXaXaXaXaXaXaXaXaXgXaXaXaXgXhXkXjXjXjXgXaXgXaXaXgXgXgXsXaXaXaXaXaXaXaXaXhXhXhXhXhXgXaXhXjXGXGXGXGXFXFXFXFXFXFXFXFXGXGXFXFXFXDXDXFX- O O O # # # # > > > > > # @ # # O X * e.t.%.%.%.%.%.@.@.@.@.@.[ R R @.@.[ [ R b v v v v x c S D D X X X . . . o . o $ # . o . . 8.8.4.4.[ '.z.z.'.h.'.T.g.h.h.g.T.g.T.g.F u 0 7 c t.p.p.&.B.*.M.;.;.B.n M M M N =.=.%.%.Q 6 < < < 4 [ ] 5.] 7.7.4.9.a.9.- $ - #                                                                                                                                                                                       ",
"                                                                                                                                                                                                                            < , & & , % = & X % % % % % % % % & , , = X . o o f.9.7.%.e.e.e.7.7.%.r.] 5.4.0.. . o . . @ o . . o v.eXrXeXrXeXeXrXeXeXeXeXeXeXrXrXyXrXeXeXv.x.l.k.l.l.l.l.x.v.v.v.l.v.x.x.x.v.x.x.l.l.l.l.x.x.x.x.v.k.q.8.w.3.8.3.3.3.3.3.4.6.4.4.4.9.0.a.a.0.JXGXGXGXDXjXhXgXaXgXgXgXgXaXaXaXaXfXhXhXfXaXgXfXfXhXjXgXgXaXhXgXaXaXgXgXgXgXfXfXgXgXaXaXfXfXaXaXaXfXLXLXLXLXLXLXLXLXLXLXLXLXLXLXLXLXLXLXJXGX* % % & % % % % % % % X X X X X X X X = ^ } @.} @.v v c a a X . . . o . . # o g LXLXJXLXFXX . . X X 4.4.[ [ [ h.h.g.h.T.h.T.h.g.'.g.'.].|.|.e 2 l l k X.| | | &.b M n M M 2 3 1 1 2 P 5.7.[ 5.5.5.7.5.r.O * O O ;                                                                                                                                                                                               ",
"                                                                                                                                                                                                                            < % - O # X O o . . . . . . . . . X % & X X # . O 8.9.5.e.r.e.e.7.7.r.] ] [ 9.4.. . o . . . . . . o k.wXeXeXrXeXeXrXeXeXeXeXeXeXeXeXwXwXrXwXv.k.l.x.l.l.l.l.l.l.l.l.l.x.l.v.x.x.k.k.l.l.l.l.x.x.x.x.v.v.6.8.8.6.w.3.4.4.6.w.4.6.6.6.9.4.a.9.a.a.JXGXGXGXDXaXaXgXaXaXgXgXaXaXaXaXfXfXaXaXjXaXhXhXgXhXgXaXgXhXhXhXhXhXgXgXgXgXgXgXgXhXgXgXgXgXfXfXfXfXJXKXKXJXKXKXKXJXJXJXJXJXJXKXKXKXKXDXDXDXX X % % . . . . . . o o o . o . . . . > } } #.@.@.c x t F D X X . . . + . . o 3.LXJXLXKXKX. . * . % 4.4.[ [ [ g.g.g.h.T.T.T.g.h.g.z.g.'.T.T.2 v l l k  .| | | &.n M M U U 3 9 e < < ` [ [ [ 5.[ [ 4.7.7.O X X ; O                                                                                                                                                                                               ",
"                                                                                                                                                                                                                            O ; - O o . . . . . . . . . . o O O * - O . . . . q.0.5.e.e.e.e.r.7.] ] 4.' 8.3.. . . . $ $ o o o . k.eXrXwXeXwXeXrXeXeXwXeXeXeXeXeXeXrXwXwXv.l.k.k.l.l.l.x.x.x.x.x.l.x.l.l.l.x.l.v.k.l.l.l.l.x.x.x.l.v.w.8.3.6.3.9.w.6.w.6.6.8.6.8.4.a.8.q.a.a.FXJXJXFXSXaXaXaXaXgXgXgXgXgXgXgXgXfXgXaXgXgXaXfXhXaXgXgXgXhXgXgXgXgXgXhXhXhXhXhXhXhXgXgXgXgXgXgXfXfXGXKXJXJXJXKXKXKXGXGXGXGXJXJXKXKXKXDXDXSX. . X . . . . . o @ o @ @ . . . . o . # } ^ } R @.c S F a s X . . o . + o o . g LXLXKXKXSX. o . X X 6.3.' [ [ h.h.h.h.h.g.T.T.T.T.'.g.T.'.'.x 2 9 z b $.} | #.$.n m m U m e e 1 w w [ ] [ 4.4.4.4.4.4.4.O o o O :                                                                                                                                                                                               ",
"                                                                                                                                                                                                                            - O O O # O o o . . . . . o o O O O # . o . . . o 6.0.5.e.t.e.e.r.7.4.7.4.[ ' 8.o . $ . . . . . . . k.wXeXwXeXeXeXeXeXwXeXeXeXeXeXeXwXwXwXrXl.x.k.k.k.l.l.x.x.x.x.l.l.l.l.l.l.l.k.k.l.l.l.x.x.x.x.x.v.v.8.8.8.q.3.w.8.8.8.8.8.9.8.9.q.w.q.9.a.a.JXKXJXGXSXaXaXaXaXgXaXgXfXgXgXgXfXfXaXgXyXgXhXfXgXgXgXgXgXhXaXaXgXaXgXhXhXhXhXhXhXgXaXaXaXaXaXaXfXaXGXGXKXKXKXKXKXKXGXGXGXGXGXGXGXGXFXFXDXSXO . . . . . . o o o o o o . . o . . o : @.@.@.[ Q x t t a s . . . $ . + . o o g LXKXKXJXJX. . o X . 4.' ' ' ' h.h.h.T.T.T.T.g.T.g.T.T.'.].g.e x e c l @.@.#.#.#.U m m U H w w 4 4 < ' ] 5.4.[ 4.4.' ' 8.. o # . :                                                                                                                                                                                               ",
"                                                                                                                                                                                                                                # O X o . . . . . o X O # - # ; > o . . . o . 6.7.5.e.r.e.r.r.7.9.4.3.3.8.3.. . . . . $ o o o . x.wXeXeXrXeXeXwXeXeXeXeXeXeXeXeXrXeXyXwXx.k.x.l.l.l.x.x.v.x.x.l.k.l.l.k.x.l.l.l.l.l.l.l.x.x.x.x.x.x.q.8.3.6.3.8.8.8.8.8.8.8.8.8.6.8.8.q.q.8.JXFXGXFXSXfXaXaXfXaXfXfXfXgXgXgXgXgXfXfXjXfXgXfXgXgXgXgXhXgXgXgXhXhXgXhXhXhXhXhXgXgXaXsXgXaXgXgXhXgXGXKXKXKXKXJXJXJXJXJXGXGXGXGXGXGXDXDXSXSX. . . . . . . X O X o o o O O O . . X O %.e.%.] [ D a s s s $ o . $ . . o . o g KXKXJXKXFXO . . . . 3.3.' ' W c.g.h.h.g.g.h.T.T.'.T.'.T.g.'.e y e z 7 %.%.%.%.%.U G G G F w w u w 4 [ 5.[ [ 0.' 6.6.w.8.# o o O                                                                                                                                                                                                 ",
"                                                                                                                                                                                                                                                                    o . . . . 6.5.5.e.r.e.e.r.7.9.. . . . . . o . . . . . . o . . o o . . . o . . . . o o o o . . o . . v.wXwXeXeXrXrXrXrXeXwXwXwXwXv.k.l.k.l.l.l.l.x.x.v.v.v.x.v.v.l.l.x.l.l.l.l.l.l.l.l.l.l.l.l.l.k.l.x.l.8.w.6.w.3.w.6.6.6.w.6.w.6.8.9.9.8.8.8.8.DXFXSXDXSXaXaXgXgXaXgXaXgXgXgXhXhXhXhXgXgXgXaXsXgXaXgXgXhXhXjXjXjXhXjXjXjXjXgXgXgXgXgXgXgXgXgXgXfXfXFXKXKXKXJXJXJXJXJXJXJXJXJXJXGXGXGXJXFXMX% % X X X X X % X * . o . o . $ . o o h KXKXKXKXJXLXLXLXLXKX. . . . . [ [ [ ] ] g.g.g.T.T.g.'.T.T.T.g.T.'.h.R.e 7 e x c e y c c F r.i.r.r.] u.[ 7.4.' . . . . .                                                                                                                                                                                                         ",
"                                                                                                                                                                                                                                                                    . . . . . 9.5.5.e.5.5.r.7.7.8.o . . . . . . . . . . . . . . . . . . . . . . . . o o . . . . . . . o k.eXwXwXeXeXeXeXwXwXwXwXwXwX}.l.l.k.x.l.x.x.x.x.x.x.v.x.x.l.l.x.l.l.l.l.l.l.l.l.l.l.l.l.l.l.l.x.l.l.3.w.w.3.w.w.8.8.6.6.8.8.8.8.8.8.q.q.q.8.JXDXDXDXFXaXgXgXgXgXgXgXgXgXgXhXhXgXhXaXgXgXaXaXgXhXaXgXhXjXjXjXjXjXjXjXjXjXjXjXhXhXhXgXgXgXaXgXfXfXFXFXPXKXJXKXKXKXKXKXJXKXJXJXJXFXKXJXDXkXX X X X . . . . X X o o o . . . . o . p LXKXKXLXLXLXLXLXLXPX. . . . . 4.4.' [ 5.g.g.g.g.'.T.T.T.g.T.h.g.'.g.T.w t e t t y t c c F r.u.r.5.r.] 7.5.[ ' X . . o .                                                                                                                                                                                                         ",
"                                                                                                                                                                                                                                                                    . . . . X 9.5.5.5.5.5.7.7.5.8.. . . . . . . . . . . . . . . . . . . . . . . . . . . . . . . . . . . k.eXwXwXeXrXrXrXeXwXwXwXwXwXv.k.l.v.l.x.x.x.x.x.x.x.x.x.x.l.x.l.l.l.l.l.l.l.l.l.l.l.l.l.b.x.l.l.l.x.w.8.6.8.w.8.8.8.8.8.6.6.8.8.8.8.8.q.8.q.DXFXFXFXGXaXgXgXgXgXgXhXgXgXhXhXhXhXhXhXaXaXgXaXaXgXaXgXgXjXhXhXjXjXjXjXjXjXjXhXhXhXhXhXgXgXsXgXhXfXGXFXKXJXKXKXJXJXKXKXKXKXFXJXKXJXGXDXFXjX. . . . . . . . . X o o . . . . . o o h LXKXKXKXLXLXLXLXLXPXo . . o X 6.4.4.4.] z.'.z.T.'.T.T.T.g.T.g.g.g.h.'.t y t t t t t y y a i.i.r.r.r.5.5.4.[ 4.. . . . .                                                                                                                                                                                                         ",
"                                                                                                                                                                                                                                                                    . . . . X 9.5.5.5.] 5.5.5.5.8.o . . . . . . . . . . . . . . . . . . . . . . . . . . . . . . . . . . k.wXwXwXeXeXeXeXwXwXwXwXwXwXwXk.x.l.k.v.x.x.x.x.x.x.x.x.l.k.l.l.k.l.l.l.l.l.l.l.l.l.b.b.b.x.l.x.l.l.3.3.6.6.6.6.8.8.8.8.6.6.8.6.6.8.8.8.8.q.LXFXKXJXFXhXhXhXhXgXhXhXgXgXhXgXhXgXaXgXaXgXaXaXaXaXgXgXgXgXhXjXjXjXjXjXjXhXjXhXhXhXhXhXgXgXgXaXgXfXJXJXJXJXLXJXKXKXKXKXKXKXJXKXDXFXDXSXDXhX. . . . . . . . o o o o X . . . . . . h KXKXKXLXLXLXLXLXLXKXo . o . . w.4.4.4.u.z.z.z.T.T.T.T.T.g.h.g.T.g.T.'.w e w w t r t y y y i.e.e.5.u.u.5.5.5.4.. . X . .                                                                                                                                                                                                         ",
"                                                                                                                                                                                                                                                                    . . . . X q.5.5.] ] ] 5.5.5.8.o o . . . . . . . . . . . . . . . . . . . . . . . . . . . . . . . . # l.rXyXrXyXyXyXyXrXrXrXeXeXrXrXv.x.x.v.k.l.l.l.l.l.l.k.k.l.k.l.l.l.l.l.k.l.l.l.l.l.l.b.b.l.b.l.x.l.l.8.8.3.3.6.w.w.w.w.4.6.6.3.3.3.w.6.6.q.8.KXLXJXLXJXhXjXjXjXjXjXjXhXhXjXhXgXgXgXaXhXiXaXaXhXaXgXhXjXjXhXhXjXjXjXjXjXhXjXjXhXhXhXhXhXgXhXgXjXjXJXJXLXJXKXLXKXKXKXKXKXKXFXFXGXFXGXDXDXMX. . . . . . . . . . o o . . . . o . o h KXKXKXKXLXLXLXJXLXJXo o o o # 6.8.6.4.0.].].'.T.g.'.T.T.'.g.T.T.g.g.h.y u w t y w w r t y r.i.i.r.u.5.9.u.4.8.. . . .                                                                                                                                                                                                           ",
"                                                                                                                                                                                                                                                                    . . . . $ a.7.5.] ] 5.5.5.5.8.o o . . . . . . . . . . . . . . . . . . . . . . . . . . . . . . . . . . . . . . . . o . . . . . . j rXrXrXeXrXrXrXrXrXrXrXeXeXwXwXwXwXwXwX}.x.l.l.l.l.l.l.l.l.b.x.l.l.l.l.k.k.x.x.x.x.l.x.l.l.l.l.l.l.l.l.l.x.l.v.q.8.8.8.8.8.8.8.8.8.q.8.8.8.8.k.v.c.v.v.SXJXGXGXDXhXgXhXhXgXhXhXhXhXhXjXhXhXhXhXhXhXhXhXgXgXgXhXhXgXjXjXjXjXkXFXLXJXGXFXGXGXGXFXSXgXaXiXaXgXSXSXSXSXSXSXSXSXSXSXSXSXSXSXSXSXSXSXSXlXO o # O o # . # o . # o o o . . . . X X W W W [ ] h.g.T.g.h.g.g.T.T.].h.g.g.g.g.r.r.u.u.t.t.e.5.7.7.; X . O .                                                                                                                                                                                                                   ",
"                                                                                                                                                                                                                                                                    o . o X O a.0.5.] ] 5.5.5.e.8.o o . . . . . . . . . . . . . . . . . . . . . . . . . . . . . . . . . . o o . . . . . . . . . o O q lXrXyXyXeXrXrXrXrXrXrXrXeXrXrXrXeXrXeX-Xl.l.l.l.l.l.l.l.x.b.b.l.b.l.x.x.x.x.x.x.x.x.l.l.l.l.l.l.l.l.l.l.x.x.x.w.q.w.w.w.3.w.w.w.w.w.w.w.w.6.k.v.c.v.c.GXGXJXJXJXgXgXgXjXhXhXhXhXhXhXhXhXhXhXhXhXgXhXhXgXgXgXhXhXjXhXjXjXjXgXFXJXKXGXFXGXFXDXFXDXaXhXgXaXmXSXPXDXFXKXKXKXKXKXKXKXKXKXKXGXGXKXKXKXjX> # # o o # o . # o . . . o O o X . X X 3.' [ [ [ h.T.'.T.'.T.g.T.g.g.T.g.g.g.g.5.5.5.u.%.r.r.r.7.9.; * * O O                                                                                                                                                                                                                   ",
"                                                                                                                                                                                                                                                                    . . o # # a.9.7.5.] 5.5.e.u.q.X X X X . . . . . . . . . . . . . . . . . . . . . . . . . . . . . . . . . . . . . . . . . o o . . q yXyXwXyXrXrXyXyXyXyXrXrXrXrXrXrXrXrXrXwXl.l.l.x.x.b.b.b.b.l.l.x.v.x.l.x.l.l.l.x.x.x.x.l.l.l.l.l.l.x.x.v.v.v.l.q.6.6.6.3.6.3.3.3.3.3.3.3.3.3.f.x.x.l.c.GXJXJXJXLXjXjXjXjXhXhXhXhXhXhXhXhXhXgXgXgXgXgXgXhXhXhXhXhXhXhXjXhXhXkXKXJXKXKXKXGXFXJXFXSXaXgXgXaXhXDXDXGXKXJXKXKXLXJXJXKXKXKXKXKXKXJXKXKXkXo o o o o # . o . # . . o . . . o . . % 3.W ' ' [ z.'.'.T.T.T.T.T.W.g.h.h.h.g.g.] 5.7.u.%.%.] ] 7.9.: - # # #                                                                                                                                                                                                                   ",
"                                                                                                                                                                                                                                                                    . o o # - a.9.7.4.] 5.5.e.u.q.O O o o X . . . . . . . . . . . . . . . . . . . . . . . . . . . . . . o . o o . . . . . . . o o . : yXyXyXrXrXyXyXyXyXyXyXrXrXrXrXrXeXeXrX-Xl.l.x.v.v.v.v.b.b.v.l.l.l.l.l.x.l.k.l.l.l.l.l.l.l.l.l.l.l.b.x.v.v.v.}.6.8.6.8.6.6.w.w.w.8.w.3.6.3.6.f.c.v.l.v.FXJXJXJXLXgXjXjXjXjXjXjXhXhXhXhXhXhXsXaXgXgXgXgXgXgXhXhXjXhXhXhXjXhXjXKXLXKXJXFXFXFXFXFXDXfXfXaXhXhXDXFXGXJXJXJXKXKXKXKXKXKXKXKXKXKXKXKXLXkXo o O o o . # . o . o o . $ . o . X . X 4.' [ 4.[ z.'.z.T.T.'.T.h.T.g.g.g.h.j.g.[ 5.5.5.[ r.] r.7.9.5 # # # >                                                                                                                                                                                                                   ",
"                                                                                                                                                                                                                                                                    o # . - - a.u.5.] ] ] ] %.%.7.* * * O O . o . . . . . . . . . . . . . . . o . . . . . . . . . . . . . . . . . . . . . . . . . o : wXwXwXwXwXwXwXwXwXwXwXwXwXwX-XeXrXeXwX-Xf.k.z.x.x.x.x.x.l.k.x.k.k.l.x.k.x.k.k.l.k.v.l.l.l.l.l.l.x.x.x.x.x.x.x.8.8.6.3.6.6.6.6.6.4.4.4.3.3.3.x.l.x.}.l.DXLXKXLXKXkXjXhXkXjXhXjXhXgXhXgXgXfXfXfXgXhXaXhXaXhXgXhXhXjXhXhXhXhXjXGXJXGXGXGXFXFXFXFXSXfXaXaXgXhXDXFXGXFXJXJXJXJXGXGXJXGXGXJXJXJXKXJXKXkX# . O . . o o o o o . . O . o O . . # . 3.3.3.3.3.k.l.x.z.k.c.z.g.z.h.g.h.h.h.g.] ] ] 5.6.4.8.8.8.8.q # # >                                                                                                                                                                                                                     ",
"                                                                                                                                                                                                                                                                    # . : X : }.'.g.h.h.g.g.T.T.}.a 0 0 0 q . . . . . . . . . . o o . . . . . . . . . . . . . . . . . . . . . . . . . . . . . . # o . # . . # . . . . . . . . . . o rXeXeXtX-XeXeXrXrXrXrXrXrXeXwXwXwXwXwXwXwXwXeXwX}.l.l.k.l.l.l.x.x.x.x.x.x.x.x.v.l.l.v.l.l.l.l.l.l.k.k.k.k.k.k.k.v.l.l.k.w.3.8.8.q.w.8.w.q.q.9.q.0.9.u.c.}.}.-X}.DXDXDXFXLXgXhXhXjXhXgXgXgXgXjXaXaXjXaXfXFXFXFXPXFXSXSXSXSXSXfXfXgXgXjXhXhXhXjXgXgXjXgXaXkXGXKXLXKXFXSXPXSXSXSXSXPXPXPXSXSXSXSXPXFXSXSXPXPXkX# o . . o . . - X * W ' [ ] ] h.h.h.h.g.] [ [ [ 3.X X . - ;                                                                                                                                                                                                                             ",
"                                                                                                                                                                                                                                                                    . . . $ : }.].'.g.T.T.T.T.T.c.q u s h p o . . . . . . . . . . . . . . . . . . . . . . . . . . . . . . . . . . . . . . . . . o o o . . . O . . . . . . o o . o . wXwXeXeXeXeXrXrXrXrXrXrXrXeXrXeXrXrXeXeXrXeXrXeX-Xl.l.k.l.l.l.x.x.x.l.l.x.x.l.l.x.l.x.l.x.l.l.l.l.l.l.l.l.l.l.l.l.l.k.v.6.q.8.3.3.8.8.8.w.8.q.9.0.4.6.c.}.-X-XwXJXJXJXJXLXgXhXhXhXhXgXgXgXgXjXaXaXgXaXaXFXFXGXFXGXFXJXFXGXSXaXaXfXhXhXjXhXhXhXhXgXhXfXgXjXJXKXKXKXKXLXLXKXLXLXLXLXLXLXLXLXLXLXJXLXLXLXLXLXSX. @ o . # o . . . X ' [ [ [ [ g.g.h.h.g.5.5.5.5.3.. . O X X                                                                                                                                                                                                                             ",
"                                                                                                                                                                                                                                                                    o # . X 5 }.}.'.z.'.'.'.T.'.c.5 0 0 q : . . . . . . . . . . . . . . . o o . . . . . . . . . . . . . . . . . . . . o . o . o . . o o . . . . . . . . . . o . o o wXrXrXeXyXrXrXyXyXyXrXyXyXrXrXwXrXrXeXrXwXwXwXwXwXx.l.l.x.l.x.x.x.x.l.l.l.x.x.l.v.l.l.k.l.l.l.l.l.l.l.l.l.l.k.x.l.v.v.x.q.6.q.q.8.q.8.q.q.q.8.6.8.6.6.}.}.-X-XwXFXJXJXJXGXMXjXjXjXjXjXhXgXgXaXgXaXaXfXaXFXFXGXFXFXFXFXDXKXSXfXgXgXjXgXhXjXgXgXjXjXgXgXkXgXFXKXFXKXLXPXFXKXKXGXFXFXGXFXFXFXFXLXKXKXKXKXKXKXSX# @ o o . . . . X . 4.4.[ 5.[ c.g.g.g.g.7.4.4.4.3.. X . X o                                                                                                                                                                                                                             ",
"                                                                                                                                                                                                                                                                    . o . O q v.}.].].].].'.c.'.c.5 : 5 q q o . . . . . . . . . . . . . . . . . . . . . . . . . . . . . . . . . . . . . . . o X . X . . . O . o . . . . . $ $ . o . wXwXeXrXwXeXeXeXeXeXeXrXrXrXrXrXeXwXeXrXwXrXeXeX-Xl.k.k.l.l.x.x.x.x.x.x.x.x.l.k.v.l.x.x.x.l.l.l.l.l.l.l.l.l.v.l.x.k.v.x.q.q.w.q.8.q.8.a.q.q.q.q.q.8.6.}.-X-X-XwXLXJXJXJXLXjXjXjXjXhXhXgXaXaXgXiXyXaXfXaXFXPXFXKXKXGXKXFXJXDXaXgXfXgXgXjXjXjXhXjXjXjXgXjXgXJXKXKXDXFXFXKXDXFXGXGXGXFXFXFXFXGXDXFXKXKXKXKXKXSX. . o . . o . . . . 3.4.' 4.[ z.z.z.z.f.9.4.[ 4.3.. . . . o                                                                                                                                                                                                                             ",
"                                                                                                                                                                                                                                                                    # # X X : wX}.}.c.c.c.c.z.z.k.5 : : q : o . . . . . . . . . . . . . . . . . . . . . . . . . . . . . o . . . o o o . o o X X X X X . o o . . . . . . . . . . . o eXwXrXwXwXyXwXrXrXrXrXrXrXrXeXrXrXrXeXwXeXeXwXwXwXx.v.x.v.v.x.x.x.x.l.l.l.l.l.l.l.k.l.l.l.l.l.l.l.l.l.x.x.x.l.l.v.x.x.x.q.q.q.q.8.q.6.8.6.8.8.8.9.9.9.}.-X-X-XrXKXJXLXLXLXhXjXjXjXjXhXgXaXaXiXaXaXaXlXaXFXGXGXKXKXGXKXKXFXSXaXgXgXgXjXaXgXgXhXjXjXjXgXhXgXFXDXGXFXDXFXDXDXFXFXFXFXFXFXFXFXFXFXJXGXJXJXJXKXSXo o # . O . . . . X W 3.3.4.8.c.z.k.k.f.0.4.3.3.3.. . X o .                                                                                                                                                                                                                             ",
"                                                                                                                                                                                                                                                                              q 0 q 5 5 5 5 : : : . . . o o . . . . . . . . . . p p s s h s s s s s s s s s s s s s s s h s f s s s s s s s s s f s s s s p h h O . . . . . . $ # . : : : : : : : : : : : : j : q p : : : p wXeXwXwXwXwXwXwXwXwXwXwXwXwXwXwXwXwXwXwXx.l.x.l.x.x.k.l.l.l.l.l.l.l.x.x.k.x.x.x.l.k.x.l.k.l.k.k.k.l.k.l.l.k.k.x.v.v.x.x.k.k.k.x.x.k.k.k.k.f.f.f.a.q.9.jXSXSXSXSXFXFXGXGXGXFXKXJXFXFXSXDXSXSXDXjXgXjXhXjXjXhXgXjXgXMXjXhXjXjXjXjXMXjXjXjXjXjXjXjXjXjXkXjXjXFXJXKXJXFXkXkXkXkXkXp . . . . > # - - - 5 5 : : : - O O O q                                                                                                                                                                                                                                       ",
"                                                                                                                                                                                                                                                                              - * * O O O X X . . . o . . . o o . . . . . . . . p d g W L L L J W L L L L L L L d d L L L L L L L L W L L L W L d L d L f f g g # . . . . . . $ o o . o . o # o . . o . . o o o o O . o o . rXwXeXeXeXwXrXeXeXeXeXeXeXeXeXeXwXwXwXeXl.x.x.l.l.l.l.l.l.l.l.l.x.x.x.x.x.v.l.l.x.v.v.v.x.l.x.x.l.k.l.l.l.l.x.l.x.x.v.v.q.8.9.q.9.q.q.q.q.q.9.8.8.w.' VXJXFXFXGXFXFXGXFXKXFXKXKXDXJXFXFXFXFXGXfXaXjXjXjXjXjXhXhXgXaXhXgXgXgXhXgXhXjXhXhXhXhXhXhXhXhXgXgXhXJXJXGXJXKXKXJXKXKXLXp . o . o . . o o O O o X o o X . . . :                                                                                                                                                                                                                                       ",
"                                                                                                                                                                                                                                                                              # O O O X o . . . . . . . . o . o . o O o o . . . 0 s d d L d L W L L L L L L L L L L L L L L L L L L L L L d L L J d d d d d d g - . . . . o o o O o o o o o . . . . . . . . . o o . o o . o wXeXwXwXwXeXeXeXeXeXwXeXeXrXeXeXeXwXeXrXk.x.x.x.l.k.l.l.l.l.l.x.x.x.x.x.x.x.x.x.v.x.v.v.b.l.l.l.l.l.l.l.l.x.x.x.x.x.x.x.8.8.8.q.8.q.q.q.q.q.q.8.8.8.3.SXGXGXJXGXGXGXFXFXPXFXKXKXFXKXGXFXJXFXJXgXaXgXjXjXgXgXgXjXaXgXgXgXgXgXgXgXgXgXgXgXgXgXgXgXhXjXhXjXgXLXFXLXGXLXGXFXFXLXKXp . . . $ o . # . o o . X o o o . . . :                                                                                                                                                                                                                                       ",
"                                                                                                                                                                                                                                                                              # O O o . . . . . . . . . . o o o @ # O # # O o o p d d d L J L J P P P L L L P P P P P P L L P L J I F J L L L L J d d d L d d g * . . . o o o o . o X o o o O # o . . . . . . o . . . . o . wXwXwXwXwXeXeXeXrXeXrXeXyXwXwXwXrXeXwXeXk.l.k.l.k.l.x.x.x.x.x.x.x.v.x.x.x.x.x.v.v.v.v.v.b.l.l.l.l.l.l.x.x.x.x.x.x.x.v.v.8.8.8.q.q.q.q.q.q.q.q.q.8.8.6.SXJXGXGXJXGXDXFXFXFXFXKXKXKXKXFXJXJXFXGXfXjXgXjXjXjXjXhXgXaXgXgXhXhXhXjXhXjXjXgXgXhXgXgXgXhXjXhXjXgXJXGXLXFXGXFXJXFXJXLXp . . . . . > o # O o o o o o o o . . >                                                                                                                                                                                                                                       ",
"                                                                                                                                                                                                                                                                                  > O O o o o o o o o > . # # # # # . ; # O . . 0 s f s f L P P H H H H H H H H P J I I I I I I P P I I L L f a d f d J J d d d * X X X O O O O O O - # # # O . o . . . . . . o . o . . . o v.wXwXwXwXwXrXrXrXrXrXwXrXeXeXyXeXeXwXwXx.x.k.k.k.k.k.l.l.l.l.l.x.x.v.x.v.v.x.v.l.l.v.b.l.l.l.l.l.l.l.x.x.x.x.v.v.v.x.x.8.8.3.w.3.8.8.8.8.8.8.8.6.w.3.kXKXJXKXKXFXFXPXFXPXFXFXFXGXKXJXSXDXLXFXjXaXjXgXjXaXgXgXgXaXgXgXhXhXhXjXjXhXhXhXgXgXgXgXgXgXgXjXjXjXFXGXLXGXGXGXFXFXLXLXh o O # @ # o # . # @ O O O O o o o o                                                                                                                                                                                                                                         ",
"                                                                                                                                                                                                                                                                                                            # . # > > g W ' W ' d L J d J ] r.r.y.y.y.y.y.y.y.y.y.y.y.t.t.t.y.y.-.r.-.r.r.] I J f f f J L d d d W L L W W L W L W W W g g g h # o . . . . . . . . . . o . . # . . . o o # # # # . # o . # wXeXeXeXrX-XwXwXwX-XwXeXeXeXeXeXeXrXrXeXeXrXrXeXwXv.x.l.l.l.l.l.l.l.l.l.x.x.x.x.x.x.x.v.v.l.v.x.v.x.v.x.x.x.x.x.x.x.l.k.x.k.f.k.k.3.' 3.3.3.3.3.3.8.8.wXrXrX-X-XLXLXLXLXFXgXaXaXgXaXgXgXgXhXhXhXhXhXhXhXgXhXhXhXgXgXgXgXgXaXkXjXfXaXaXFXGXJXPXKXJXLXLXLXPX# @ # # o                                                                                                                                                                                                                                                           ",
"                                                                                                                                                                                                                                                                                                            # # o # # ' W ' L L d d f a a 5.y.y.-.t.-.y.y.y.-.t.r.t.-.-.-.-.-.-.-.-.-.t.r.] m y d f f J J J J J L L W W W W W W L L L W W W h . o o . . . . . . . . o . . . . . . . o $ $ o o @ O o . o o lXwXeXwXwXwXwXwXeXeXeXeXrXrXrXeXeXrXrXrXeXrXyXrXeXl.k.l.l.l.l.l.l.l.l.l.l.x.x.x.x.x.x.k.x.l.x.x.x.x.x.l.l.l.l.l.l.l.l.k.k.k.k.l.f.3.4.3.w.w.8.w.w.8.q.wXwXwXwX-XLXGXJXJXDXaXaXaXgXgXhXgXhXhXhXhXhXhXhXhXhXjXjXjXjXhXhXgXjXgXjXsXaXaXgXFXDXFXJXFXLXKXLXJXKX> o . o #                                                                                                                                                                                                                                                           ",
"                                                                                                                                                                                                                                                                                                            . # O # O ' W W W L L J J f y r.r.-.y.y.y.y.y.y.y.y.y.y.-.-.-.-.-.-.-.-.-.r.r.%.y F d f f J L J J L J J L L L L L L L L L W L g s o o o . . . . . . . . . . # . # . . o $ # $ $ o o . o o . . lXeXwXeXeXwXwXwXwXwXwXrXrXrXrXrXrXrXrXrXeXrXrXrXrXl.k.l.l.l.l.l.l.l.l.l.l.x.x.x.x.x.x.v.v.x.x.x.x.x.x.x.x.l.x.x.l.l.l.x.k.k.k.k.k.3.3.w.8.8.8.8.8.8.q.rXrXwXrXwXLXJXGXFXFXaXaXaXgXgXgXjXjXjXjXjXjXhXhXhXhXhXjXjXjXhXhXgXgXaXaXaXaXaXfXGXLXFXGXKXGXKXLXLXPXO O . O #                                                                                                                                                                                                                                                           ",
"                                                                                                                                                                                                                                                                                                            : . # # O W W W W J W J J J a r.-.%.y.y.p.y.y.p.y.p.-.y.-.-.-.-.-.-.-.y.-.t.r.%.y I d d d J L L L L L L P P P P P P L P L L d d f O o o o o . . . . . O o . o . . . . . o o . . . . o . o o o eX-XeXwXwXwXwXwXrXrXyXrXrXyXyXrXrXrXrXyXrXeXeXeXrXk.l.k.k.l.l.l.l.l.l.l.l.l.l.x.x.x.x.x.l.x.x.x.x.x.x.x.x.l.x.l.l.l.l.l.l.k.k.k.k.3.3.6.w.w.w.8.8.8.q.wXwXwXwXwXJXJXJXGXGXaXaXiXaXjXjXjXjXkXjXjXjXgXgXgXgXgXgXgXgXgXfXaXaXaXaXaXaXaXgXDXGXGXGXLXKXJXKXLXKXo O O O o                                                                                                                                                                                                                                                           ",
"                                                                                                                                                                                                                                                                                                            o ; # # * W W L W J L d J J a r.r.-.-.-.-.p.p.-.y.y.-.-.-.-.-.-.-.-.-.y.-.y.-.%.y I d d d J L L L L L J L L P P P P P P I P L d f X o o o o o . o . o . . . . # o # # # # # # @ # # # O O . . rXwXwXwXwXwXrXrXrXyXyXyXyXyXyXyXyXyXyXyXyXrXeXwXrXk.k.k.k.k.k.k.k.k.k.k.k.l.l.l.l.x.x.x.x.v.v.x.x.x.l.x.l.l.l.l.l.l.l.l.l.l.l.l.k.4.3.w.8.6.8.q.8.q.q.wXwXwXwXv.LXGXGXGXJXaXfXgXhXjXjXkXkXkXkXjXjXgXgXfXfXfXfXfXfXfXaXaXaXaXaXaXaXaXfXLXFXJXJXGXLXLXKXJXKXO O O O o                                                                                                                                                                                                                                                           ",
"                                                                                                                                                                                                                                                                                                    > > - * ' ' ' W ' W W L g g J J J J I t.r.t.-.y.y.y.y.y.y.y.y.y.y.y.-.y.y.y.-.-.-.-.-.-.-.-.-.-.-.I L L W L L L P I L L d L L L L L L L J d f d d W # . . o . . . . o #                               o o . . . . . . . . . . o . . @ @ o . O l.wXeXwXeXwXwXwXwXwXwXwXrXrXwXrXrXrXeXeXx.x.k.x.x.x.x.x.x.x.x.l.x.l.l.b.l.l.l.l.l.l.l.l.l.l.l.x.x.x.x.v.x.x.x.x.x.l.l.l.3.3.3.3.3.w.6.8.8.q.q.q.q.q.v.MXVXVXVXMXDXSXDXFXFXFXFXFXDXSXSXSXFXSXSXaXaXaXgXgXFXJXJXKXJXKXLXFXKXFXq : : :                                                                                                                                                                                                                                                   ",
"                                                                                                                                                                                                                                                                                                  # # O O O ' W W W W L L L L L J J L L P y.t.y.-.-.-.-.-.-.-.-.y.y.y.y.-.-.y.y.y.y.-.-.-.-.-.-.-.-.y.P P L W L L L P I L L d d I L L L L L J d L W W ' - o o o . . . . o #                               . . . o o o o o o o o . . . o . . O o O l.wXeXwXeXwXeXwXwXeXeXrXrXrXrXrXrXrXeXrXc.x.x.x.x.x.x.x.x.x.x.l.x.l.l.l.l.l.l.l.l.l.l.l.l.l.l.x.x.x.x.v.x.x.x.l.l.k.k.k.' 3.3.3.3.w.6.8.8.8.q.8.6.8.c.VXVXVXSXVXGXGXGXJXFXKXGXGXGXGXGXFXGXFXDXgXaXfXfXgXDXJXKXKXKXKXKXKXJXLX. o . o #                                                                                                                                                                                                                                                 ",
"                                                                                                                                                                                                                                                                                                  # o o X O ' W L W L d f d d d d J L P P s.y.y.y.y.-.-.-.-.y.y.-.-.y.y.-.-.y.y.y.-.y.-.y.y.y.y.-.y.t.P P J J J J I I F L I d d L L L L L L J d L W W 3.> o . . . . . . o O                               o o . . o o o . . . . o . . . o . . . o l.eXeXwXeXwXeXwXrXrXrXrXyXrXrXrXrXrXrXrXx.x.l.x.l.l.l.l.l.k.l.l.l.l.l.l.l.l.l.l.l.l.l.l.l.l.x.x.x.x.x.x.x.x.x.x.l.k.k.k.3.3.3.6.w.6.8.8.8.8.8.8.4.6.k.VXVXVXVXVXJXJXGXJXGXJXJXGXJXJXGXFXGXGXSXgXaXfXfXgXFXLXLXKXJXFXFXLXFXPX. . . . o                                                                                                                                                                                                                                                 ",
"                                                                                                                                                                                                                                                                                                  # o o o X ' L L W J J f F f a d J L P P j.y.y.y.y.-.-.-.-.y.y.-.-.y.y.-.-.-.y.y.y.y.y.y.y.y.y.y.y.t.P P L L P K P I F I f d d J J J J J L L d d L W ' - o . . o . o . o #                                 o . . o o o o o o o . . o o # . o o O b.rXeXwXeXwXwXwXeXrXrXrXyXyXrXrXrXrXrXrXx.k.k.l.l.l.l.l.x.x.x.k.k.k.l.k.l.l.l.l.l.l.l.l.l.x.x.x.x.x.x.x.x.x.x.l.k.k.k.f.3.w.w.8.8.q.q.q.q.8.8.8.3.3.k.MXVXVXVXVXGXJXJXJXJXJXJXKXJXGXGXGXGXGXFXgXaXfXaXjXDXKXKXKXKXLXKXPXFXLXo . # # #                                                                                                                                                                                                                                                 ",
"                                                                                                                                                                                                                                                                                                  # o o . o W d d L f P L J I F d d J L P j.y.y.y.-.-.-.-.-.-.-.-.-.-.-.-.-.y.y.y.y.y.y.y.y.y.y.-.-.-.` ` [ _ _ T _ P P _ f f f J J J J I J d d d L g ' - X o o o o o o o #                                                           3.o o o . . w.l.b.x.v.l.l.x.x.v.v.v.v.v.v.rXrXrXrXrXv.v.x.x.x.x.x.x.x.c.c.v.v.v.v.k.l.k.l.l.l.l.l.l.l.x.x.x.x.x.x.x.x.l.l.l.k.k.k.k.q.q.q.q.a.a.a.a.q.q.q.8.6.8.k.gXhXjXMXMXSXSXSXSXSXSXSXSXSXSXSXSXSXSXSXjXjXjXkXVXFXJXKXLXPXKXKXKXLXSXh h h h g                                                                                                                                                                                                                                                 ",
"                                                                                                                                                                                                                                                                                                  > # o . . g d L W L r.r.r.%.%.d d J I P d.y.y.-.-.-.-.-.-.-.-.-.-.-.-.-.-.y.y.y.y.y.-.y.y.y.y.y.y.y.-.y.y.t.y.t.y.y.y.r.L L d J J J J J J f f d L d W # . . o o o o o o #                                                             # . o o . > o . . . . o . o o o o O o o eXrXwXrXrXwXwXwXwXwXwXwXwXeXeXeXeXeXwXwXl.l.k.k.l.l.l.l.l.l.x.x.x.x.l.l.l.l.l.k.l.l.l.l.l.l.l.x.v.v.x.v.x.x.l.l.k.k.f.a.c.f.k.z.z.c.v.c.x.x.x.x.x.x.c.yXaXaXaXaXJXJXJXJXKXLXLXKXFXLXKXFXKXFXKXKXLXLXLXLX# # > > :                                                                                                                                                                                                                                       ",
"                                                                                                                                                                                                                                                                                                  > # o . . g f f L f r.r.-.%.%.f d J J I d.y.y.-.-.-.-.-.y.y.y.-.-.-.-.y.y.y.y.y.y.-.-.-.-.-.-.-.-.y.-.y.y.-.y.y.y.y.i.y.f f f J J J J L J L L d L d W $ . . . o o o o o O                                                             . o # . . . . + $ . . . . . o o o o o o wXrXeXeXrXrXrXrXwXwXwXwXwXeXeXeXrXrXeXeXk.k.k.k.k.l.l.l.l.l.x.x.x.x.l.l.l.l.k.k.k.k.k.l.x.x.x.v.v.x.x.x.x.x.l.l.k.l.k.k.k.k.c.x.c.v.c.v.x.x.x.x.x.c.x.aXaXlXaXaXGXGXKXJXJXKXJXKXFXKXKXKXFXKXJXKXKXKXJXJX> # # O :                                                                                                                                                                                                                                       ",
"                                                                                                                                                                                                                                                                                                  # o . . . g h f J f r.r.%.%.%.f J J f I d.y.y.-.-.-.-.-.-.-.-.-.-.-.-.y.y.y.y.-.-.-.-.y.-.-.-.-.y.y.-.-.y.-.y.p.y.y.y.y.a d J P K J J L L L L L d d g o . . $ o o o o o O                                                             o . . . o . . . . . . . . o o o o o o o eXyXrXeXrXrXeXwXwXwXwXwXwXwXeXwXwXeXwXwXk.k.k.l.k.k.l.l.l.l.x.x.x.x.l.l.l.l.k.k.l.l.x.x.x.v.l.x.x.x.l.l.l.l.l.k.l.l.k.l.k.l.c.z.v.l.v.v.v.x.x.v.x.v.x.aXlXaXaXaXJXKXGXKXKXFXKXKXKXFXFXKXKXFXKXFXKXKXKXLXo # O o :                                                                                                                                                                                                                                       ",
"                                                                                                                                                                                                                                                                                                  > o . . o h s s s f r.r.t.-.-.L F F J F i.y.y.y.y.-.y.p.p.p.-.-.-.-.-.-.-.-.-.y.y.y.y.y.-.-.-.-.-.-.-.-.-.-.y.y.d.y.y.y.i f f F I J L J L f f d d d g o . . $ o # . o # #                                                             O o o . o . . . . . . . . . o o . . O . eXrXrXeXeXeXwXwXwXwXwXwXwXwXwXwXwXeXwXwXl.k.l.l.l.l.l.l.x.x.x.l.l.x.k.k.k.l.k.k.l.l.l.x.x.v.x.v.x.l.x.x.l.l.l.l.l.l.l.l.x.x.x.x.x.v.v.v.x.v.v.v.x.v.l.aXaXlXyXfXKXGXGXGXKXKXKXKXKXPXJXKXFXKXFXKXGXJXKXKX# O o o #                                                                                                                                                                                                                                       ",
"                                                                                                                                                                                                                                                                                                  # . . . . h h s s u r.r.y.t.%.f I L F F r.y.t.y.-.y.-.-.-.-.-.-.-.-.-.y.y.y.y.y.y.y.y.y.-.-.-.-.-.-.-.-.-.-.y.y.y.a.r.u.y y f a J F L J L L f L g g g # o . . . o # o O #                                                               . o o . # . . . . . $ o . . o . . X . rXyXyXrXrXrXrXrXwXeXrXrXeXeXeXeXwXeXrXrXx.k.l.l.l.l.l.l.l.x.x.x.l.l.k.x.k.f.k.k.l.x.x.v.v.v.v.v.x.x.x.l.l.l.l.l.l.l.l.x.x.x.x.x.x.x.x.x.x.x.x.x.x.v.v.yXlXlXaXfXJXKXKXJXKXKXKXJXFXLXGXKXJXFXKXGXKXKXKXLX. o . . #                                                                                                                                                                                                                                       ",
"                                                                                                                                                                                                                                                                                                  # o . o . . X . X X ] r.y.y.y.r.r.r.r.[ I I I I H y.y.y.y.y.p.-.t.-.y.y.y.y.y.y.y.y.y.y.y.t.t.t.-.-.-.-.y.y.y.m y y u y { ] %.] ] F J L L a * O O O > . o o # o                                                                                 p . . o . $ . o o O h h d h s q q q q 5 q q : : q q : : : : q q 5 q h rXwXeXwXwXwXwXwXwXwXwXwX-X-XwXwXwX-XrX-Xl.x.x.x.x.x.x.x.l.x.l.k.l.l.l.l.x.x.x.x.x.x.x.x.x.x.x.x.x.x.x.x.l.v.l.v.v.v.}.v.}.}.-X-X-X-X-X-X-XwXyXaXfXaXaXlXaXaXlXyXSXSXSXSXVXh h h h h                                                                                                                                                                                                                             ",
"                                                                                                                                                                                                                                                                                                  . . # . . . o . . X 7.r.r.-.y.-.%.r.y.r.y i f F F s.y.y.-.-.-.-.-.-.-.-.-.-.t.y.y.y.y.y.y.t.t.-.-.%.%.-.-.y.y.y u < < = j.%.-.r.r.y F L L s . X . . o . . . . .                                                                                 p # . . . . . . . o g g W g h O X X . . . . . o o . . o o . o . . . > lXyXeXrXrXrXeXeXeXeXwXwXrXwXeX-XeXeXrXeXv.v.v.v.x.x.l.l.l.l.l.l.l.l.l.l.x.x.x.x.x.x.x.x.x.x.x.x.x.x.x.x.x.v.x.x.x.v.v.v.x.x.v.v.v.v.v.x.c.x.lXlXeXyXyXlXlXlXyXyXSXSXSXSXSX. . . o #                                                                                                                                                                                                                             ",
"                                                                                                                                                                                                                                                                                                  - . . o o o . . X X 5.u.i.y.y.r.y.r.r.] y J a J y r.r.t.-.p.-.y.y.y.y.t.t.t.t.y.y.y.y.y.y.y.y.y.y.%.%.-.-.y.i.u < 0 < < y.%.-.] r.y f J d h X . . . . . . . . #                                                                                 p . . . o o o O o . g g L f f X X X . . . . . . . . . o . . . o o . 5 yXyXrXeXeXrXrXrXrXrXrXrXwXwXwXrXrXyXwXyXv.v.v.x.l.l.l.l.l.k.l.l.l.k.l.x.x.x.x.x.x.x.x.x.x.x.x.x.x.x.x.x.l.l.l.x.v.x.v.v.v.v.x.v.v.v.x.x.l.c.yXyXyXlXlXyXyXlXlXrXDXSXSXDXSXo . o . .                                                                                                                                                                                                                             ",
"                                                                                                                                                                                                                                                                                                  . . . . . . # . . . 7.a.u.r.r.-.y.-.%.] y a a a f u.i.y.-.-.-.t.t.t.t.t.t.t.t.t.t.t.t.y.t.t.t.r.r.-.%.%.-.y.i.u q q 4 < y.-.y.r.r.i f d d p . o $ $ . . . . . .                                                                                 p o . o . # . . . . g g g d d X X . . . . . o . . . o . . o o . . # : yXrXrXrXrXrXrXrXeXeXwXwX-XwXrXwXrXrXrXyXv.v.v.x.l.l.l.k.l.k.k.l.l.l.x.v.x.x.x.x.x.x.x.x.x.x.x.x.l.l.l.x.x.x.x.v.v.x.v.v.v.v.x.x.l.x.x.x.k.x.tXrXlXyXrXlXlXlXyXrXDXDXSXSXSX. . . . #                                                                                                                                                                                                                             ",
"                                                                                                                                                                                                                                                                                                  * . o . . . . # . O 4.i.u.%.y.-.-.%.%.] a u a u J ] r.%.-.-.-.t.t.t.t.t.y.y.y.t.t.t.t.t.t.t.t.r.t.t.%.%.-.r.u.0 u 5 q < y.y.-.r.r.y f d g p . . . . . . . . . o                                                                                   o o o > . O . . . g L d d d X X . X o . . o o . . . . o $ . o . O : lXlXaXyXyXyXyXyXyXrXrXrXyXrXwXlXrXwXyXeXx.l.l.k.k.k.k.k.k.k.k.k.l.x.x.l.x.x.x.x.x.x.x.x.x.x.x.l.l.l.l.l.x.x.x.v.x.v.v.v.v.l.l.l.k.k.k.k.k.k.yXrXeXtXlXaXaXaXaXlXDXDXDXSXSXo o . . o                                                                                                                                                                                                                             ",
"                                                                                                                                                                                                                                                                                          : # > : g s p p p # . . o . - X % % % ` -.-.] ] ] 4.4.5.' a y c m m m m m I I F m m F m m m m F F F F F I m e e e w u 4.7.9.a.r.y.p.-.r.r.I J f h p . . . . $ . . . . .                                                                                           # o . X . d d f L d d d d g h h h g h h g g h g h . . . . o # o o O o o . . . . . . . o * lXeXyXrXyXrXrXeXwXwXwXwXwXwXeXeXwXeXrXwXv.x.x.x.x.x.x.x.x.x.x.l.l.l.l.l.l.x.x.l.x.l.v.v.v.yXrXrXeXeXwXwXwXwX}.eXeXwXrXeX: - : : O - X X X O                                                                                                                                                                                                                                       ",
"                                                                                                                                                                                                                                                                                        g # # # & K c c c a X . @ + + . + + . + _ { { { { { ] ] ] ] u y a J d L J J J J J F F F a f f f f f f J f f i u r u u w [ %.-.-.-.-.-.-.>.p.m H F f 0 . . . . + . $ . . .                                                                                           # @ X . X g d d J a F F F F D F D J J d d a d s d . . . + @ @ @ o o + . . . . . . . o # # lXtXtXeXeXeXeXeXwXwXwX-X-XeXwXwXeX>XeXtXc.v.x.x.x.l.l.l.l.l.l.l.l.l.l.l.l.l.x.v.l.x.v.v.v.yXrXeXeXeXeXwXwX-XwX-X-XeX-XeXO # # # o @ o . . >                                                                                                                                                                                                                                       ",
"                                                                                                                                                                                                                                                                                        g # # # = K c c c a X . o + o . . . . . _ ] { ] { { ] 7.] ] u y a J d J J J J J J J f f f f f f f a f f y f f a u u 0 w [ %.-.-.-.y.p.p.t.d.E P J d 0 . . . . . + . . . .                                                                                           $ $ O X X d g d J J J J J J J J d J a d J a d a f . . . . + o o . . o . . . . . . o . o O fXrXeXeXtXeXeXeXeXeXeXeXeXwXrXrXeXtXrXyXc.v.v.x.x.x.x.l.l.l.l.l.l.l.l.l.l.l.l.v.v.v.v.x.v.yXyXrXrXeXeXeXwX-XeXwXeX-XeXyXO O O @ o o o . . #                                                                                                                                                                                                                                       ",
"                                                                                                                                                                                                                                                                                        h o o o % K S G G A % . o # X X X X . . L [ ] [ ] ] ] 5.5.[ u a a d d d L L L L L L L J f d f d f f d J f d f s s s s r [ 7.r.r.t.y.s.s.s.h.P ' W W p . . + + . . . . . .                                                                                           $ > O . o h g d d d d d d d d d d d d f f s d d d . . . . o o o o . o . . . . . . . O O O fXrXrXrXwXeXeXwXeXeXeXeXeXrXyXrXrXlXyXyXv.x.x.l.k.l.l.k.k.l.l.l.l.l.l.l.l.l.k.l.x.x.v.v.-XlXyXyXrXrXeXwXwXwX-XwXeXrXeXyX# # # # # @ @ o . #                                                                                                                                                                                                                                       ",
"                                                                                                                                                                                                                                                                                        h o o o % J G G v t % X X X X % % % X X ' [ [ [ [ [ [ 4.[ ' s f f g g g L L L L L L d d d d d d d L W ' 3.3.W d s s s p 6.7.7.7.u.u.i.a.f.f.[ ' ' g p o . . + . . o o .                                                                                             # o o o # h h g g g g g g d g g g g d s s s f d f O . . o o o o . . o . . . . . . o o o o fXrXlXwXyXrXrXeXeXeXrXrXrXlXyXlXlXyXfXlXv.x.x.l.k.k.k.k.k.k.k.k.k.k.k.k.k.x.l.x.x.v.v.v.v.lXlXlXyXyXrXrXeXwXrXwXwXeXrXyX# # > > > > # # @                                                                                                                                                                                                                                         ",
"                                                                                                                                                                                                                                                                                        h o . . % J S G U T F L W P T t.t.%.%.t.X . . . . . . . X X . . . . . . . . . . . . . . . . . . . . o o . . . . . . X X . X X X X X X % X % X $ o o o . . + . .                                                                                             > . # # o $ @ o . o . . . . . . . . . . . . . . o . . . o . . + + $ o . . . . . . . . . . . o @ # . . . o . . . . . . . . . . @ . @ # . $ yXrXrXrXeXeXeXwXwXwXwXwXwXeXeXeXeXwXeXrXrXrXyXrXv.o o o X o . . . . . . o . . #                                                                                                                                                                                                                                                           ",
"                                                                                                                                                                                                                                                                                        h . . o % K G v v v S K F G G p.p.$.%.t.# . . . . . o . . . . . . . . . o o o o X X o o o o o o o . . . . o $ $ + . . . . o . . . . . X o X X o . . . o . . . .                                                                                             . # o O # . . o . . . . . . . . . . . . . . . . . o . . o o . + + + . . . . . . . . . . . . . . o . . . . $ . . . . . o o o O . # # . # # yXrXrXeXwXwXwXwXwXwXeXeXeXeXrXrXrXrXrXyXyXyXyXyXv.O O O O O o o o . o . . . . O                                                                                                                                                                                                                                                           ",
"                                                                                                                                                                                                                                                                                        h . . . % K G U M M G G S G n :.:.&.&.=.# . . . . o o . . . . . . . o . . . . . . . . . . . o o o o . . . . . . . . . . . o o . . . . . $ X X . X o . o . . . #                                                                                           h o # . . o . . . . . . . . . . . . . . . . . @ . . o o o o . . + + + . . . . . . . . . . . . o o . . . o . . . . . . . X X X * o o o . X . yXrXrXeXwXwXwXeXeXeXeXeXeXrXrXrXrXrXrXeXrXrXyXyXwXX o o X O o o o o . . . O . o                                                                                                                                                                                                                                                           ",
"                                                                                                                                                                                                                                                                                        h . . . % D G M n n U G v ! b &.=.=.=.=.- . . X X X X X X . X X . . X . X X X X X X X X X X X X X X . . . . . . . . . . . . . . X . . X X X % X X X . o . . . .                                                                                           p . . o o X . X . . . . . . . . . . . . . . . . . o X X $ $ X o . . . . . . X . . . . . X X X X X X $ . X X X X X X X % % % * * O O . . . X rXwXwX-X-X-X-XwXwXwXwXwXwXwXeXwXeXeXwXwXeXeXrXyX-XO o o X O O O o # o o o . o                                                                                                                                                                                                                                                             ",
"                                                                                                                                                                                                                                                                                        h . . . % G v n N n M U G v M #.:.=.=.t.< < < < < < < < < < 4 4 4 4 6 6 4 6 6 6 6 6 6 6 w 4 4 4 4 < < < ; < ; < ; < ; < < ; ; < ; = % ; = = < < ; ; : . o . . .                                                                                           p . o o . ; - * * - - - * * * * * * * * - - - * ; < 5 < 5 < 5 ; < ; ; ; = = = - ; ; ; = ; < 4 4 4 6 6 1 1 1 1 6 6 6 6 6 w w w w 4 X X . . . v.l.l.k.k.l.k.x.l.x.b.x.b.v.v.x.b.b.v.l.b.v.v.v.v.3.3.3.                                                                                                                                                                                                                                                                                  ",
"                                                                                                                                                                                                                                                                                        h . . . % G v n N n M U S v b v b b z z @.@.e.e.t.t.t.p.t.p.W.{.{.{.W.W.R.R.E.W.W.W.W.W.W.W.W.{.R.R.%.%.@.%.] %.] %.] ] %.] ] ] [ D a D K D K K K a s - . . . @                                                                                           h . . o X 0 0 4 4 0 4 4 4 5 5 5 5 5 5 5 5 0 0 t A [ %.%.%.] [ ] ] [ [ ` ` P T [ [ [ [ [ ] s.R.R.R.R.R.R.R.R.R.R.R.R.R.R.R.R.R.h.a.X . X . . . . . . . o . . . . . . . . . . . . . . o . o # h                                                                                                                                                                                                                                                                                         ",
"                                                                                                                                                                                                                                                                                        h . . . % F v n N n M G G U U n v v A x } | &.&.*.| ......X.E.E.U.U.U.U.U.U.U.U.U.U.U.I.U.U.U.I.I.I. . .| #.#.#.#.#.@.#.#.#.#.%.@.x x A c c S A S A u X . . . @                                                                                           h o . . X p s 7 7 r r 7 7 4 4 4 4 4 4 7 r r r 2 z @.@.} } }  .R R T ` E Y E E T R R R R Y I.I.K.K.K.V.C.C.C.C.C.C.C.C.C.V.K.p.s.r.X X o . . + . . o . o . . o o . . . o o o o o . . o o O O g                                                                                                                                                                                                                                                                                         ",
"                                                                                                                                                                                                                                                                                        h . . . % K v v M n m G v S v v v v A A  .| X.X.X.X.o.o.S.O.).U.U.U.U.~.U.U.U.U.U.U.U.U.U.U.U.U.U.U.O.o.| | | | | | | | ( ( | #.#.z ! ! c c v c S G a % . . . @                                                                                           h o . . X 5 0 6 6 4 4 4 4 4 4 4 4 4 4 4 4 6 6 b l =. .}  .} } ~ ~ Y } N ~ ~ ~ Y Y ~ ~ ~ N C.M.C.C.A.A.A.A.A.A.A.A.A.A.A.C.C.K.I.%.X . . # . + $ . . . . # $ . o . . . . . . o . . o . o # . p                                                                                                                                                                                                                                                                                         ",
"                                                                                                                                                                                                                                                                                        h . . . % J v v n v v G G G m v S S S A ~ | X.O.O.O.O.O.O.O.~.~.G.U.G.U.G.G.G.G.G.G.G.G.G.U.U.G.G.U.C O.O.O.O...............#.#.#.z v b c c v x v S y % X . . o                                                                                           p o . o X 5 5 6 6 6 6 6 7 7 4 4 4 w w w 6 6 w 2 2 $.| } } }  .} } ~ ~ N C C C ~ ~ ~ ~ C C U.C.C.Z.N.N.A.A.A.A.N.N.N.N.N.Z.Z.B.:.-.% X . o . + . . o @ . o # o o . . . . . . . . o O . . # o g                                                                                                                                                                                                                                                                                         ",
"                                                                                                                                                                                                                                                                                        h . . o X J S v M v m G G v v v m S S K  .$.X.X...o.O.O.o.o.~.~.U.U.U.U.U.U.U.U.G.G.U.U.U.U.U.U.U.U.O.o.O.O.O...........|  .| | ^ b v x c c v v v S t % X o o @                                                                                           p . . o X q 0 6 6 6 6 6 4 4 4 4 4 6 6 6 6 w 6 e e @.@.}  . .} }  .^ ~ } } /  .~ ~ ~ ~ ~ C V.M.C.C.C.C.C.A.C.A.C.C.C.C.C.C.C.V.K.-.% X X X o . . o . o # o o . o o o . . . . . . . o o o o o                                                                                                                                                                                                                                                                                           ",
"                                                                                                                                                                                                                                                                                        h . . o X J F m m v v v G G v v v v S S M U M E Y &.*.X.O...M.S.o.*.o.o.O.O.O.O.....X.X...X.......*.| ..........| | | | N M M U U v x A c c v v S S t % X . o @                                                                                           h o . . X 5 5 w w 6 6 4 0 4 4 0 w w w 6 w w w 0 4 y u e e x x b b b b R R Y ^ R } } } } ~  . . . . .| | | | | |  . . . . . . .~ %.` G P W J X . . . g                                                                                                                                                                                                                                                                                                                                 ",
"                                                                                                                                                                                                                                                                                        h o . o X d F v m v v v c v m v v v G G v G v v M $.&.&.X...O.O.........| | | | | | | |  .| |  .| $.$.$.....X.| | | | | n b b b c c x A F c c c S S t % o . . @                                                                                           h o o . X 5 5 w w 6 6 0 0 0 0 0 0 w w w w w w 0 0 0 w 1 w 9 9 2 e 2 2 @.^ ^ ^ ` } } } ~ ~ ~ ~ ~ ~ ~ / } } ^ ^ ` ` ` ~ ~ ~ ~ / } } ` @.e.[ 5.% . . o 3.                                                                                                                                                                                                                                                                                                                                ",
"                                                                                                                                                                                                                                                                                        h o o o % L F D A D A S G G G G G G G G v m m n M :.$.&.X.......X.X.....| | |  . . . . .| | | | | ..X.X.o...O.....| } $.n v x c c c c c c c v v c S u X o . . @                                                                                           h . . . X 5 5 6 6 6 7 7 7 6 6 7 7 7 7 7 r r 7 r r 6 r 4 r r 6 6 1 7 z @.R ^ } } } }  . .~ ~ ~ ~ ~  . . . . .~ 2. .} } ` R } }  . ./  .#.[ %.% o o # 3.                                                                                                                                                                                                                                                                                                                                ",
"                                                                                                                                                                                                                                                                                        h o o o * J J F F A D A S S S G G U U G M U M n n &. ...........X.......| | | | |  . . . .| | | | | | X. .......&.&.$.=.v v c c c c c S c c v v c F t % X . . @                                                                                           h o . . X 5 5 7 6 6 7 7 7 7 7 7 7 7 7 7 r r r r r 7 u 4 4 4 1 w 2 2 z @.^ ^ ^ } } } ~  .~ ~ ~ ~ ~  .} } ~ ~ ~ C  .} } ` ^ } }  . ./  .#.@.%.% o o # 3.                                                                                                                                                                                                                                                                                                                                ",
"                                                                                                                                                                                                                                                                                        h O O O * s a s a r G A S S U U ! U U U b n n n N &.X.*.X.......X.X.X...$.$.| | |  . . . . . .|  .| | | X.*.:...&.&.$.#.v v c v c A A S v v v v c F u X X . . @                                                                                           h o o . X 5 5 6 6 6 6 7 7 7 7 6 7 7 7 r r r r r r 0 r 6 4 < t 1 3 2 l } } } | } } } }  .} ~ ~ ~ } } } } } ~ ~  . .} } } } }  . . ./  .} [ %.% o o O 3.                                                                                                                                                                                                                                                                                                                                ",
"                                                                                                                                                                                                                                                                                        g O o O X * X X % % t A S U U ! U U U U ;.&.&.&.| *.....X.X.X.X.X.X.X...$.$.| | |  . . . . . .| | | | | | ..| N N M n n S v v v A A A A v v c v c F r X . . . @                                                                                           h o o . X 5 5 4 4 4 7 7 7 6 6 6 6 w r w r r r 0 r 4 0 6 4 6 T [ [ } R #.~ ~ ~ } } } } } } ~ ~ } } } } } } } }  .} } } } } } } / / C ~ } @.%.% o o o '                                                                                                                                                                                                                                                                                                                                 ",
"                                                                                                                                                                                                                                                                                        h o . o . . . . X X D G S U U U M U U U X.X.&.*.X.o...X.X.X.X.X.X.X.| | | | | | |  . . . .| | | | #.#.#.&.&.$.n n n n v v v v v A S S S v v c c c A r X . . . @                                                                                           h o o . . 5 5 4 4 0 w w w w 6 w w w w w w 0 0 0 0 4 4 4 < 1 [ T R } }  .~ }  .} } } } } } } } } } } } } } } }  .} } } } } } } /  .~ / } } %.% . . o '                                                                                                                                                                                                                                                                                                                                 ",
"                                                                                                                                                                                                                                                                                        h . . . . . . . X X a D G G U U U Y Y E *.*.*.*.X.X...X.X.X.X.X.X.| | | | | | | | | | | | | | | #.#.@.@.#.#.#.n n v S v v S S S c S S S S S S S A F r X o o . @                                                                                           h . . . . 5 5 0 0 0 r r r w w w w w w w w 0 0 0 w 0 w 4 4 1 [ [ ` } } } }  .C } / } } } } } / } } } ~ } ~ } }  ./ } } | #.#.|  . ./ / } [ %.% . . o W                                                                                                                                                                                                                                                                                                                                 ",
"                                                                                                                                                                                                                                                                                          o o o # + . . . X d L J K U U T T T E &.*.&.X.X.&.*.&.X.X.....X.X.| | | | | | | | | | | | | #.#.} } ^ } @.@.v n v S v S S S v v S S S F F S F a f r X o . . @                                                                                           h . . . . 5 5 q 0 0 r r r w w w w w w w w w w r w w w w 6 1 ` ` ` } } }  . .C } } } } } } } } } } } / ~ ~ ~ }  . .} | #.$.$.$.| | ~ R ` Q [ % . . o 3.                                                                                                                                                                                                                                                                                                                                ",
"                                                                                                                                                                                                                                                                                                . + . . . X s d J K K K K P K K $.&.$.#.#.| &.| | | | ..| X.| | | | | ..X.X.X.X.| | | #.| } ^ ^ R R @.c v x S S S S S S v S S S F F F F a f p . o . . @                                                                                           h . . . . 5 0 q q 0 0 r r w w w w w w w w w w r 4 w w 4 w 1 T R R } | ~ /  . ./ } } } } } } } } } ~ ~ ~ ~ ~ / ~ ~ }  .| #.#.#.#.@.R R Q P [ X . . o 3.                                                                                                                                                                                                                                                                                                                                ",
"                                                                                                                                                                                                                                                                                                  . . . . . . X X X % % % % % % b b b b b b z l l k #.| | X.| | | | ............| ..| | } #.3 k 7 2 e z x c c S S S S S S S S S y F % % * X X . o o o #                                                                                           h . . o . - . X X X u u r r r w w w w w w w w r r w w w w 2 2 2 2 2 k } / /  .~ ~ ~ ~ ~ / / /  . ./ ~ ~ ~ ~ ~ ~  .} } } l b b z e % % % X X . . o o 3.                                                                                                                                                                                                                                                                                                                                ",
"                                                                                                                                                                                                                                                                                                  . . . . . . . X X X X X X X . e x c c x c z b b l $.| | | | | | | X.X.X.X.....#.#.#.} } #.2 z e e e x x A A A S S S S S S S S F a % X X . $ . . . . #                                                                                           h . o . . o O X % X r r r r r 6 6 6 4 6 6 6 6 0 4 0 6 6 6 6 6 w e e z } ^ ~ / } } } } } } } } } } / ~ / ~ ~ ~ ~ ~ ~ } } z z x t t = X . X . . . . . 3.                                                                                                                                                                                                                                                                                                                                ",
"                                                                                                                                                                                                                                                                                                  o . . o O O O X X X X X . . . u a a a a a c c z e @.@.@.$.$.$.| | | | | | #.#.#.#.@.} @.@.2 e t t t t t t A A A A S S S F S S a f X X X . . . O o o o                                                                                           h . . o o # . X X X 0 0 0 0 0 0 r 0 0 r 0 0 0 0 4 0 0 0 r r r r w e e [ } R R R R R R R R R R R R } ^ ` R R R Y Y R } [ e e t a 7 X X X . . . . . # 3.                                                                                                                                                                                                                                                                                                                                ",
"                                                                                                                                                                                                                                                                                                  @ . . . . o . X X . . . . . . s d d d a s a y t t [ ] @.@.@.@.%.%.%.%.%.$.%.%.%.%.@.[ [ [ w w u u u u s a a a a a D F F F F F u d . . . . . o . . o .                                                                                             . . # . # o X O - p p 0 0 0 5 q 4 4 5 5 5 5 5 5 5 5 5 0 0 r r r r t [ [ [ [ ` ` [ [ [ ` ` ` ` ` ` ` ` ` R R ` ` ` [ [ t r r u s - o . o @ . . . . 3.                                                                                                                                                                                                                                                                                                                                ",
"                                                                                                                                                                                                                                                                                                  @ o o o . - - - - * * * - O $ p p p p p 5 5 5 0 r L W P P P P P P P P P K K K K J K K J J 4 4 5 5 5 5 5 5 5 4 0 r r u u u u u s q g                                                                                                                 g h g # $ O o # : : : : : 5 5 5 5 5 5 : : 5 5 5 5 5 5 5 5 5 5 4 5 d D D D F F F F D D D F F F A A A A A A a a D J J 4 5 5 5 : o . # # . g g                                                                                                                                                                                                                                                                                                                                       ",
"                                                                                                                                                                                                                                                                                                  o o o o - p s s s s s s s p p X X X X X . . . . . X X X X X X X X X X % % % % % % X X X X . . . . . . . . . . . X X X X X X X . *                                                                                                                         # o o o . O o . . o . . . . . . . . . . . . . . . . . . . . X X X X X X X X X X X X X X X X X X X X X X X X X X . X o . # o o . #                                                                                                                                                                                                                                                                                                                                           ",
"                                                                                                                                                                                                                                                                                                  $ . . X X p s s s r r 7 7 7 7 $ X X X X . . . o . o . . X o X . . . . . . X X . . . . . . . . . . . . . . . . . . . . o X X X * .                                                                                                                         # # @ o o . . . . . . . . . . . . . . . . . . . . . . . . . . . . . . . . . . . . . . . . . . . . . . . . . . X . o . $ $ . o # .                                                                                                                                                                                                                                                                                                                                           ",
"                                                                                                                                                                                                                                                                                                  o . . X X s s r 7 6 4 6 6 6 6 $ . . . . . . . . . . . . o . . . . . . . . . . . . o . . . . . . . . . . . . . . . . . o o X X X O                                                                                                                         # . . . . . . . o . . . . . . . . . . . . . . . . . . . . . . . . o . . . . . . . . . . . . . . . . . + . . . . . . . $ . $ . . -                                                                                                                                                                                                                                                                                                                                           ",
"                                                                                                                                                                                                                                                                                                  $ . . o X p s r 7 7 6 4 7 4 4 $ . . . $ . . . . . . . . . + + . . . . . . . . . o . . . . . . . . . . . . X X . . . . . . . . O o                                                                                                                         # o . . . . . . o . . . . . . . . . . . . . . X X . . . . . . . . . . . . . . . . . . . . . . . . . . . . . . X . . . . X . o o #                                                                                                                                                                                                                                                                                                                                           ",
"                                                                                                                                                                                                                                                                                                  $ . . o . p 0 7 7 6 6 7 7 7 4 $ X X . . . . . . . . . . . . . . . . . X X X X . . . . X X . . . . . . . . . . X . . . . . . . O o                                                                                                                         # o . . . o . . o . . . . . . . X X . . X X . . X X . . X X X . . . . . X X . . . . . . . . . . . . X X X . X X X X $ X X . . o -                                                                                                                                                                                                                                                                                                                                           ",
"                                                                                                                                                                                                                                                                                                  # . . . . 0 4 7 7 7 7 7 7 6 7 < < 5 < 5 < 5 < 5 5 5 5 5 5 5 5 5 5 5 5 5 5 5 5 4 4 5 5 5 5 5 5 5 5 5 5 5 5 5 5 5 5 : : : o . . o o                                                                                                                         # o . . . : ; : : : 5 5 : < 5 5 5 5 5 5 5 5 5 5 5 5 5 5 5 5 5 5 5 5 5 5 5 5 5 5 5 5 5 5 5 5 5 5 5 5 5 5 5 5 5 5 5 5 5 : $ . . . #                                                                                                                                                                                                                                                                                                                                           ",
"                                                                                                                                                                                                                                                                                                  # . . . . 0 4 7 6 6 6 6 6 6 6 r r r r w 4 4 4 4 4 4 4 4 4 4 4 6 6 6 7 7 7 7 7 6 7 4 4 7 7 7 r q 5 5 5 4 4 4 4 0 5 5 5 5 . . . o o                                                                                                                         # o . . . : 5 5 5 5 5 5 5 5 5 5 4 4 4 5 4 4 4 4 4 4 0 0 4 4 4 5 5 5 5 5 5 5 5 5 5 5 4 4 4 4 4 4 4 4 5 5 5 4 4 4 4 5 p 5 * . . o #                                                                                                                                                                                                                                                                                                                                           ",
"                                                                                                                                                                                                                                                                                                  @ . . . . 0 4 7 6 6 6 6 6 6 w u r r u r r r t r r w 6 w 6 7 7 7 t t t r r 7 7 7 t r s s r 7 7 r r r r r r r r r 0 0 5 q . . X . o                                                                                                                         # o . . . 5 5 5 4 4 7 7 r r r r r 4 r 7 7 r r r w w r w w w 6 6 6 6 4 4 7 7 7 7 7 7 7 7 6 7 7 7 7 7 r r r r r 7 7 r r 4 X . o o >                                                                                                                                                                                                                                                                                                                                           ",
"                                                                                                                                                                                                                                                                                                  @ . . . . 0 4 r 6 6 6 6 6 6 6 r r 7 r w 6 4 6 6 6 6 6 6 6 6 6 1 1 6 6 6 6 6 6 6 t r r w w 6 w 6 6 w w w r r r 0 0 0 0 q X . . o o                                                                                                                         # o . . . 5 5 7 4 6 6 6 7 7 7 7 6 6 r 7 6 r r 6 6 6 w w w w 6 6 6 6 6 6 6 6 6 6 6 6 6 6 6 6 6 6 6 7 6 6 6 6 6 6 7 t r s X X o o #                                                                                                                                                                                                                                                                                                                                           ",
"                                                                                                                                                                                                                                                                                                  # . . . . 0 4 6 6 6 7 7 6 6 w w t r w 6 w 1 3 1 1 1 1 3 3 1 1 3 3 3 3 1 1 1 1 1 2 1 1 e w 2 2 w e w w 6 6 7 r 4 4 5 p 5 O . . o o                                                                                                                         # o . . . 5 5 6 4 6 7 7 7 t t 7 r r r 6 6 6 6 6 6 w 6 6 2 6 2 1 1 1 1 1 1 1 1 1 1 6 6 6 6 6 7 7 6 6 e e 7 w 7 6 7 t t s X X o o #                                                                                                                                                                                                                                                                                                                                           ",
"                                                                                                                                                                                                                                                                                                  # . . . . q 4 7 6 w c G G G G S T G G U t.s.p.t.p.t.p.p.p.p.p.p.p.p.p.p.p.p.p.p.p.p.p.p.-.R M G G c t r 6 6 4 * X . X . . . . o o                                                                                                                         # . . o . 5 5 7 6 6 6 6 6 6 6 6 6 r 7 7 r t 6 6 w c G G G G G G G G G S G G G G G G G G G G G G G G G S S S c 7 7 7 7 s X X o o @                                                                                                                                                                                                                                                                                                                                           ",
"                                                                                                                                                                                                                                                                                                  # . . . . 0 4 7 6 6 G G G G G M v M M M p.:.:.:.:.:.:.:.:.:.:.:.B.B.B.B.B.B.:.B.:.p.K.:.K.N N G G F w w r 6 4 % X X o . . o . o .                                                                                                                         # o . o X 5 5 4 7 6 7 7 7 7 7 7 7 7 7 7 6 4 6 6 6 F G G G G S S S S v G G G G S G G G G G G S G G G m G G S G 7 w t r s X . . . @                                                                                                                                                                                                                                                                                                                                           ",
"                                                                                                                                                                                                                                                                                                  # . . . . 0 0 r 6 w G G G G G M n M n n B.B.:.:.:.;.;.;.;.;.;.:.:.B.B.B.B.B.B.B.B.B.K.B.K.N N U U G w 6 r 4 4 - . . . $ o . # o o                                                                                                                         # o # . o 5 5 5 4 4 7 7 7 7 7 7 7 7 7 7 7 6 6 4 1 S S F S G S v v S G G v v G v S G G G G S S S S S U U G G G 7 6 7 7 s X . o . o                                                                                                                                                                                                                                                                                                                                           ",
"                                                                                                                                                                                                                                                                                                  # o . o . 0 r 6 6 7 S G G I I M m M b n p.:.&.:.:.:.&.*.&.&.&.&.*.:.:.:.:.:.:.;.;.:.B.B.B.N N U U G w 6 r 5 0 X . o o o $ . o o o                                                                                                                         > o . . # 5 5 5 4 4 7 7 7 7 7 r 7 7 r r r 7 6 4 1 A c c v S v v S S m M v v U U G U G G G G G G G G G G G G K t r u s s X . . . @                                                                                                                                                                                                                                                                                                                                           ",
"                                                                                                                                                                                                                                                                                                  # o o o X 0 0 r 6 t G G G G G F G G G U t.p.-.-.:.=.-.$.$.$.$.$.=.>.-.>.>.>.:.:.p.p.:.:.:.N N U G S w 6 u 0 p - . . . . . # . O                                                                                                                             o . # . : : 5 5 5 7 7 r 7 r r 7 7 r r r 7 w 4 4 A c S v S S G G G M m M v U U S G G G G G G K K K G G G K K r r r 0 5 . . . . @                                                                                                                                                                                                                                                                                                                                           ",
"                                                                                                                                                                                                                                                                                                  # o . o X 0 0 r 4 6 w w w w w r w 6 6 < 6 1 1 1 1 3 < < < < < < < 3 1 1 3 2 2 9 b M M M E n M M G G e w u 0 s $ . o . .                                                                                                                                             > . . . X 0 0 0 r r r 7 7 4 4 r 6 w 6 1 c c v v G G U U U U m U G U G e e 7 6 6 6 6 6 6 6 6 6 w r 6 % % % $ - . . . . @                                                                                                                                                                                                                                                                                                                                           ",
"                                                                                                                                                                                                                                                                                                  # o o o X 0 0 t w r w w w w w q 4 4 r r 6 6 r 6 6 6 4 4 4 4 4 4 4 6 w w w w 9 e U U U U U M B M U v e 6 u 0 p - . . . o                                                                                                                                             : X X X * 0 0 0 0 r r 7 7 4 4 r 6 w 1 1 F S v G m U U U U U v U G U G 7 6 6 6 6 6 6 6 6 7 6 6 6 r 5 X X o . . . . . . #                                                                                                                                                                                                                                                                                                                                           ",
"                                                                                                                                                                                                                                                                                                  $ . . o . 0 4 r 6 w 6 w 4 w w 0 0 0 0 r 6 6 w 6 6 6 6 6 6 6 6 7 6 6 w 6 w w w 7 G G G U U U U M M v e 6 r 0 p $ . o . .                                                                                                                                             > . . . X 0 0 0 0 r r 7 7 4 4 w 4 w 4 2 G v v v m M M M M G v G G U U e w 6 6 6 6 7 7 r 7 6 6 r r 5 X . o . . . . . . #                                                                                                                                                                                                                                                                                                                                           ",
"                                                                                                                                                                                                                                                                                                  $ . . . . 0 5 r 4 w 6 w 4 w w 0 r 4 4 w 6 w w w 6 6 6 w 6 6 6 7 7 7 7 7 7 6 7 7 U G U U S U v M M v 9 6 r 0 p ; . . . o                                                                                                                                             : . X . * q 0 0 0 0 r 7 7 r 6 w 4 6 1 2 G m v M m m n n n U v G v G G e 6 6 6 6 6 4 7 4 0 r r r r 5 X . . . . . . . . #                                                                                                                                                                                                                                                                                                                                           ",
"                                                                                                                                                                                                                                                                                                  > X X X X 5 q q q 5 y e z l b b b v b l V V V V V V V n V n b b b v M b b b b x v v c c S D D G G c 6 6 r r s - X X X o                                                                                                                                             : . . o X 0 r r 6 r r r 0 0 r r w e y c c y c F a J A F F n v D D L A v b b l b z v c b b m v v m c 1 < < < < . . . o .                                                                                                                                                                                                                                                                                                                                           ",
"                                                                                                                                                                                                                                                                                          O # o # : p : : 0 5 q 5 q 4 A c G m U $.=.:.=.&.K.K.V.V.V.K.K.K.K.K.K.I.K.K.p.#.} ` ` R 9 1 1 w 6 4 6 1 1 6 6 r u r s - X . . o                                                                                                                                             : . . o X 0 r t w r r r 0 4 r A F G G c e w w w w w 6 6 4 3 2 6 4 5 6 -.K.B.M.:.:.>.p.:.p.K.p.p.p.p.-.%.t.] ] X X . # o . o o .                                                                                                                                                                                                                                                                                                                                   ",
"                                                                                                                                                                                                                                                                                          o o . . s 5 5 < 5 5 0 5 0 < F F G G U &.&.&.*.X.C.C.C.C.C.C.K.C.K.K.K.V.V.V.V.|  .} @.@.2 w 4 r r 4 4 w w w w w 4 0 p ; X . . o                                                                                                                                             : . . o X r r t w r r r 0 < 6 F G G G G 6 6 4 4 w 4 w w w 6 r r s 4 < p.:.;.Z.M.B.:.:.;.;.Z.M.M.;.;.&.>.-.%.i.X . . . . @ . o # 3.                                                                                                                                                                                                                                                                                                                                ",
"                                                                                                                                                                                                                                                                                          . . o O 0 0 u 0 4 r < < 4 < F c G G G X.*.*.*.O.I.C.C.C.C.C.C.C.C.C.C.C.C.K.K... .} } ` < r 4 4 5 5 p w w 4 6 r r s d ; X . . o                                                                                                                                             : . . o X r u t w r r w 0 6 6 G S G G K 6 r r r r 4 6 w 6 r 7 4 4 5 < I.:.M.Z.;.M.M.M.V.C.Z.Z.M.;.;.;.&.$.-.] X . . # . + . @ . 3.                                                                                                                                                                                                                                                                                                                                ",
"                                                                                                                                                                                                                                                                                          . o # X r r < w 1 w 1 1 6 1 A A F c v | &.X.*.X.U.K.C.C.I.I.K.I.K.I.L.Z.Z.V.V... .} @.%.< < 5 5 5 5 p 4 0 0 0 0 0 0 s ; $ X o o                                                                                                                                             : . . o X r u t w w r w 0 < < F S G S K 4 4 4 4 4 4 6 6 6 w r r u 6 3 K.M.Z.Z.M.Z.V.Z.Z.Z.Z.Z.S.;.o.;.&.%.%.t.% X . . . + @ . . 3.                                                                                                                                                                                                                                                                                                                                ",
"                                                                                                                                                                                                                                                                                          # o . * s r w e 2 < 1 < < 1 w y F F K =.=.:.:.&.I.I.I.I.I.I.I.I.I.I.I.I.I.K.K.&.$.$.@.T 1 < < < 4 < 4 5 0 0 q p s s d - O o o o                                                                                                                                             : . . o X r u r w w w w 4 6 6 F S G G K r r r 4 4 t w 2 1 2 1 1 1 3 2 :.V.M.M.C.M.K.K.V.V.V.B.;.&.&.>.>.-.t.t.% % % $ o $ . + @ g                                                                                                                                                                                                                                                                                                                                 ",
"                                                                                                                                                                                                                                                                                          O o O % s y e < e G v F y y 1 < 6 < < 2 1 e 2 2 b b b b b b b b b b b b 9 9 z 9 z z z z G F c y A 1 4 5 q : X X $ O O # O o o o                                                                                                                                             : . o o X 0 r r r w w w 4 < < 6 6 6 w t 6 r r r y t.t.p.:.>.$.p.:.:.;.V.Z.C.M.;.l l b b b z e 9 9 9 9 e w y t u s 5 p p . . . @ @ : : : :                                                                                                                                                                                                                                                                                                                         ",
"                                                                                                                                                                                                                                                                                          O o # = u w t e e U v G t F < < 4 < w 6 1 w 6 6 w e z z z z e e e e e e e 2 e 2 e e e e T G G G v < 1 5 q : X X X o O # o O o o                                                                                                                                             : . o o O 0 r r w w w w 4 4 6 6 6 4 w r w r w e e p.p.K.:.B.:.B.*.;.B.;.V.B.:.I.l 3 e e 6 0 4 4 6 6 6 w r w a u 0 a 5 5 * o . o o # # o o #                                                                                                                                                                                                                                                                                                                       ",
"                                                                                                                                                                                                                                                                                          O # o * s r w e e U G c F F < 4 4 5 4 4 4 4 6 6 w w w e e e e e w 6 6 w r w 6 t w 6 e 2 T G G c G < 1 5 5 5 X . X X o o . o o o                                                                                                                                             : o . o O 0 0 r r 4 r 4 4 4 4 6 4 4 r w 6 w w e b I.B.M.Z.:.;.;.Z.;.M.B.:.p.p.p.2 2 w 4 7 5 5 4 4 6 6 6 6 w w t w w 4 0 X . . O o o . . . #                                                                                                                                                                                                                                                                                                                       ",
"                                                                                                                                                                                                                                                                                          # # O * s r r y c R T F S y < 4 4 < 4 < < 4 6 6 6 w e e e e e e e e e w t e w w w 6 w e T G P c S 3 1 4 4 < X . . X o O . o o o                                                                                                                                             : $ . o O s 0 u r 4 r 4 5 q 5 r r 6 w 6 w y e e b K.C.Z.S.*.*.;.M.;.V.:.:.:.p.p.2 1 1 w 4 4 4 4 6 6 6 6 6 1 w 9 w w 1 4 X % X X X o # . . O                                                                                                                                                                                                                                                                                                                       ",
"                                                                                                                                                                                                                                                                                          O # O * s r r e y G G P G c w w 6 < < < < 1 1 1 2 2 2 9 l 9 l 9 z z z 9 9 x c e e z e 2 y S K F a < < 4 4 < X X X O O O o o o o                                                                                                                                             : $ . o o q q q q 4 u u r 0 5 r r w w w t e 9 9 n :.B.M.S.:.p.;.o.o.:.&.p.t.y.@.2 < < 2 < 3 3 3 3 3 2 2 2 9 z 3 2 2 9 1 = & % * - . . . . O                                                                                                                                                                                                                                                                                                                       ",
"                                                                                                                                                                                                                                                                                          o O o * r u w w e e e 2 1 w c K G G G %.$.-.-.-.p.p.p.p.K.p.p.p.p.p.K.I.K.I.K.} Y T U G w < < < < a J K D a 5 4 0 0 p - o o o o                                                                                                                                             : $ . . . o X X X X 5 5 r p 5 0 r w w e G T T U E ~ C Z Z M $.;.B.B.&.k 3 < 3 2 %.$.-.-.-.I.I.I.U.I.I.I.I.I.I.&.>.-.p.p.y.p.s.i.[ X . . o O . O O o                                                                                                                                                                                                                                                                                                               ",
"                                                                                                                                                                                                                                                                                          o o o * r u w w w e 2 e e y T T U M M $.=.=.=.&.;.:.:.:.:.:.B.:.:.:.B.V.M.V.K.} Y R Y v < < < 4 5 a a D D A 4 4 0 p s - o o o o                                                                                                                                             : $ . . . o o o X X 5 r s s 7 r 7 w 7 t T T T T Y N N N C Y :.:.M.M.&.2 e e 1 , $.| |  .$.K.K.K.U.U.U.U.U.U.U.| &.| :.>.:.p.p.t.[ . . . . o . o X o :                                                                                                                                                                                                                                                                                                             ",
"                                                                                                                                                                                                                                                                                          . o o * 0 u w w w e e x e x T R E N N &.;.:.;.;.:.;.;.;.B.M.M.M.M.M.M.Z.M.C.K. .~ Y Y U 3 1 < 4 < a a S S S 6 6 0 0 p - o . o o                                                                                                                                             : $ . . . . o o . X 5 0 r r r r t e 7 e T T T U U U E N N E :.B.Z.V.:.9 e 6 1 3 $.&.| &.| K.K.K.U.U.U.U.U.U.U...*.*.;.;.:.*.&.%.T X . . + . O O . - O                                                                                                                                                                                                                                                                                                             ",
"                                                                                                                                                                                                                                                                                        h . . . % 0 y r w e z e x z c ` Y Y C N *.;.:.;.*.;.;.;.;.M.M.M.;.;.M.M.Z.M.Z.V./ / ~ Y Y 2 1 1 1 < A D S S v 1 6 r 0 0 * . . o o                                                                                                                                             : o . . . . . o . X 5 0 0 r r t 7 e 7 z E E E U S U U U U N :.Z.C.C.K.l e 4 6 2 >.&.*.$. .K.K.K.I.I.U.U.U.U.U.o.M.;.M.;.*.o.*.$.T X . . + $ # . - . #                                                                                                                                                                                                                                                                                                             ",
"                                                                                                                                                                                                                                                                                        h . . . X 4 y t e y x x z x v @.~ ~ C C *.;.:.;.*.;.;.*.*.*.*.M.;.;.M.M.M.M.M.C. ./ ~ ~ E 2 2 1 1 1 S F S v v 6 6 r 0 0 * . . o o                                                                                                                                             : o . . . . . . . X 5 r r 7 t t 7 z 7 z E E E E S E U U U N ;.C.A.C.I.b c r e 2 >.&.;. .$.K.K.I.I.I.U.U.U.U.U.o.M.S.S.M.o.o.X.$.G % o $ @ # # # X # :                                                                                                                                                                                                                                                                                                             ",
"                                                                                                                                                                                                                                                                                  + $ . > : < 5 1 G T R E ^ Y ~ C / C K.C.Z.Z.M.M.M.*.*.;.*.*.o.*.*.;.;.;.;.;.;.B.M.M.Z.Z.Z.Z.C.M.N N N U U 1 1 6 6 w w 7 r r 0 - . . . .                                                                                                                                             : . . . . 5 5 0 0 w r r r r u r 6 t e z R E U U U U U U U N N Y ~ ~ ~ Y Y Y Y N :.;.*.X.....| ..o.o.o.S.o.S.O.)././././.U.G.G.U.C.;.;.B.V.;.M.B.p.p.i.X X o .                                                                                                                                                                                                                                                                                                     ",
"                                                                                                                                                                                                                                                                              : . . . . - : ; < < v U U U Y Y ~ ~ / C K.V.B.Z.M.M.M.M.M.;.;.*.*.;.;.;.;.;.;.;.;.M.*.M.M.Z.Z.Z.B.V.C ~ Y E T 7 7 7 r w w 6 6 0 0 - . . . o                                                                                                                                             : . . . . 5 5 0 0 w r r r 0 u r 7 t 7 2 E E E E U U U U U N N Y Y ~ ~ Y Y Y Y N :.&.*.X.X.&.X.&.*.o.o.M.S.S.S.)././.~.U.U.U.U.U.C.*.X.X.o.;.;.;.>.t.i.X X . o >                                                                                                                                                                                                                                                                                                   ",
"                                                                                                                                                                                                                                                                              : + . o . : 5 < 5 3 S U U U Y Y Y N C C V.B.M.M.M.M.M.M.;.;.;.;.;.;.;.;.;.;.;.;.;.*.*.*.M.M.M.M.B.V.~ ~ Y R R e w r r r w 6 6 4 5 - . . . o                                                                                                                                             : . . . . 0 5 0 r w r r r 7 r r 7 w 6 7 E U U U U U n M U M N E Y Y Y Y Y E N M :.&.*.*.*.&.&.;.;.*.M.M.M.M.S.)./.~.U.U.U.U.U.U.K.M.;.M.M.;.;.*.:.-.t.X X . o #                                                                                                                                                                                                                                                                                                   ",
"                                                                                                                                                                                                                                                                              : . . . . ; 5 < < < c v U M n U n N C / V.C.Z.M.Z.M.M.M.;.;.;.;.;.;.;.;.;.;.;.;.;.*.*.*.;.M.M.M.B.V.~ ~ Y R Q e e r r r w w 6 4 5 - . . . o                                                                                                                                             : . . . . 0 q 0 r r r r r r r r 7 w 6 7 T E U U U U U U U M U U E U E U E M n M =.:.=.&.&.&.&.:.:.*.M.;.;.S.M././.~.U.U.U.U.U.U.K.;.*.*.*.o.;.;.:.p.t.% X X . O                                                                                                                                                                                                                                                                                                   ",
"                                                                                                                                                                                                                                                                              : . . . . 5 r 4 6 1 c v G m n ^ Y ~ ~  .B.M.;.o.;.;.M.;.;.;.;.;.;.;.;.;.;.;.;.;.;.:.;.;.;.;.;.M.B.V.C ~ Y R R z e w w w w w w 0 0 * . . . o                                                                                                                                             : . . . . 0 0 0 r 7 7 r r r 7 r 7 w 6 w G G G S U U U U U U U U U U U U U Y U E =.=.&.&.&.&.&.:.;.&.V.B.M.B.Z.U.U.U.U.U.U.U.U.U.I.:.:.;.;.;.;.;.;.$.%.& % * * X                                                                                                                                                                                                                                                                                                   ",
"                                                                                                                                                                                                                                                                              : o o X X u K c S c G G U U U =.:.B.:.B.C.C.Z.Z.Z.M.M.;.;.;.;.;.;.;.;.;.;.;.;.;.;.:.;.;.;.;.*.M.B.V.C ~ Y R R z z w t w w w w r r * . . . o                                                                                                                                             : . . . . 0 0 4 7 7 7 r r r 7 r r r w 1 w e e e z G U M U U U U U U U U U M v v U M N N N N N ~ ~ C :.;.M.;.o.M.*.*.*.*.*.o.*.M.B.*.;.M.M.;.;.;.;.p.p.G G y J W X . O .                                                                                                                                                                                                                                                                                           ",
"                                                                                                                                                                                                                                                                              : . o X X s K S S c G v v v v :.:.B.B.V.M.;.;.S.S.M.M.;.;.;.;.;.;.;.;.;.;.;.;.;.;.;.;.;.;.;.*.M.Z.V.C ~ Y ^ R z z w w w w w w r r * . . . o                                                                                                                                             : . . . . 0 0 7 6 6 7 r r 7 7 r r r r 6 6 1 w 2 e U E U E U U U U U G U U U M M M M M N N N N N ~ ~ K.V.V.B.M.;.*.*.*.*.*.S.S.M.B.;.B.B.M.Z.M.;.;.&.p.v v T P J X X O . p                                                                                                                                                                                                                                                                                         ",
"                                                                                                                                                                                                                                                                              : . o X % a U S S v U v v b b :.:.:.:.C.B.M.Z.Z.M.M.M.B.;.M.M.;.M.;.M.;.;.;.;.;.;.;.;.;.;.;.*.;.M.B.C ~ Y ^ R l z e e w w w r r r * . . . o                                                                                                                                             : . . . . 0 0 7 6 6 6 7 r 7 7 r 7 7 r w w w w 1 e U T U E U U U U G M U M n v U M N N N N N N ~ ~ ~ K.;.*.;.*.;.*.*.*.*.*.*.*.;.B.:.B.B.;.M.M.;.;.:.p.M M m c [ % X . # j                                                                                                                                                                                                                                                                                         ",
"                                                                                                                                                                                                                                                                              : o . % = a T U U U v M M b b :.&.:.:.M.B.Z.Z.M.M.B.B.B.M.B.M.M.M.;.;.;.;.;.;.;.;.;.;.:.M.;.M.;.M.B.C N ~ ~ ^ z z w w w t w w r 4 $ . . . O                                                                                                                                             : . . . . 0 4 7 7 7 r r r 7 7 7 r r w r w 4 6 w w K K U U U U U G U U v M M M N M M M N N N ~ N ~ / K.B.:.;.*.*.*.*.*.*.*.;.;.B.B.B.B.B.M.M.;.*.;.:.B.N N m E P % . . $ j                                                                                                                                                                                                                                                                                         ",
"                                                                                                                                                                                                                                                                              : o . X % A T E U U U M M b n =.=.;.;.;.:.V.V.Z.Z.B.B.B.B.:.:.:.;.;.;.;.;.;.;.;.;.:.:.:.:.;.;.;.;.;.~ C Y Y R l z w w w r w r 0 0 $ . . . #                                                                                                                                             : . . . . 0 4 r 7 7 r 7 r r 7 r r r r r r w 6 w t K P Q K c U G G U U M U M M M N M E E E N ~ ~ /  .:.:.:.:.:.:.*.*.:.:.:.:.:.B.B.B.B.B.B.B.B.;.;.;.:.N Y U E P % X . . :                                                                                                                                                                                                                                                                                         ",
"                                                                                                                                                                                                                                                                              : o X X % F [ Y U U U M n b l N b b V n n N N N N C C N N N N N N N N N N N N N N N N N N N N N N ~ N Y Y R E 1 z r r r r r r r 0 $ . . o #                                                                                                                                             : . . . . p 0 r 7 r r 7 7 0 r 0 0 r r r r r r 0 5 % % X X & c G G G v M U M M U U U Y Y Y Y ~ Y E N N M N N N n n n n N N N N N N N N N N N n N N N Y n N U G K % X . o :                                                                                                                                                                                                                                                                                         ",
"                                                                                                                                                                                                                                                                              : . . X % A T U Y U U U U U v v b M M M N N N N N N E N U M U M M M M M M M U M U U U U N M M N M N E Y E E T 7 2 r r r r r r r 0 * . . o #                                                                                                                                             : . . . . p 0 0 r r r 7 7 0 4 4 0 0 r r r 0 r r r X X X X % A K G U G U U U U U T T T E E Y E Y E E M M M M M M M M U U E M N N N N N N N N n E N E E E Y T K P X X . o :                                                                                                                                                                                                                                                                                         ",
"                                                                                                                                                                                                                                                                              : o O X % A T U Y T T G G U U U U U E E U U U U Y U U U U U U U U U U U U U U U T U E E U U U U U U E T U U K 6 t r r r u r r s p # . . . #                                                                                                                                             : . . . . p p r r r r r r 0 0 0 0 r r r r r 4 5 0 X X . . % K K F T G T G U U U U U U E E Y U T U R U T T U U U U U U E E T T Y U U U U U U U E U T U U U G K K X . . . :                                                                                                                                                                                                                                                                                         ",
"                                                                                                                                                                                                                                                                              > . . . % a [ T Y T T U G G G F F G G G G G K U G U U U U U U U U U U U U U T T T U U U U U U U T U T K K K K 6 4 0 4 r r r r 0 p # . . . #                                                                                                                                             : . . . . p 0 0 0 0 4 4 4 5 5 5 5 4 4 4 4 r p 0 p . . . . X a L K K G K U G U U U U U U U T G U G U G G G G G G G G G U U U U U U U U U U U G T K T U R U P P L X . . . :                                                                                                                                                                                                                                                                                         ",
"                                                                                                                                                                                                                                                                              > . . X * a T T T G U U T K P F J K K K K K K K K K K K K K K K K K K K K K K K K K K K K K K K K F F K K J J r 4 5 0 0 0 0 r p p $ . . . #                                                                                                                                             : . . . . p 0 0 0 0 0 0 0 q q q 0 4 0 4 4 4 5 p 5 . . . . % s L L K K K P P P P U K K K K K G G G K K K K K K K K K K K K K K P P P K K K P K P P K G T G K J s X . . . :                                                                                                                                                                                                                                                                                         ",
"                                                                                                                                                                                                                                                                              > . . X . % & & & & & % & % % X % X % % % % % X X % % % % % % % % % % % % % % % % % % % % % % % % % X X % X X X X X X X X X X X X o . . . #                                                                                                                                             : . . . . . X X X X X X X X X X X X X X X X X X o . . . . X X X X X & % % % % & % % % % % % % % % % % % X X X % % % % % % % % % % % % % % % % % % X % & % % X % X . X . :                                                                                                                                                                                                                                                                                         ",
"                                                                                                                                                                                                                                                                              : . . . . o o o o . . o o o . . . . . . . . . . . . . . . . . . . . . . . . . . . . . . . . . . . . . . . . . . . . . . . . . . o . . . o #                                                                                                                                             : o . . . . . . . . . . . . . . . . . . . . . . . . . . . . . . . o . . . . . . . . o . . . . . . . . . . . . . . . . . . . . . . o . . . . . . . . . . . . . . . . . . :                                                                                                                                                                                                                                                                                         ",
"                                                                                                                                                                                                                                                                              : . . . . o o o o . . . . o . . . . . . . . . . . . . . . . . . . . . . . . . . . . . . . . . . . . . . . . . . . . . . . . . . o . . . o #                                                                                                                                             : o . . . . . . . . . . . . . . . . . . . . . . . . . . . . . . . o o . . . . . . . o . . . . . . . . . . . . . . . . . . . . . . . . . . . . . . . . . . . . . . . . . :                                                                                                                                                                                                                                                                                         ",
"                                                                                                                                                                                                                                                                              : . . . . o o o . . . . . . . . . . . . . . . . . . . . . . . . . . . . . . . . . . . . . . . . . . . . . . . . . . . . . . . . o . . . . #                                                                                                                                             : o . . . . . . . . . . . . . . . . . . . . . . . . . . . . . . . . o o . . . . . . o . . . . . . . . . . . . . . . . . . . . . . . . . . . . . . . . . . . . . . . . . j                                                                                                                                                                                                                                                                                         ",
"                                                                                                                                                                                                                                                                              : . . . . . . . . . . o o . . . . . . . . . . . . . . . . . . . . . . . . . . . . . . . . . . . . . . . . . . . . . . . . . . . o . . . o #                                                                                                                                             : o . . . . . . . . . . . . . . . . . . . . . . . . . . . . . . . . o o o . . . . . . . . . . . . . . . . . . . . . . . . . . . . . . . . . . . o . . . . . . . . . . . :                                                                                                                                                                                                                                                                                         "
};
