/* XPM */
static char *_dd44547aa7242d2869ca349be3f742cTjB0uTvhBZKu7oxd[] = {
/* columns rows colors chars-per-pixel */
"500 500 256 2 ",
"   c None",
".  c #0C0301",
"X  c #080606",
"o  c #130301",
"O  c #1B0401",
"+  c #1C0B02",
"@  c #160A08",
"#  c #1B1415",
"$  c #180F0D",
"%  c #230B01",
"&  c #270702",
"*  c #370A00",
"=  c #281406",
"-  c #381705",
";  c #291816",
":  c #371C17",
">  c #240C13",
",  c #39231A",
"<  c #34240B",
"1  c #3A2624",
"2  c #372E2C",
"3  c #311D23",
"4  c #471903",
"5  c #551A01",
"6  c #45140B",
"7  c #492404",
"8  c #582704",
"9  c #472619",
"0  c #552A18",
"q  c #58341A",
"w  c #54340A",
"e  c #662703",
"r  c #673606",
"t  c #763605",
"y  c #673818",
"u  c #70310F",
"i  c #432524",
"p  c #4C2B24",
"a  c #4C2C2B",
"s  c #452A27",
"d  c #532D26",
"f  c #49332A",
"g  c #5C352C",
"h  c #5D3A2C",
"j  c #573427",
"k  c #5A3934",
"l  c #493534",
"z  c #633A2C",
"x  c #6B3E2D",
"c  c #653826",
"v  c #633C32",
"b  c #6B3E32",
"n  c #653937",
"m  c #713D2B",
"M  c #5C1C08",
"N  c #724612",
"B  c #5A4338",
"V  c #58422C",
"C  c #6A432B",
"Z  c #75472A",
"A  c #6C4233",
"S  c #694639",
"D  c #724433",
"F  c #744A34",
"G  c #7B4C34",
"H  c #7B4D3B",
"J  c #74493A",
"K  c #7D523B",
"L  c #7B5237",
"P  c #72522F",
"I  c #604C17",
"U  c #684944",
"Y  c #795745",
"T  c #725049",
"R  c #78664F",
"E  c #78726E",
"W  c #554644",
"Q  c #553A40",
"!  c #853A09",
"~  c #984A08",
"^  c #985509",
"/  c #894819",
"(  c #964B18",
")  c #995617",
"_  c #8A4C0B",
"`  c #A75808",
"'  c #A85819",
"]  c #AE570F",
"[  c #976612",
"{  c #B76707",
"}  c #B97607",
"|  c #B76918",
" . c #B97616",
".. c #AA6A11",
"X. c #884B27",
"o. c #964C25",
"O. c #89542A",
"+. c #975527",
"@. c #834D35",
"#. c #825234",
"$. c #82533B",
"%. c #8B5C3C",
"&. c #885838",
"*. c #955B38",
"=. c #914C32",
"-. c #A85A26",
";. c #A85C2E",
":. c #94643D",
">. c #9A673B",
",. c #906933",
"<. c #A96528",
"1. c #B66826",
"2. c #B97527",
"3. c #A66A39",
"4. c #B77639",
"5. c #AE7233",
"6. c #C67809",
"7. c #C66B17",
"8. c #C77818",
"9. c #D47C19",
"0. c #C66A09",
"q. c #C87826",
"w. c #D67C25",
"e. c #C87936",
"r. c #C8712D",
"t. c #C05F1A",
"y. c #865A44",
"u. c #8F5C48",
"i. c #8B6447",
"p. c #956543",
"a. c #996644",
"s. c #966945",
"d. c #9A6944",
"f. c #9B6B4A",
"g. c #95684B",
"h. c #976B52",
"j. c #937052",
"k. c #A16D44",
"l. c #A46B48",
"z. c #A87447",
"x. c #B57B49",
"c. c #A77955",
"v. c #B47D53",
"b. c #A66E51",
"n. c #8E7769",
"m. c #A77A62",
"M. c #C67D44",
"N. c #B88511",
"B. c #B4892C",
"V. c #A89038",
"C. c #C98609",
"Z. c #C98718",
"A. c #D78618",
"S. c #D99719",
"D. c #CF9010",
"F. c #E59619",
"G. c #E58E19",
"H. c #D8A518",
"J. c #EFAC1B",
"K. c #C98626",
"L. c #D78626",
"P. c #C99728",
"I. c #D89627",
"U. c #C98638",
"Y. c #D78835",
"T. c #D99737",
"R. c #CA9933",
"E. c #E58C27",
"W. c #E79727",
"Q. c #E69737",
"!. c #EE9432",
"~. c #D9A727",
"^. c #DAA837",
"/. c #D3AE35",
"(. c #E7A828",
"). c #F7AA29",
"_. c #E9B729",
"`. c #F9B729",
"'. c #E9A837",
"]. c #F8AB37",
"[. c #E9B838",
"{. c #F9B836",
"}. c #FAC62A",
"|. c #EAC539",
" X c #FDC333",
".X c #F9C838",
"XX c #FBD539",
"oX c #F4CF2D",
"OX c #F6DC37",
"+X c #BB834C",
"@X c #BB8454",
"#X c #B88458",
"$X c #B08D55",
"%X c #B48E6A",
"&X c #A49463",
"*X c #C8874A",
"=X c #D48B48",
"-X c #DA9648",
";X c #C58A55",
":X c #C99459",
">X c #DA9A59",
",X c #CE904E",
"<X c #E49D54",
"1X c #E59E58",
"2X c #E59847",
"3X c #D7AB50",
"4X c #E8BA47",
"5X c #FAB846",
"6X c #E6A35A",
"7X c #FDAB54",
"8X c #F7AA5A",
"9X c #FAB957",
"0X c #ECAD4C",
"qX c #C89867",
"wX c #D79C64",
"eX c #C89871",
"rX c #D8A468",
"tX c #D7A876",
"yX c #CEAB71",
"uX c #E5A866",
"iX c #EDB26C",
"pX c #E29E67",
"aX c #E8C746",
"sX c #FAC846",
"dX c #FCD748",
"fX c #FBC958",
"gX c #FBD857",
"hX c #EACD54",
"jX c #FDE549",
"kX c #FDE758",
"lX c #FAEF59",
"zX c #FACA66",
"xX c #FCD966",
"cX c #FAD977",
"vX c #EDCD6D",
"bX c #FEE867",
"nX c #FEF36A",
"mX c #FEE977",
"MX c #FFF37B",
"NX c #FEF576",
"BX c #EEE573",
"VX c #DCC75B",
"CX c #A99B93",
"ZX c #D1AE87",
"AX c #E1AD83",
"SX c #F4D588",
"DX c #FEEA86",
"FX c #FEF483",
"GX c #FEF889",
"HX c #FDE895",
"JX c #FEF797",
"KX c #ECE384",
"LX c #FEF6A7",
"PX c #FDEFAF",
"IX c #E8CBA5",
"UX c #FEF4C8",
/* pixels */
"                                                                                                                                                                                                                                                                                                                                                                                                                                                                                                                                                                                                                                                                                                                                                                                                                                                                                                                                                                                                                                        ",
"                                                                                                                                                                                                                                                                                                                                                                                                                                                                                                                                                                                                                                                                                                                                                                                                                                                                                                                                                                                                                                        ",
"                                                                                                                                                                                                                                                                                                                                                                                                                                                                                                                                                                                                                                                                                                                                                                                                                                                                                                                                                                                                                                        ",
"                                                                                                                                                                                                                                                                                                                                                                                                                                                                                                                                                                                                                                                                                                                                                                                                                                                                                                                                                                                                                                        ",
"                                                                                                                                                                                                                                                                                                                                                                                                                                                                                                                                                                                                                                                                                                                                                                                                                                                                                                                                                                                                                                        ",
"                                                                                                                                                                                                                                                                                                                                                                                                                                                                                                                                                                                                                                                                                                                                                                                                                                                                                                                                                                                                                                        ",
"                                                                                                                                                                                                                                                                                                                                                                                                                                                                                                                                                                                                                                                                                                                                                                                                                                                                                                                                                                                                                                        ",
"                                                                                                                                                                                                                                                                                                                                                                                                                                                                                                                                                                                                                                                                                                                                                                                                                                                                                                                                                                                                                                        ",
"                                                                                                                                                                                                                                                                                                                                                                                                                                                                                                                                                                                                                                                                                                                                                                                                                                                                                                                                                                                                                                        ",
"                                                                                                                                                                                                                                                                                                                                                                                                                                                                                                                                                                                                                                                                                                                                                                                                                                                                                                                                                                                                                                        ",
"                                                                                                                                                                                                                                                                                                                                                                                                                                                                                                                                                                                                                                                                                                                                                                                                                                                                                                                                                                                                                                        ",
"                                                                                                                                                                                                                                                                                                                                                                                                                                                                                                                                                                                                                                                                                                                                                                                                                                                                                                                                                                                                                                        ",
"                                                                                                                                                                                                                                                                                                                                                                                                                                                                                                                                                                                                                                                                                                                                                                                                                                                                                                                                                                                                                                        ",
"                                                                                                                                                                                                                                                                                                                                                                                                                                                                                                                                                                                                                                                                                                                                                                                                                                                                                                                                                                                                                                        ",
"                                                                                                                                                                                                                                                                                                                                                                                                                                                                                                                                                                                                                                                                                                                                                                                                                                                                                                                                                                                                                                        ",
"                                                                                                                                                                                                                                                                                                                                                                                                                                                                                                                                                                                                                                                                                                                                                                                                                                                                                                                                                                                                                                        ",
"                                                                                                                                                                                                                                                                                                                                                                                                                                                                                                                                                                                                                                                                                                                                                                                                                                                                                                                                                                                                                                        ",
"                                                                                                                                                                                                                                                                                                                                                                                                                                                                                                                                                                                                                                                                                                                                                                                                                                                                                                                                                                                                                                        ",
"                                                                                                                                                                                                                                                                                                                                                                                                                                                                                                                                                                                                                                                                                                                                                                                                                                                                                                                                                                                                                                        ",
"                                                                                                                                                                                                                                                                                                                                                                                                                                                                                                                                                                                                                                                                                                                                                                                                                                                                                                                                                                                                                                        ",
"                                                                                                                                                                                                                                                                                                                                                                                                                                                                                                                                                                                                                                                                                                                                                                                                                                                                                                                                                                                                                                        ",
"                                                                                                                                                                                                                                                                                                                                                                                                                                                                                                                                                                                                                                                                                                                                                                                                                                                                                                                                                                                                                                        ",
"                                                                                                                                                                                                                                                                                                                                                                                                                                                                                                                                                                                                                                                                                                                                                                                                                                                                                                                                                                                                                                        ",
"                                                                                                                                                                                                                                                                                                                                                                                                                                                                                                                                                                                                                                                                                                                                                                                                                                                                                                                                                                                                                                        ",
"                                                                                                                                                                                                                                                                                                                                                                                                                                                                                                                                                                                                                                                                                                                                                                                                                                                                                                                                                                                                                                        ",
"                                                                                                                                                                                                                                                                                                                                                                                                                                                                                                                                                                                                                                                                                                                                                                                                                                                                                                                                                                                                                                        ",
"                                                                                                                                                                                                                                                                                                                                                                                                                                                                                                                                                                                                                                                                                                                                                                                                                                                                                                                                                                                                                                        ",
"                                                                                                                                                                                                                                                                                                                                                                                                                                                                                                                                                                                                                                                                                                                                                                                                                                                                                                                                                                                                                                        ",
"                                                                                                                                                                                                                                                                                                                                                                                                                                                                                                                                                                                                                                                                                                                                                                                                                                                                                                                                                                                                                                        ",
"                                                                                                                                                                                                                                                                                                                                                                                                                                                                                                                                                                                                                                                                                                                                                                                                                                                                                                                                                                                                                                        ",
"                                                                                                                                                                                                                                                                                                                                                                                                                                                                                                                                                                                                                                                                                                                                                                                                                                                                                                                                                                                                                                        ",
"                                                                                                                                                                                                                                                                                                                                                                                                                                                                                                                                                                                                                                                                                                                                                                                                                                                                                                                                                                                                                                        ",
"                                                                                                                                                                                                                                                                                                                                                                                                                                                                                                                                                                                                                                                                                                                                                                                                                                                                                                                                                                                                                                        ",
"                                                                                                                                                                                                                                                                                                                                                                                                                                                                                                                                                                                                                                                                                                                                                                                                                                                                                                                                                                                                                                        ",
"                                                                                                                                                                                                                                                                                                                                                                                                                                                                                                                                                                                                                                                                                                                                                                                                                                                                                                                                                                                                                                        ",
"                                                                                                                                                                                                                                                                                                                                                                                                                                                                                                                                                                                                                                                                                                                                                                                                                                                                                                                                                                                                                                        ",
"                                                                                                                                                                                                                                                                                                                                                                                                                                                                                                                                                                                                                                                                                                                                                                                                                                                                                                                                                                                                                                        ",
"                                                                                                                                                                                                                                                                                                                                                                                                                                                                                                                                                                                                                                                                                                                                                                                                                                                                                                                                                                                                                                        ",
"                                                                                                                                                                                                                                                                                                                                                                                                                                                                                                                                                                                                                                                                                                                                                                                                                                                                                                                                                                                                                                        ",
"                                                                                                                                                                                                                                                                                                                                                                                                                                                                                                                                                                                                                                                                                                                                                                                                                                                                                                                                                                                                                                        ",
"                                                                                                                                                                                                                                                                                                                                                                                                                                                                                                                                                                                                                                                                                                                                                                                                                                                                                                                                                                                                                                        ",
"                                                                                                                                                                                                                                                                                                                                                                                                                                                                                                                                                                                                                                                                                                                                                                                                                                                                                                                                                                                                                                        ",
"                                                                                                                                                                                                                                                                                                                                                                                                                                                                                                                                                                                                                                                                                                                                                                                                                                                                                                                                                                                                                                        ",
"                                                                                                                                                                                                                                                                                                                                                                                                                                                                                                                                                                                                                                                                                                                                                                                                                                                                                                                                                                                                                                        ",
"                                                                                                                                                                                                                                                                                                                                                                                                                                                                                                                                                                                                                                                                                                                                                                                                                                                                                                                                                                                                                                        ",
"                                                                                                                                                                                                                                                                                                                                                                                                                                                                                                                                                                                                                                                                                                                                                                                                                                                                                                                                                                                                                                        ",
"                                                                                                                                                                                                                                                                                                                                                                                                                                                                                                                                                                                                                                                                                                                                                                                                                                                                                                                                                                                                                                        ",
"                                                                                                                                                                                                                                                                                                                                                                                                                                                                                                                                                                                                                                                                                                                                                                                                                                                                                                                                                                                                                                        ",
"                                                                                                                                                                                                                                                                                                                                                                                                                                                                                                                                                                                                                                                                                                                                                                                                                                                                                                                                                                                                                                        ",
"                                                                                                                                                                                                                                                                                                                                                                                                                                                                                                                                                                                                                                                                                                                                                                                                                                                                                                                                                                                                                                        ",
"                                                                                                                                                                                                                                                                                                                                                                                                                                                                                                                                                                                                                                                                                                                                                                                                                                                                                                                                                                                                                                        ",
"                                                                                                                                                                                                                                                                                                                                                                                                                                                                                                                                                                                                                                                                                                                                                                                                                                                                                                                                                                                                                                        ",
"                                                                                                                                                                                                                                                                                                                                                                                                                                                                                                                                                                                                                                                                                                                                                                                                                                                                                                                                                                                                                                        ",
"                                                                                                                                                                                                                                                                                                                                                                                                                                                                                                                                                                                                                                                                                                                                                                                                                                                                                                                                                                                                                                        ",
"                                                                                                                                                                                                                                                                                                                                                                                                                                                                                                                                                                                                                                                                                                                                                                                                                                                                                                                                                                                                                                        ",
"                                                                                                                                                                                                                                                                                                                                                                                                                                                                                                                                                                                                                                                                                                                                                                                                                                                                                                                                                                                                                                        ",
"                                                                                                                                                                                                                                                                                                                                                                                                                                                                                                                                                                                                                                                                                                                                                                                                                                                                                                                                                                                                                                        ",
"                                                                                                                                                                                                                                                                                                                                                                                                                                                                                                                                                                                                                                                                                                                                                                                                                                                                                                                                                                                                                                        ",
"                                                                                                                                                                                                                                                                                                                                                                                                                                                                                                                                                                                                                                                                                                                                                                                                                                                                                                                                                                                                                                        ",
"                                                                                                                                                                                                                                                                                                                                                                                                                                                                                                                                                                                                                                                                                                                                                                                                                                                                                                                                                                                                                                        ",
"                                                                                                                                                                                                                                                                                                                                                                                                                                                                                                                                                                                                                                                                                                                                                                                                                                                                                                                                                                                                                                        ",
"                                                                                                                                                                                                                                                                                                                                                                                                                                                                                                                                                                                                                                                                                                                                                                                                                                                                                                                                                                                                                                        ",
"                                                                                                                                                                                                                                                                                                                                                                                                                                                                                                                                                                                                                                                                                                                                                                                                                                                                                                                                                                                                                                        ",
"                                                                                                                                                                                                                                                                                                                                                                                                                                                                                                                                                                                                                                                                                                                                                                                                                                                                                                                                                                                                                                        ",
"                                                                                                                                                                                                                                                                                                                                                                                                                                                                                                                                                                                                                                                                                                                                                                                                                                                                                                                                                                                                                                        ",
"                                                                                                                                                                                                                                                                                                                                                                                                                                                                                                                                                                                                                                                                                                                                                                                                                                                                                                                                                                                                                                        ",
"                                                                                                                                                                                                                                                                                                                                                                                                                                                                                                                                                                                                                                                                                                                                                                                                                                                                                                                                                                                                                                        ",
"                                                                                                                                                                                                                                                                                                                                                                                                                                                                                                                                                                                                                                                                                                                                                                                                                                                                                                                                                                                                                                        ",
"                                                                                                                                                                                                                                                                                                                                                                                                                                                                                                                                                                                                                                                                                                                                                                                                                                                                                                                                                                                                                                        ",
"                                                                                                                                                                                                                                                                                                                                                                                                                                                                                                                                                                                                                                                                                                                                                                                                                                                                                                                                                                                                                                        ",
"                                                                                                                                                                                                                                                                                                                                                                                                                                                                                                                                                                                                                                                                                                                                                                                                                                                                                                                                                                                                                                        ",
"                                                                                                                                                                                                                                                                                                                                                                                                                                                                                                                                                                                                                                                                                                                                                                                                                                                                                                                                                                                                                                        ",
"                                                                                                                                                                                                                                                                                                                                                                                                                                                                                                                                                                                                                                                                                                                                                                                                                                                                                                                                                                                                                                        ",
"                                                                                                                                                                                                                                                                                                                                                                                                                                                                                                                                                                                                                                                                                                                                                                                                                                                                                                                                                                                                                                        ",
"                                                                                                                                                                                                                                                                                                                                                                                                                                                                                                                                                                                                                                                                                                                                                                                                                                                                                                                                                                                                                                        ",
"                                                                                                                                                                                                                                                                                                                                                                                                                                                                                                                                                                                                                                                                                                                                                                                                                                                                                                                                                                                                                                        ",
"                                                                                                                                                                                                                                                                                                                                                                                                                                                                                                                                                                                                                                                                                                                                                                                                                                                                                                                                                                                                                                        ",
"                                                                                                                                                                                                                                                                                                                                                                                                                                                                                                                                                                                                                                                                                                                                                                                                                                                                                                                                                                                                                                        ",
"                                                                                                                                                                                                                                                                                                                                                                                                                                                                                                                                                                                                                                                                                                                                                                                                                                                                                                                                                                                                                                        ",
"                                                                                                                                                                                                                                                                                                                                                                                                                                                                                                                                                                                                                                                                                                                                                                                                                                                                                                                                                                                                                                        ",
"                                                                                                                                                                                                                                                                                                                                                                                                                                                                                                                                                                                                                                                                                                                                                                                                                                                                                                                                                                                                                                        ",
"                                                                                                                                                                                                                                                                                                                                                                                                                                                                                                                                                                                                                                                                                                                                                                                                                                                                                                                                                                                                                                        ",
"                                                                                                                                                                                                                                                                                                                                                                                                                                                                                                                                                                                                                                                                                                                                                                                                                                                                                                                                                                                                                                        ",
"                                                                                                                                                                                                                                                                                                                                                                                                                                                                                                                                                                                                                                                                                                                                                                                                                                                                                                                                                                                                                                        ",
"                                                                                                                                                                                                                                                                                                                                                                                                                                                                                                                                                                                                                                                                                                                                                                                                                                                                                                                                                                                                                                        ",
"                                                                                                                                                                                                                                                                                                                                                                                                                                                                                                                                                                                                                                                                                                                                                                                                                                                                                                                                                                                                                                        ",
"                                                                                                                                                                                                                                                                                                                                                                                                                                                                                                                                                                                                                                                                                                                                                                                                                                                                                                                                                                                                                                        ",
"                                                                                                                                                                                                                                                                                                                                                                                                                                                                                                                                                                                                                                                                                                                                                                                                                                                                                                                                                                                                                                        ",
"                                                                                                                                                                                                                                                                                                                                                                                                                                                                                                                                                                                                                                                                                                                                                                                                                                                                                                                                                                                                                                        ",
"                                                                                                                                                                                                                                                                                                                                                                                                                                                                                                                                                                                                                                                                                                                                                                                                                                                                                                                                                                                                                                        ",
"                                                                                                                                                                                                                                                                                                                                                                                                                                                                                                                                                                                                                                                                                                                                                                                                                                                                                                                                                                                                                                        ",
"                                                                                                                                                                                                                                                                                                                                                                                                                                                                                                                                                                                                                                                                                                                                                                                                                                                                                                                                                                                                                                        ",
"                                                                                                                                                                                                                                                                                                                                                                                                                                                                                                                                                                                                                                                                                                                                                                                                                                                                                                                                                                                                                                        ",
"                                                                                                                                                                                                                                                                                                                                                                                                                                                                                                                                                                                                                                                                                                                                                                                                                                                                                                                                                                                                                                        ",
"                                                                                                                                                                                                                                                                                                                                                                                                                                                                                                                                                                                                                                                                                                                                                                                                                                                                                                                                                                                                                                        ",
"                                                                                                                                                                                                                                                                                                                                                                                                                                                                                                                                                                                                                                                                                                                                                                                                                                                                                                                                                                                                                                        ",
"                                                                                                                                                                                                                                                                                                                                                                                                                                                                                                                                                                                                                                                                                                                                                                                                                                                                                                                                                                                                                                        ",
"                                                                                                                                                                                                                                                                                                                                                                                                                                                                                                                                                                                                                                                                                                                                                                                                                                                                                                                                                                                                                                        ",
"                                                                                                                                                                                                                                                                                                                                                                                                                                                                                                                                                                                                                                                                                                                                                                                                                                                                                                                                                                                                                                        ",
"                                                                                                                                                                                                                                                                                                                                                                                                                                                                                                                                                                                                                                                                                                                                                                                                                                                                                                                                                                                                                                        ",
"                                                                                                                                                                                                                                                                                                                                                                                                                                                                                                                                                                                                                                                                                                                                                                                                                                                                                                                                                                                                                                        ",
"                                                                                                                                                                                                                                                                                                                                                                                                                                                                                                                                                                                                                                                                                                                                                                                                                                                                                                                                                                                                                                        ",
"                                                                                                                                                                                                                                                                                                                                                                                                                                                                                                                                                                                                                                                                                                                                                                                                                                                                                                                                                                                                                                        ",
"                                                                                                                                                                                                                                                                                                                                                                                                                                                                                                                                                                                                                                                                                                                                                                                                                                                                                                                                                                                                                                        ",
"                                                                                                                                                                                                                                                                                                                                                                                                                                                                                                                                                                                                                                                                                                                                                                                                                                                                                                                                                                                                                                        ",
"                                                                                                                                                                                                                                                                                                                                                                                                                                                                                                                                                                                                                                                                                                                                                                                                                                                                                                                                                                                                                                        ",
"                                                                                                                                                                                                                                                                                                                                                                                                                                                                                                                                                                                                                                                                                                                                                                                                                                                                                                                                                                                                                                        ",
"                                                                                                                                                                                                                                                                                                                                                                                                                                                                                                                                                                                                                                                                                                                                                                                                                                                                                                                                                                                                                                        ",
"                                                                                                                                                                                                                                                                                                                                                                                                                                                                                                                                                                                                                                                                                                                                                                                                                                                                                                                                                                                                                                        ",
"                                                                                                                                                                                                                                                                                                                                                                                                                                                                                                                                                                                                                                                                                                                                                                                                                                                                                                                                                                                                                                        ",
"                                                                                                                                                                                                                                                                                                                                                                                                                                                                                                                                                                                                                                                                                                                                                                                                                                                                                                                                                                                                                                        ",
"                                                                                                                                                                                                                                                                                                                                                                                                                                                                                                                                                                                                                                                                                                                                                                                                                                                                                                                                                                                                                                        ",
"                                                                                                                                                                                                                                                                                                                                                                                                                                                                                                                                                                                                                                                                                                                                                                                                                                                                                                                                                                                                                                        ",
"                                                                                                                                                                                                                                                                                                                                                                                                                                                                                                                                                                                                                                                                                                                                                                                                                                                                                                                                                                                                                                        ",
"                                                                                                                                                                                                                                                                                                                                                                                                                                                                                                                                                                                                                                                                                                                                                                                                                                                                                                                                                                                                                                        ",
"                                                                                                                                                                                                                                                                                                                                                                                                                                                                                                                                                                                                                                                                                                                                                                                                                                                                                                                                                                                                                                        ",
"                                                                                                                                                                                                                                                                                                                                                                                                                                                                                                                                                                                                                                                                                                                                                                                                                                                                                                                                                                                                                                        ",
"                                                                                                                                                                                                                                                                                                                                                                                                                                                                                                                                                                                                                                                                                                                                                                                                                                                                                                                                                                                                                                        ",
"                                                                                                                                                                                                                                                                                                                                                                                                                                                                                                                                                                                                                                                                                                                                                                                                                                                                                                                                                                                                                                        ",
"                                                                                                                                                                                                                                                                                                                                                                                                                                                                                                                                                                                                                                                                                                                                                                                                                                                                                                                                                                                                                                        ",
"                                                                                                                                                                                                                                                                                                                                                                                                                                                                                                                                                                                                                                                                                                                                                                                                                                                                                                                                                                                                                                        ",
"                                                                                                                                                                                                                                                                                                                                                                                                                                                                                                                                                                                                                                                                                                                                                                                                                                                                                                                                                                                                                                        ",
"                                                                                                                                                                                                                                                                                                                                                                                                                                                                                                                                                                                                                                                                                                                                                                                                                                                                                                                                                                                                                                        ",
"                                                                                                                                                                                                                                                                                                                                                                                                                                                                                                                                                                                                                                                                                                                                                                                                                                                                                                                                                                                                                                        ",
"                                                                                                                                                                                                                                                                                                                                                                                                                                                                                                                                                                                                                                                                                                                                                                                                                                                                                                                                                                                                                                        ",
"                                                                                                                                                                                                                                                                                                                                                                                                                                                                                                                                                                                                                                                                                                                                                                                                                                                                                                                                                                                                                                        ",
"                                                                                                                                                                                                                                                                                                                                                                                                                                                                                                                                                                                                                                                                                                                                                                                                                                                                                                                                                                                                                                        ",
"                                                                                                                                                                                                                                                                                                                                                                                                                                                                                                                                                                                                                                                                                                                                                                                                                                                                                                                                                                                                                                        ",
"                                                                                                                                                                                                                                                                                                                                                                                                                                                                                                                                                                                                                                                                                                                                                                                                                                                                                                                                                                                                                                        ",
"                                                                                                                                                                                                                                                                                                                                                                                                                                                                                                                                                                                                                                                                                                                                                                                                                                                                                                                                                                                                                                        ",
"                                                                                                                                                                                                                                                                                                                                                                                                                                                                                                                                                                                                                                                                                                                                                                                                                                                                                                                                                                                                                                        ",
"                                                                                                                                                                                                                                                                                                                                                                                                                                                                                                                                                                                                                                                                                                                                                                                                                                                                                                                                                                                                                                        ",
"                                                                                                                                                                                                                                                                                                                                                                                                                                                                                                                                                                                                                                                                                                                                                                                                                                                                                                                                                                                                                                        ",
"                                                                                                                                                                                                                                                                                                                                                                                                                                                                                                                                                                                                                                                                                                                                                                                                                                                                                                                                                                                                                                        ",
"                                                                                                                                                                                                                                                                                                                                                                                                                                                                                                                                                                                                                                                                                                                                                                                                                                                                                                                                                                                                                                        ",
"                                                                                                                                                                                                                                                                                                                                                                                                                                                                                                                                                                                                                                                                                                                                                                                                                                                                                                                                                                                                                                        ",
"                                                                                                                                                                                                                                                                                                                                                                                                                                                                                                                                                                                                                                                                                                                                                                                                                                                                                                                                                                                                                                        ",
"                                                                                                                                                                                                                                                                                                                                                                                                                                                                                                                                                                                                                                                                                                                                                                                                                                                                                                                                                                                                                                        ",
"                                                                                                                                                                                                                                                                                                                                                                                                                                                                                                                                                                                                                                                                                                                                                                                                                                                                                                                                                                                                                                        ",
"                                                                                                                                                                                                                                                                                                                                                                                                                                                                                                                                                                                                                                                                                                                                                                                                                                                                                                                                                                                                                                        ",
"                                                                                                                                                                                                                                                                                                                                                                                                                                                                                                                                                                                                                                                                                                                                                                                                                                                                                                                                                                                                                                        ",
"                                                                                                                                                                                                                                                                                                                                                                                                                                                                                                                                                                                                                                                                                                                                                                                                                                                                                                                                                                                                                                        ",
"                                                                                                                                                                                                                                                                                                                                                                                                                                                                                                                                                                                                                                                                                                                                                                                                                                                                                                                                                                                                                                        ",
"                                                                                                                                                                                                                                                                                                                                                                                                                                                                                                                                                                                                                                                                                                                                                                                                                                                                                                                                                                                                                                        ",
"                                                                                                                                                                                                                                                                                                                                                                                                                                                                                                                                                                                                                                                                                                                                                                                                                                                                                                                                                                                                                                        ",
"                                                                                                                                                                                                                                                                                                                                                                                                                                                                                                                                                                                                                                                                                                                                                                                                                                                                                                                                                                                                                                        ",
"                                                                                                                                                                                                                                                                                                                                                                                                                                                                                                                                                                                                                                                                                                                                                                                                                                                                                                                                                                                                                                        ",
"                                                                                                                                                                                                                                                                                                                                                                                                                                                                                                                                                                                                                                                                                                                                                                                                                                                                                                                                                                                                                                        ",
"                                                                                                                                                                                                                                                                                                                                                                                                                                                                                                                                                                                                                                                                                                                                                                                                                                                                                                                                                                                                                                        ",
"                                                                                                                                                                                                                                                                                                                                                                                                                                                                                                                                                                                                                                                                                                                                                                                                                                                                                                                                                                                                                                        ",
"                                                                                                                                                                                                                                                                                                                                                                                                                                                                                                                                                                                                                                                                                                                                                                                                                                                                                                                                                                                                                                        ",
"                                                                                                                                                                                                                                                                                                                                                                                                                                                                                                                                                                                                                                                                                                                                                                                                                                                                                                                                                                                                                                        ",
"                                                                                                                                                                                                                                                                                                                                                                                                                                                                                                                                                                                                                                                                                                                                                                                                                                                                                                                                                                                                                                        ",
"                                                                                                                                                                                                                                                                                                                                                                                                                                                                                                                                                                                                                                                                                                                                                                                                                                                                                                                                                                                                                                        ",
"                                                                                                                                                                                                                                                                                                                                                                                                                                                                                                                                                                                                                                                                                                                                                                                                                                                                                                                                                                                                                                        ",
"                                                                                                                                                                                                                                                                                                                                                                                                                                                                                                                                                                                                                                                                                                                                                                                                                                                                                                                                                                                                                                        ",
"                                                                                                                                                                                                                                                                                                                                                                                                                                                                                                                                                                                                                                                                                                                                                                                                                                                                                                                                                                                                                                        ",
"                                                                                                                                                                                                                                                                                                                                                                                                                                                                                                                                                                                                                                                                                                                                                                                                                                                                                                                                                                                                                                        ",
"                                                                                                                                                                                                                                                                                                                                                                                                                                                                                                                                                                                                                                                                                                                                                                                                                                                                                                                                                                                                                                        ",
"                                                                                                                                                                                                                                                                                                                                                                                                                                                                                                                                                                                                                                                                                                                                                                                                                                                                                                                                                                                                                                        ",
"                                                                                                                                                                                                                                                                                                                                                                                                                                                                                                                                                                                                                                                                                                                                                                                                                                                                                                                                                                                                                                        ",
"                                                                                                                                                                                                                                                                                                                                                                                                                                                                                                                                                                                                                                                                                                                                                                                                                                                                                                                                                                                                                                        ",
"                                                                                                                                                                                                                                                                                                                                                                                                                                                                                                                                                                                                                                                                                                                                                                                                                                                                                                                                                                                                                                        ",
"                                                                                                                                                                                                                                                                                                                                                                                                                                                                                                                                                                                                                                                                                                                                                                                                                                                                                                                                                                                                                                        ",
"                                                                                                                                                                                                                                                                                                                                                                                                                                                                                                                                                                                                                                                                                                                                                                                                                                                                                                                                                                                                                                        ",
"                                                                                                                                                                                                                                                                                                                                                                                                                                                                                                                                                                                                                                                                                                                                                                                                                                                                                                                                                                                                                                        ",
"                                                                                                                                                                                                                                                                                                                                                                                                                                                                                                                                                                                                                                                                                                                                                                                                                                                                                                                                                                                                                                        ",
"                                                                                                                                                                                                                                                                                                                                                                                                                                                                                                                                                                                                                                                                                                                                                                                                                                                                                                                                                                                                                                        ",
"                                                                                                                                                                                                                                                                                                                                                                                                                                                                                                                                                                                                                                                                                                                                                                                                                                                                                                                                                                                                                                        ",
"                                                                                                                                                                                                                                                                                                                                                                                                                                                                                                                                                                                                                                                                                                                                                                                                                                                                                                                                                                                                                                        ",
"                                                                                                                                                                                                                                                                                                                                                                                                                                                                                                                                                                                                                                                                                                                                                                                                                                                                                                                                                                                                                                        ",
"                                                                                                                                                                                                                                                                                                                                                                                                                                                                                                                                                                                                                                                                                                                                                                                                                                                                                                                                                                                                                                        ",
"                                                                                                                                                                                                                                                                                                                                                                                                                                                                                                                                                                                                                                                                                                                                                                                                                                                                                                                                                                                                                                        ",
"                                                                                                                                                                                                                                                                                                                                                                                                                                                                                                                                                                                                                                                                                                                                                                                                                                                                                                                                                                                                                                        ",
"                                                                                                                                                                                                                                                                                                                                                                                                                                                                                                                                                                                                                                                                                                                                                                                                                                                                                                                                                                                                                                        ",
"                                                                                                                                                                                                                                                                                                                                                                                                                                                                                                                                                                                                                                                                                                                                                                                                                                                                                                                                                                                                                                        ",
"                                                                                                                                                                                                                                                                                                                                                                                                                                                                                                                                                                                                                                                                                                                                                                                                                                                                                                                                                                                                                                        ",
"                                                                                                                                                                                                                                                                                                                                                                                                                                                                                                                                                                                                                                                                                                                                                                                                                                                                                                                                                                                                                                        ",
"                                                                                                                                                                                                                                                                                                                                                                                                                                                                                                                                                                                                                                                                                                                                                                                                                                                                                                                                                                                                                                        ",
"                                                                                                                                                                                                                                                                                                                                                                                                                                                                                                                                                                                                                                                                                                                                                                                                                                                                                                                                                                                                                                        ",
"                                                                                                                                                                                                                                                                                                                                                                                                                                                                                                                                                                                                                                                                                                                                                                                                                                                                                                                                                                                                                                        ",
"                                                                                                                                                                                                                                                                                                                                                                                                                                                                                                                                                                                                                                                                                                                                                                                                                                                                                                                                                                                                                                        ",
"                                                                                                                                                                                                                                                                                                                                                                                                                                                                                                                                                                                                                                                                                                                                                                                                                                                                                                                                                                                                                                        ",
"                                                                                                                                                                                                                                                                                                                                                                                                                                                                                                                                                                                                                                                                                                                                                                                                                                                                                                                                                                                                                                        ",
"                                                                                                                                                                                                                                                                                                                                                                                                                                                                                                                                                                                                                                                                                                                                                                                                                                                                                                                                                                                                                                        ",
"                                                                                                                                                                                                                                                                                                                                                                                                                                                                                                                                                                                                                                                                                                                                                                                                                                                                                                                                                                                                                                        ",
"                                                                                                                                                                                                                                                                                                                                                                                                                                                                                                                                                                                                                                                                                                                                                                                                                                                                                                                                                                                                                                        ",
"                                                                                                                                                                                                                                                                                                                                                                                                                                                                                                                                                                                                                                                                                                                                                                                                                                                                                                                                                                                                                                        ",
"                                                                                                                                                                                                                                                                                                                                                                                                                                                                                                                                                                                                                                                                                                                                                                                                                                                                                                                                                                                                                                        ",
"                                                                                                                                                                                                                                                                                                                                                                                                                                                                                                                                                                                                                                                                                                                                                                                                                                                                                                                                                                                                                                        ",
"                                                                                                                                                                                                                                                                                                                                                                                                                                                                                                                                                                                                                                                                                                                                                                                                                                                                                                                                                                                                                                        ",
"                                                                                                                                                                                                                                                                                                                                                                                                                                                                                                                                                                                                                                                                                                                                                                                                                                                                                                                                                                                                                                        ",
"                                                                                                                                                                                                                                                                                                                                                                                                                                                                                                                                                                                                                                                                                                                                                                                                                                                                                                                                                                                                                                        ",
"                                                                                                                                                                                                                                                                                                                                                                                                                                                                                                                                                                                                                                                                                                                                                                                                                                                                                                                                                                                                                                        ",
"                                                                                                                                                                                                                                                                                                                                                                                                                                                                                                                                                                                                                                                                                                                                                                                                                                                                                                                                                                                                                                        ",
"                                                                                                                                                                                                                                                                                                                                                                                                                                                                                                                                                                                                                                                                                                                                                                                                                                                                                                                                                                                                                                        ",
"                                                                                                                                                                                                                                                                                                                                                                                                                                                                                                                                                                                                                                                                                                                                                                                                                                                                                                                                                                                                                                        ",
"                                                                                                                                                                                                                                                                                                                                                                                                                                                                                                                                                                                                                                                                                                                                                                                                                                                                                                                                                                                                                                        ",
"                                                                                                                                                                                                                                                                                                                                                                                                                                                                                                                                                                                                                                                                                                                                                                                                                                                                                                                                                                                                                                        ",
"                                                                                                                                                                                                                                                                                                                                                                                                                                                                                                                                                                                                                                                                                                                                                                                                                                                                                                                                                                                                                                        ",
"                                                                                                                                                                                                                                                                                                                                                                                                                                                                                                                                                                                                                                                                                                                                                                                                                                                                                                                                                                                                                                        ",
"                                                                                                                                                                                                                                                                                                                                                                                                                                                                                                                                                                                                                                                                                                                                                                                                                                                                                                                                                                                                                                        ",
"                                                                                                                                                                                                                                                                                                                                                                                                                                                                                                                                                                                                                                                                                                                                                                                                                                                                                                                                                                                                                                        ",
"                                                                                                                                                                                                                                                                                                                                                                                                                                                                                                                                                                                                                                                                                                                                                                                                                                                                                                                                                                                                                                        ",
"                                                                                                                                                                                                                                                                                                                                                                                                                                                                                                                                                                                                                                                                                                                                                                                                                                                                                                                                                                                                                                        ",
"                                                                                                                                                                                                                                                                                                                                                                                                                                                                                                                                                                                                                                                                                                                                                                                                                                                                                                                                                                                                                                        ",
"                                                                                                                                                                                                                                                                                                                                                                                                                                                                                                                                                                                                                                                                                                                                                                                                                                                                                                                                                                                                                                        ",
"                                                                                                                                                                                                                                                                                                                                                                                                                                                                                                                                                                                                                                                                                                                                                                                                                                                                                                                                                                                                                                        ",
"                                                                                                                                                                                                                                                                                                                                                                                                                                                                                                                                                                                                                                                                                                                                                                                                                                                                                                                                                                                                                                        ",
"                                                                                                                                                                                                                                                                                                                                                                                                                                                                                                                                                                                                                                                                                                                                                                                                                                                                                                                                                                                                                                        ",
"                                                                                                                                                                                                                                                                                                                                                                                                                                                                                                                                                                                                                                                                                                                                                                                                                                                                                                                                                                                                                                        ",
"                                                                                                                                                                                                                                                                                                                                                                                                                                                                                                                                                                                                                                                                                                                                                                                                                                                                                                                                                                                                                                        ",
"                                                                                                                                                                                                                                                                                                                                                                                                                                                                                                                                                                                                                                                                                                                                                                                                                                                                                                                                                                                                                                        ",
"                                                                                                                                                                                                                                                                                                                                                                                                                                                                                                                                                                                                                                                                                                                                                                                                                                                                                                                                                                                                                                        ",
"                                                                                                                                                                                                                                                                                                                                                                                                                                                                                                                                                                                                                                                                                                                                                                                                                                                                                                                                                                                                                                        ",
"                                                                                                                                                                                                                                                                                                                                                                                                                                                                                                                                                                                                                                                                                                                                                                                                                                                                                                                                                                                                                                        ",
"                                                                                                                                                                                                                                                                                                                                                                                                                                                                                                                                                                                                                                                                                                                                                                                                                                                                                                                                                                                                                                        ",
"                                                                                                                                                                                                                                                                                                                                                                                                                                                                                                                                                                                                                                                                                                                                                                                                                                                                                                                                                                                                                                        ",
"                                                                                                                                                                                                                                                                                                                                                                                                                                                                                                                                                                                                                                                                                                                                                                                                                                                                                                                                                                                                                                        ",
"                                                                                                                                                                                                                                                                                                                                                                                                                                                                                                                                                                                                                                                                                                                                                                                                                                                                                                                                                                                                                                        ",
"                                                                                                                                                                                                                                                                                                                                                                                                                                                                                                                                                                                                                                                                                                                                                                                                                                                                                                                                                                                                                                        ",
"                                                                                                                                                                                                                                                                                                                                                                                                                                                                                                                                                                                                                                                                                                                                                                                                                                                                                                                                                                                                                                        ",
"                                                                                                                                                                                                                                                                                                                                                                                                                                                                                                                                                                                                                                                                                                                                                                                                                                                                                                                                                                                                                                        ",
"                                                                                                                                                                                                                                                                                                                                                                                                                                                                                                                                                                                                                                                                                                                                                                                                                                                                                                                                                                                                                                        ",
"                                                                                                                                                                                                                                                                                                                                                                                                                                                                                                                                                                                                                                                                                                                                                                                                                                                                                                                                                                                                                                        ",
"                                                                                                                                                                                                                                                                                                                                                                                                                                                                                                                                                                                                                                                                                                                                                                                                                                                                                                                                                                                                                                        ",
"                                                                                                                                                                                                                                                                                                                                                                                                                                                                                                                                                                                                                                                                                                                                                                                                                                                                                                                                                                                                                                        ",
"                                                                                                                                                                                                                                                                                                                                                                                                                                                                                                                                                                                                                                                                                                                                                                                                                                                                                                                                                                                                                                        ",
"                                                                                                                                                                                                                                                                                                                                                                                                                                                                                                                                                                                                                                                                                                                                                                                                                                                                                                                                                                                                                                        ",
"                                                                                                                                                                                                                                                                                                                                                                                                                                                                                                                                                                                                                                                                                                                                                                                                                                                                                                                                                                                                                                        ",
"                                                                                                                                                                                                                                                                                                                                                                                                                                                                                                                                                                                                                                                                                                                                                                                                                                                                                                                                                                                                                                        ",
"                                                                                                                                                                                                                                                                                                                                                                                                                                                                                                                                                                                                                                                                                                                                                                                                                                                                                                                                                                                                                                        ",
"                                                                                                                                                                                                                                                                                                                                                                                                                                                                                                                                                                                                                                                                                                                                                                                                                                                                                                                                                                                                                                        ",
"                                                                                                                                                                                                                                                                                                                                                                                                                                                                                                                                                                                                                                                                                                                                                                                                                                                                                                                                                                                                                                        ",
"                                                                                                                                                                                                                                                                                                                                                                                                                                                                                                                                                                                                                                                                                                                                                                                                                                                                                                                                                                                                                                        ",
"                                                                                                                                                                                                                                                                                                                                                                                                                                                                                                                                                                                                                                                                                                                                                                                                                                                                                                                                                                                                                                        ",
"                                                                                                                                                                                                                                                                                                                                                                                                                                                                                                                                                                                                                                                                                                                                                                                                                                                                                                                                                                                                                                        ",
"                                                                                                                                                                                                                                                                                                                                                                                                                                                                                                                                                                                                                                                                                                                                                                                                                                                                                                                                                                                                                                        ",
"                                                                                                                                                                                                                                                                                                                                                                                                                                                                                                                                                                                                                                                                                                                                                                                                                                                                                                                                                                                                                                        ",
"                                                                                                                                                                                                                                                                                                                                                                                                                                                                                                                                                                                                                                                                                                                                                                                                                                                                                                                                                                                                                                        ",
"                                                                                                                                                                                                                                                                                                                                                                                                                                                                                                                                                                                                                                                                                                                                                                                                                                                                                                                                                                                                                                        ",
"                                                                                                                                                                                                                                                                                                                                                                                                                                                                                                                                                                                                                                                                                                                                                                                                                                                                                                                                                                                                                                        ",
"                                                                                                                                                                                                                                                                                                                                                                                                                                                                                                                                                                                                                                                                                                                                                                                                                                                                                                                                                                                                                                        ",
"                                                                                                                                                                                                                                                                                                                                                                                                                                                                                                                                                                                                                                                                                                                                                                                                                                                                                                                                                                                                                                        ",
"                                                                                                                                                                                                                                                                                                                                                                                                                                                                                                                                                                                                                                                                                                                                                                                                                                                                                                                                                                                                                                        ",
"                                                                                                                                                                                                                                                                                                                                                                                                                                                                                                                                                                                                                                                                                                                                                                                                                                                                                                                                                                                                                                        ",
"                                                                                                                                                                                                                                                                                                                                                                                                                                                                                                                                                                                                                                                                                                                                                                                                                                                                                                                                                                                                                                        ",
"                                                                                                                                                                                                                                                                                                                                                                                                                                                                                                                                                                                                                                                                                                                                                                                                                                                                                                                                                                                                                                        ",
"                                                                                                                                                                                                                                                                                                                                                                                                                                                                                                                                                                                                                                                                                                                                                                                                                                                                                                                                                                                                                                        ",
"                                                                                                                                                                                                                                                                                                                                                                                                                                                                                                                                                                                                                                                                                                                                                                                                                                                                                                                                                                                                                                        ",
"                                                                                                                                                                                                                                                                                                                                                                                                                                                                                                                                                                                                                                                                                                                                                                                                                                                                                                                                                                                                                                        ",
"                                                                                                                                                                                                                                                                                                                                                                                                                                                                                                                                                                                                                                                                                                                                                                                                                                                                                                                                                                                                                                        ",
"                                                                                                                                                                                                                                                                                                                                                                                                                                                                                                                                                                                                                                                                                                                                                                                                                                                                                                                                                                                                                                        ",
"                                                                                                                                                                                                                                                                                                                                                                                                                                                                                                                                                                                                                                                                                                                                                                                                                                                                                                                                                                                                                                        ",
"                                                                                                                                                                                                                                                                                                                                                                                                                                                                                                                                                                                                                                                                                                                                                                                                                                                                                                                                                                                                                                        ",
"                                                                                                                                                                                                                                                                                                                                                                                                                                                                                                                                                                                                                                                                                                                                                                                                                                                                                                                                                                                                                                        ",
"                                                                                                                                                                                                                                                                                                                                                                                                                                                                                                                                                                                                                                                                                                                                                                                                                                                                                                                                                                                                                                        ",
"                                                                                                                                                                                                                                                                                                                                                                                                                                                                                                                                                                                                                                                                                                                                                                                                                                                                                                                                                                                                                                        ",
"                                                                                                                                                                                                                                                                                                                                                                                                                                                                                                                                                                                                                                                                                                                                                                                                                                                                                                                                                                                                                                        ",
"                                                                                                                                                                                                                                                                                                                                                                                                                                                                                                                                                                                                                                                                                                                                                                                                                                                                                                                                                                                                                                        ",
"                                                                                                                                                                                                                                                                                                                                                                                                                                                                                                                                                                                                                                                                                                                                                                                                                                                                                                                                                                                                                                        ",
"                                                                                                                                                                                                                                                                                                                                                                                                                                                                                                                                                                                                                                                                                                                                                                                                                                                                                                                                                                                                                                        ",
"                                                                                                                                                                                                                                                                                                                                                                                                                                                                                                                                                                                                                                                                                                                                                                                                                                                                                                                                                                                                                                        ",
"                                                                                                                                                                                                                                                                                                                                                                                                                                                                                                                                                                                                                                                                                                                                                                                                                                                                                                                                                                                                                                        ",
"                                                                                                                                                                                                                                                                                                                                                                                                                                                                                                                                                                                                                                                                                                                                                                                                                                                                                                                                                                                                                                        ",
"                                                                                                                                                                                                                                                                                                                                                                                                                                                                                                                                                                                                                                                                                                                                                                                                                                                                                                                                                                                                                                        ",
"                                                                                                                                                                                                                                                                                                                                                                                                                                                                                                                                                                                                                                                                                                                                                                                                                                                                                                                                                                                                                                        ",
"                                                                                                                                                                                                                                                                                                                                                                                                                                                                                                                                                                                                                                                                                                                                                                                                                                                                                                                                                                                                                                        ",
"                                                                                                                                                                                                                                                                                                                                                                                                                                                                                                                                                                                                                                                                                                                                                                                                                                                                                                                                                                                                                                        ",
"                                                                                                                                                                                                                                                                                                                                                                                                                                                                                                                                                                                                                                                                                                                                                                                                                                                                                                                                                                                                                                        ",
"                                                                                                                                                                                                                                                                                                                                                                                                                                                                                                                                                                                                                                                                                                                                                                                                                                                                                                                                                                                                                                        ",
"                                                                                                                                                                                                                                                                                                                                                                                                                                                                                                                                                                                                                                                                                                                                                                                                                                                                                                                                                                                                                                        ",
"                                                                                                                                                                                                                                                                                                                                                                                                                                                                                                                                                                                                                                                                                                                                                                                                                                                                                                                                                                                                                                        ",
"                                                                                                                                                                                                                                                                                                                                                                                                                                                                                                                                                                                                                                                                                                                                                                                                                                                                                                                                                                                                                                        ",
"                                                                                                                                                                                                                                                                                                                                                                                                                                                                                                                                                                                                                                                                                                                                                                                                                                                                                                                                                                                                                                        ",
"                                                                                                                                                                                                                                                                                                                                                                                                                                                                                                                                                                                                                                                                                                                                                                                                                                                                                                                                                                                                                                        ",
"                                                                                                                                                                                                                                                                                                                                                                                                                                                                                                                                                                                                                                                                                                                                                                                                                                                                                                                                                                                                                                        ",
"                                                                                                                                                                                                                                                                                                                                                                                                                                                                                                                                                                                                                                                                                                                                                                                                                                                                                                                                                                                                                                        ",
"                                                                                                                                                                                                                                                                                                                                                                                                                                                                                                                                                                                                                                                                                                                                                                                                                                                                                                                                                                                                                                        ",
"                                                                                                                                                                                                                                                                                                                                                                                                                                                                                                                                                                                                                                                                                                                                                                                                                                                                                                                                                                                                                                        ",
"                                                                                                                                                                                                                                                                                                                                                                                                                                                                                                                                                                                                                                                                                                                                                                                                                                                                                                                                                                                                                                        ",
"                                                                                                                                                                                                                                                                                                                                                                                                                                                                                                                                                                                                                                                                                                                                                                                                                                                                                                                                                                                                                                        ",
"                                                                                                                                                                                                                                                                                                                                                                                                                                                                                                                                                                                                                                                                                                                                                                                                                                                                                                                                                                                                                                        ",
"                                                                                                                                                                                                                                                                                                                                                                                                                                                                                                                                                                                                                                                                                                                                                                                                                                                                                                                                                                                                                                        ",
"                                                                                                                                                                                                                                                                                                                                                                                                                                                                                                                                                                                                                                                                                                                                                                                                                                                                                                                                                                                                                                        ",
"                                                                                                                                                                                                                                                                                                                                                                                                                                                                                                                                                                                                                                                                                                                                                                                                                                                                                                                                                                                                                                        ",
"                                                                                                                                                                                                                                                                                                                                                                                                                                                                                                                                                                                                                                                                                                                                                                                                                                                                                                                                                                                                                                        ",
"                                                                                                                                                                                                                                                                                                                                                                                                                                                                                                                                                                                                                                                                                                                                                                                                                                                                                                                                                                                                                                        ",
"                                                                                                                                                                                                                                                                                                                                                                                                                                                                                                                                                                                                                                                                                                                                                                                                                                                                                                                                                                                                                                        ",
"                                                                                                                                                                                                                                                                                                                                                                                                                                                                                                                                                                                                                                                                                                                                                                                                                                                                                                                                                                                                                                        ",
"                                                                                                                                                                                                                                                                                                                                                                                                                                                                                                                                                                                                                                                                                                                                                                                                                                                                                                                                                                                                                                        ",
"                                                                                                                                                                                                                                                                                                                                                                                                                                                                                                                                                                                                                                                                                                                                                                                                                                                                                                                                                                                                                                        ",
"                                                                                                                                                                                                                                                                                                                                                                                                                                                                                                                                                                                                                                                                                                                                                                                                                                                                                                                                                                                                                                        ",
"                                                                                                                                                                                                                                                                                                                                                                                                                                                                                                                                                                                                                                                                                                                                                                                                                                                                                                                                                                                                                                        ",
"                                                                                                                                                                                                                                                                                                                                                                                                                                                                                                                                                                                                                                                                                                                                                                                                                                                                                                                                                                                                                                        ",
"                                                                                                                                                                                                                                                                                                                                                                                                                                                                                                                                                                                                                                                                                                                                                                                                                                                                                                                                                                                                                                        ",
"                                                                                                                                                                                                                                                                                                                                                                                                                                                                                                                                                                                                                                                                                                                                                                                                                                                                                                                                                                                                                                        ",
"                                                                                                                                                                                                                                                                                                                                                                                                                                                                                                                                                                                                                                                                                                                                                                                                                                                                                                                                                                                                                                        ",
"                                                                                                                                                                                                                                                                                                                                                                                                                                                                                                                                                                                                                                                                                                                                                                                                                                                                                                                                                                                                                                        ",
"                                                                                                                                                                                                                                                                                                                                                                                                                                                                                                                                                                                                                                                                                                                                                                                                                                                                                                                                                                                                                                        ",
"                                                                                                                                                                                                                                                                                                                                                                                                                                                                                                                                                                                                                                                                                                                                                                                                                                                                                                                                                                                                                                        ",
"                                                                                                                                                                                                                                                                                                                                                                                                                                                                                                                                                                                                                                                                                                                                                                                                                                                                                                                                                                                                                                        ",
"                                                                                                                                                                                                                                                                                                                                                                                                                                                                                                                                                                                                                                                                                                                                                                                                                                                                                                                                                                                                                                        ",
"                                                                                                                                                                                                                                                                                                                                                                                                                                                                                                                                                                                                                                                                                                                                                                                                                                                                                                                                                                                                                                        ",
"                                                                                                                                                                                                                                                                                                                                                                                                                                                                                                                                                                                                                                                                                                                                                                                                                                                                                                                                                                                                                                        ",
"                                                                                                                                                                                                                                                                                                                                                                                                                                                                                                                                                                                                                                                                                                                                                                                                                                                                                                                                                                                                                                        ",
"                                                                                                                                                                                                                                                                                                                                                                                                                                                                                                                                                                                                                                                                                                                                                                                                                                                                                                                                                                                                                                        ",
"                                                                                                                                                                                                                                                                                                                                                                                                                                                                                                                                                                                                                                                                                                                                                                                                                                                                                                                                                                                                                                        ",
"                                                                                                                                                                                                                                                                                                                                                                                                                                                                                                                                                                                                                                                                                                                                                                                                                                                                                                                                                                                                                                        ",
"                                                                                                                                                                                                                                                                                                                                                                                                                                                                                                                                                                                                                                                                                                                                                                                                                                                                                                                                                                                                                                        ",
"                                                                                                                                                                                                                                                                                                                                                                                                                                                                                                                                                                                                                                                                                                                                                                                                                                                                                                                                                                                                                                        ",
"                                                                                                                                                                                                                                                                                                                                                                                                                                                                                                                                                                                                                                                                                                                                                                                                                                                                                                                                                                                                                                        ",
"                                                                                                                                                                                                                                                                                                                                                                                                                                                                                                                                                                                                                                                                                                                                                                                                                                                                                                                                                                                                                                        ",
"                                                                                                                                                                                                                                                                                                                                                                                                                                                                                                                                                                                                                                                                                                                                                                                                                                                                                                                                                                                                                                        ",
"                                                                                                                                                                                                                                                                                                                                                                                                                                                                                                                                                                                                                                                                                                                                                                                                                                                                                                                                                                                                                                        ",
"                                                                                                                                                                                                                                                                                                                                                                                                                                                                                                                                                                                                                                                                                                                                                                                                                                                                                                                                                                                                                                        ",
"                                                                                                                                                                                                                                                                                                                                                                                                                                                                                                                                                                                                                                                                                                                                                                                                                                                                                                                                                                                                                                        ",
"                                                                                                                                                                                                                                                                                                                                                                                                                                                                                                                                                                                                                                                                                                                                                                                                                                                                                                                                                                                                                                        ",
"                                                                                                                                                                                                                                                                                                                                                                                                                                                                                                                                                                                                                                                                                                                                                                                                                                                                                                                                                                                                                                        ",
"                                                                                                                                                                                                                                                                                                                                                                                                                                                                                                                                                                                                                                                                                                                                                                                                                                                                                                                                                                                                                                        ",
"                                                                                                                                                                                                                                                                                                                                                                                                                                                                                                                                                                                                                                                                                                                                                                                                                                                                                                                                                                                                                                        ",
"                                                                                                                                                                                                                                                                                                                                                                                                                                                                          j V I I N r r r q                                                       &Xq c c C z I r r r q                                                                                                                                                                                                                                                                                                                                                                                                                                                                 ",
"                                                                                                                                                                                                                                                                                                                                                                                                                                                                    l f I PXPXPXHXSXzX9XiXiXN V                                               B C ZXUXUXUXUXUXPXzX9X-X+Xy g                                                                                                                                                                                                                                                                                                                                                                                                                                                             ",
"                                                                                                                                                                                                                                                                                                                                                                                                                                                                    ZXZXyXPXSX4XhX4X).J.).].q.4.z.                                          %XZXAXvXDXSXmXBXcXxX.X X.X5X2.' c.                                                                                                                                                                                                                                                                                                                                                                                                                                                          ",
"                                                                                                                                                                                                                                                                                                                                                                                                                                                                  w PXPXJXDXzXQ.!.!.!.!.!.!.!.9.| N         C P O.Z N N N ) N               I LXJXxX.X X{.{.{.`.}.`.}. X(.Z._ %X                                                                                                                                                                                                                                                                                                                                                                                                                                                        ",
"                                                                                                                                                                                                                                                                                                                                                                                                                                                                q PXLXVXQ.W.'.!.{ 7.7.7.7.7.!.9.L.=Xt N N I UXPXLXLXLXJXMXmXHXr y y Z Z N V.FXsXsX.X(.F.G.A.C.A.C.D.).XXdXC.L.+.c                                                                                                                                                                                                                                                                                                                                                                                                                                                       ",
"                                                                                                                                                                                                                                                                                                                                                                                                                                                              j.UXPX,X'.!.{ { { Y.E.W.W.Q.8.6.A.q._ N ,.PXPXPXKXBXbXbXbXkXNXJXLXPXHXt ! ! } sX.XC.D.).{.`.`.`.`.{.{.{._.dXXXC.7.x.7                                                                                                                                                                                                                                                                                                                                                                                                                                                     ",
"                                                                                                                                                                                                                                                                                                                                                                                                                                                          J eXPXLXiXT.G.| L.Q.L.E.E.G.G.!.!.A.^ 4.PXPXPXPXR.-XR.H.H.~.~.~.(.3XMXMXmXcXt M.I.sXC.].{.{.`.`.lXkXdX`.`.`.`.}. X{.I.| 3.q                                                                                                                                                                                                                                                                                                                                                                                                                                                   ",
"                                                                                                                                                                                                                                                                                                                                                                                                                                                          I :XJXGX3X'.9.{ Q.E.E.E.E.E.E.E.!.Y._ $XPXPXPXPXP.P.I.S.H.~.~.~.H.~.kXbXnXcXN *XW.sXD.{.{.`.`.{.nXnXkX{.`.`.`.`.}..XI.| -.y                                                                                                                                                                                                                                                                                                                                                                                                                                                   ",
"                                                                                                                                                                                                                                                                                                                                                                                                                                                        0 5.4XsX/.'.0.9.!.!.E.G.E.E.8.7.7.Y._ IXUXLX2...2.jXjXkXjXkXkXkXkXjXdX(.~._.bXmXr ) q.C. X`.`.`.`.oX}.}.`.`.`.`.`.`. XI.8.e.t                                                                                                                                                                                                                                                                                                                                                                                                                                                   ",
"                                                                                                                                                                                                                                                                                                                                                                                                                                                        8 3XsX{.). .8.!.!.E.E.E.8.8.8.q.4._ PXUXSX-X4XzXcXjXkXMXGXMXlXkXkXjXjXdXdXdXH.kXhXU._ 8.W.E.).J.`.`.`.`.`.`.`.`.`.`.}..X9X` / S 2                                                                                                                                                                                                                                                                                                                                                                                                                                               ",
"                                                                                                                                                                                                                                                                                                                                                                                                                                                        N 4X}.`.].] q.Y.E.L.E.E.7.1.<.;.:.,.LXDX4XB.BXKXLXlXbXJXLXJXlXjXkXjXsXjXjXdXH.lXkX+XN <.e.1.-XQ.).`.).].].].`.`.`.`.). XfX~ o.* @                                                                                                                                                                                                                                                                                                                                                                                                                                               ",
"                                                                                                                                                                                                                                                                                                                                                                                                                                      = % = = = = - , % / fX{.W.Q.] 7.8.9.8.r.e.2.^ ^ N N PXLXR.~.bXGXGXGXkXgXGXJXmXkXkXkXdXH.kXkXjX.XlXkX;Xt ~ ~ ~ ~ ` Y.L.L.E.E.W.W.].).].G.).fX~ +.& + . o @ 2                                                                                                                                                                                                                                                                                                                                                                                                                                       ",
"                                                                                                                                                                                                                                                                                                                                                                                                                                    o #XeX%XeXeXeX%Xy.- N cX0X-X' 1.1.r.7.7.4./ N xXaX5.I LXMXS.`.kXkXlXkXbXBXGXvX~.jXkXkXdXD.lXjXjXoXlXbX,X! Y.L.L.L.q.~ ~ ` 2XY.E.L.A.G.G.G.(.zX_ / - % l f 2 ; # @ @ E                                                                                                                                                                                                                                                                                                                                                                                                                               ",
"                                                                                                                                                                                                                                                                                                                                                                                                                                3 9 &.rXqX,.N c y c Z y t r r N t t t _ r.! N N JXkXXX ./ LXbX~. XjXlXkXbXJXJXJXvXP.jXjXD.~.lXlXjXjX}.lXnX;Xt Y.L.q.K.w.w.Y.Y.' ! Y.L.G.L.Q.L.'.zX_ O.- - = ; k U A A S ; . . .                                                                                                                                                                                                                                                                                                                                                                                                                         ",
"                                                                                                                                                                                                                                                                                                                                                                                                                          . . @ Y z.rXtXZ r c j j 0 8 HXDXDXDXDXHXDXDXV.t <.3XDXaXoXoX ._ FXnXH._.jXkXdX~.:XJXJXvXI.dXXXXXdXjXjXoX}.oXlXlX$Xr t t t e e e t t t u ) ` ` -XM e 8 8 5 5 7 9 9 - 9 9 C A S T Y i.j.% . .                                                                                                                                                                                                                                                                                                                                                                                                                   ",
"                                                                                                                                                                                                                                                                                                                                                                                                                    E E W f C Z p.z.qXf.G 8 8 8 $X+XB.4XhX4X4X4X4XaXmXVX$X_ B.sX X}. X2._ NXlXH._.XXjXdX/.T.hXhX^.I.jXjXjXjXjX.X}.oXjXbX[.3.e ' ) 5.B.V.V.B.V.+X8 y ! ! -.5.<.<.5.<.5.<.3.5.,.N 6 9 , v n j &.g.q p f                                                                                                                                                                                                                                                                                                                                                                                                                   ",
"                                                                                                                                                                                                                                                                                                                                                                                                                    O & 0 %.qXqXeXeX%Xm m r r r cXgXgXH.S.S.S.S.D.D.bXMXJXN _ 4X`.}. X2._ mXnX/.(.|.jXjXkX~.~.~.~.~.kXkXkXkXdX}.|.|.lXbX| X.e -XY.zXbXbXbXgXbXcX8 r r t t iX0XfXfXzXfX9X0X0X4X) 5 4 - C v x L h.f.g.h.& % ,                                                                                                                                                                                                                                                                                                                                                                                                             ",
"                                                                                                                                                                                                                                                                                                                                                                                                              . O y.j.uXuXrXqXs.y c c y r cXgXgXsX_.D.dXdXjXjXjXjXjX|.gXGXJX:XN sX}. X ._ B.GXDXzX_.~.|.mXNXmXbXsX~.bXnXbXdXD.jXkXkXbX .e./ e | 7.I.I.S.D.D.S.Z.DXGXJXHXe *X| ` { { 6.0.7.0.[.zX<X..5.6 d h n z c.c.c.a.g.n.O .                                                                                                                                                                                                                                                                                                                                                                                                         ",
"                                                                                                                                                                                                                                                                                                                                                                                                            . F >.tXrXtXqXv.y x b x y 7 cXxX(.W.I.4XdXdXjXkXkXjXjXjXjXoX(.kXFXPXN .X}...! K.K.mXFXGXmXaXS.S.D.D.W.S.W.W.Q.0XbXNXFXxX .5.8 ! r.!.I.fXjXjXXXdXXXdXD.K.^.mXDX4 >XQ.W.W.(.Q.!.W.0.{ 7.].{.'.+.* l k h q c %X#Xc.z.$.o W                                                                                                                                                                                                                                                                                                                                                                                                     ",
"                                                                                                                                                                                                                                                                                                                                                                                                          > K eXtXZ y N y Z c x b x r hXxXH.{.fXcXDXFXgXjXNXMXbXjXjXjXXXXXkXFXPXt fX(.'.=X! T.T.hXmXJXGXMXdXdXdXgXgXgXgXmXJXMXxX..2.2.u 8 N  .E.S.sXjXjXdXXXdXXX X{.(.N.mX3Xe ` Q.{.{.E.W.!.E.E.A.8.8.!.T.;X5 d k g g c 0 q g.$.k 3 X                                                                                                                                                                                                                                                                                                                                                                                                   ",
"                                                                                                                                                                                                                                                                                                                                                                                                          % i.rXtXZ 0 y c x x z b c 8 gXsXS.`.fXDXLXJXxXdXMXGXNXlXjXjXjXjXlXFXLXt 9X(.5X8X! Y.T.4XmXJXJXmXkXjXjXkXkXkXbXGXJXGXxX` ' 4.e u N | E.S.XXXXjXdXdXXXXXXX.X_.N.kXnX- ' Q.sXsXW.G.!.!.!.E.7.7.].7X=X5 4 v v h d 9 p i.h.h 1 .                                                                                                                                                                                                                                                                                                                                                                                                   ",
"                                                                                                                                                                                                                                                                                                                                                                                                      $ j tXrXtXZ - = v k k v b x y r dXD.}.XXhXJXLXLXJXgXGXJXJXMXlXkXgXjXbXMXJX/ t I.G.Y.r.! Y.I.P.^.^.gXFXNXNXNXMXNXGXVX3XK.L.Y.q.( e 3.7.7.Z.xXgXjXjXjXjXjXXXXXoX.X XH.jXmX4.t W.A.].].9.9.W.!.w.w.7.E.5X:X5 d k k j ; ; = i.D d s @                                                                                                                                                                                                                                                                                                                                                                                                 ",
"                                                                                                                                                                                                                                                                                                                                                                                                    2 R c.uXuXr 9 a a g k n v A q ,.VXS.`. X.XaXaXcXJXLXhXGXJXJXR.FXGXbXgXnXNXDX/ t q.!.!.Y.! ) ^ ~ E.A.W.^.^.^.^.^.'.^.P.A.w.Y.t t t 4.L.T.xXmXGXNXdXdXlXlXbXbXS.}.}. X(.jXkX5.5 Y.A.9.A.9.9.A.A.A.A.7.L.(.3Xr i : d f ; ; ; L H D k $                                                                                                                                                                                                                                                                                                                                                                                                 ",
"                                                                                                                                                                                                                                                                                                                                                                                                    X R #XpXqX7 i k k z v v c c 7 ,.bXF. X}. X X X[.3XLXFXJXvX4XcXLXJXBXkXGXVX3X4.! =X] ^ ) rX,XT.Y.~ ~ _ ~ E.W.G.G.E.E.E.| ! ! <.;.<.Y.!.H.aXaXaX|.gXkXkX~.^.'.[. X X X(.kXkX,.4 ) E.9.L.9.A.w.L.9.w.7.Q.).].r - ; : ; ; ; : h.H J S $                                                                                                                                                                                                                                                                                                                                                                                                 ",
"                                                                                                                                                                                                                                                                                                                                                                                                    X S l.pXv.4 , j h z v z c j 7 [ bXF. X}.}.}.}.J./.LXDXDX9X/.GXLXJXFXBXJX3X8.w.e 3.N I P JXbXdXgX_ _ _ ~ e.Y.q.w.=XM.e.+.e t e.r.w.I.'.`._._.J.|.kXnXxXS.D.S.XXXX X X_.jXgX,.6 o.Y.L.L.9.w.w.w.w.w.7.E.).].t - 3 3 # ; ; : y.H J k @                                                                                                                                                                                                                                                                                                                                                                                                 ",
"                                                                                                                                                                                                                                                                                                                                                                                                    X U c.tXrX&.6 9 9 S v h z 9 7 [ bXF. X X}.}.}.`.'.JXP.P.4XbXFXJXVXcXJXHX0XY.Y.t N :XJXLXJXbXkXgX].].].0Xt t t t u u e u e 2.q.q.} .XjXjXjXjXjXjXbXgXC.C.S..XXXXX X}.jXkX[ r 6 o.~ 2X2XL.L.w.8.] q.2.-X9XuXr < ; ; : & - m.F F J W X                                                                                                                                                                                                                                                                                                                                                                                                 ",
"                                                                                                                                                                                                                                                                                                                                                                                                    . U C / iXiX#X9 : : ; : v 9 0 [ kXS..X.X XoXoX`.F.P.sXdXjXlXbXaXGXJXLX$XR.-Xt e LXLXSX[  .Z.6.6.6.9.9.6.fX9X9XiXu y 0 0 e 2.mXmXnX|.jXkXkXnXkXH.D.D..X X X X.X X}.oXdXbX..8 4 ) ' ( ` ' ] ' -.] 5.4 * - - = ; : U m.c.h.C D A p O                                                                                                                                                                                                                                                                                                                                                                                                   ",
"                                                                                                                                                                                                                                                                                                                                                                                                      X - G O.iXtXtXtXAXeX%X9 9 7 4 7 5 '.H.|.dXdXXX X.XXXdX|.~.~.nXJXyXU.Z.Q.1Xr bXgXR.} 5X{.{.{.{.{.{.{.sXC. X{.fXzXe 0 e e 8.N.3XGXFX/.4X|.nXkXdX X`. XoX.XoX}.}.dXkXbX[ <.r 5 *.+.) o.+.4 4 4 - - z F j.c.j.c.$X%XG C C H J : $ X                                                                                                                                                                                                                                                                                                                                                                                                   ",
"                                                                                                                                                                                                                                                                                                                                                                                                      X ; g #.@X+XrXrX>XrX;X:.i.%.%.p.4 ,.[ ,.B.hX_.`.`._.[.hXvXvXGXVX,Xw.A.2.^ +XbX~.(._.dXH.`.XXjXgXsX{.sX).`. X`.fXe Z y e _ K.^.zXcXcXBXBXhXsXoXXX}.}.}.}..XdXdXkXbX6X-.u y q c y 0 q j h A D $.#.d.l.v.c.c.s.g.h.G Z A J g ; 2                                                                                                                                                                                                                                                                                                                                                                                                     ",
"                                                                                                                                                                                                                                                                                                                                                                                                        @ = J #.O.qXtXuXuXiXuXuXuXrXrX= 4 4 7 7 qXT.F.F.H.~.xXHXLXJXK.L.L.e./ w bXfX} ).aXNXZ.[.kXnXnXsX(.{.sX{.`.`.|.8 >.o.u e T.W.J.{.DXGXDX3X4XaXaX|.|.|.|..XkXmXmXcX-.*.6 z Y * * * * % L s.c.eXeXqX;XqX;XqXZ Z G D H J H B .                                                                                                                                                                                                                                                                                                                                                                                                       ",
"                                                                                                                                                                                                                                                                                                                                                                                                          . ; y.$.@.@.O.;XuXuX6X6XrXwXtXtXtX%.7 4 5.xXjXlXbXmXiX2. .L.w.*X5 O.4XdXD.5X`.VXGXB.bXnXlXbXsXW.|.nXZ.(.J.oXbXt ! -.! Q.W.F.`..X4X4XGXJXJXGXFXMXMXMXmXR.^ ^ ) *.6 - * * j.c.c.c.c.@X#Xv.*.*.&.H m c m x D D G D F J .                                                                                                                                                                                                                                                                                                                                                                                                         ",
"                                                                                                                                                                                                                                                                                                                                                                                                            . a v $.@.$.&.*.x.5.3.*.#.O.rXuXtXrXrXO.- BXmXN.N.K.L.w.Y.t 4 4 ,.kXXXD.{.`.aXGXJXGXnXlXnXsXI.nXNXK.).`.oXbXN ! e.e.e ! 0X).).).).[.P.R.T.I.P.D.Z.^ _ ( ( a.* - %X%X%X#X#X#X#X#X*.*.%.%.&.i.K C b S A A A F h p ; .                                                                                                                                                                                                                                                                                                                                                                                                         ",
"                                                                                                                                                                                                                                                                                                                                                                                                              o 9 C $.K $.&.c.k.k.p.$.L &.Z >.6XuX:Xc.7 N _ ..e.w.Y.t 5 6 9 ,.nXoXC.{.{./.aXmXmXnXlXnXbXxXNXaXZ.W.`.OXbXN ( 9.0XU.1.! _ q.C.{.].A.G.E.E.E.E.E.' +.+.y i & %XqX#X#XZ X.@.@.@.&.&.%.y.u.C x x A C C A A 0 a l @                                                                                                                                                                                                                                                                                                                                                                                                           ",
"                                                                                                                                                                                                                                                                                                                                                                                                                ; S y.y.#.#.&.k.k.:.&.L %.@.Z N uXrXqX- q O.o.( ! ! / @.@.4 ,.nX X6.{.sXdX_.[.|.|.|.|.|.oXsX{.D.(..XXXkXN t 8.).0X2Xx.u ! N ^ ^ ~ ^ ^ ` ` ` ~ ( / 7 9 : h.qXO.@.$.D D D F F y.i.y.y.u.x b n Z C A v d i 1 3 X                                                                                                                                                                                                                                                                                                                                                                                                           ",
"                                                                                                                                                                                                                                                                                                                                                                                                                3 S y.$.$.#.@.b.b.a.&.%.$.H x y tXrXAX* 9 X.+./ 5 5 +.*.=.4 ,.nX X6.`.dXbX[.[.[.[.[._._.J._.`.D.[.dXXXkXN u | ].'.'.6Xy e r e e u u u t ! t t ! u * = - qXwXy C D A A C F Z $.y.%.y.y.x b b Z Z b v i p ; # X                                                                                                                                                                                                                                                                                                                                                                                                           ",
"                                                                                                                                                                                                                                                                                                                                                                                                                    $ R J H $.G f.s.*.$.$.H D c qX:XuXiX- 9 0 u +.+.-.) +.4 ,.bX.X6.].gXMXNXnXnXbXkX_.`.)._.dXC.[.gXkXMXw 9 9 : - - - - : - : : : : - 5 >.1.<.>.- ; h qXtX8 x z S A C y.y.y.,.%.y.u.9 h k v A A d p i s > W                                                                                                                                                                                                                                                                                                                                                                                                             ",
"                                                                                                                                                                                                                                                                                                                                                                                                                    $ , h H $.@.%.p.*.&.#.$.b y f.:XtXiX- : 0 N o.-.) 1.U.8 / ^._.J.J.S.3X3XmXmXnXnXdXaXsXsXD.^.sXmX,.,.7 0 D Z i.i.%.%.i.s.p.s.i.p.F c q y y c 6 T %.tXc.0 x b A A D y.y.y.*.%.y.h 9 h v v A j d p s @ # 2                                                                                                                                                                                                                                                                                                                                                                                                             ",
"                                                                                                                                                                                                                                                                                                                                                                                                                    # . , S y.#.#.%.a.&.#.$.D m $.#XqXtX- - j G X.+.~  .8Xe /  .{. XJ.6.| | cXmXcXbXxXxXxXxX..3XVXSX7 8 8 N k.3.tXtXtXtXtXAXtXrXuXwX3.%.- 4 4 4 y v.;XtX7 S b A b D G &.%.%.y.y.y.: 9 g z z b p p s s o l                                                                                                                                                                                                                                                                                                                                                                                                               ",
"                                                                                                                                                                                                                                                                                                                                                                                                                      . $ s H $.#.Z @.#X&.G &.y.0 x *.rXtX4 6 6 0 v.4.U.:Xr u 2.{ .XJ.).].5X{ { { { { { { [ iX- 4 4 k.z.tX:XqXqXqXqX*.*.>.a.3.iXuXuXuXrXtXrXrXtXrXiXiXAX0 U A A x C i.p.&.%.i.A 9 p p g z S b p a s ; X                                                                                                                                                                                                                                                                                                                                                                                                                 ",
"                                                                                                                                                                                                                                                                                                                                                                                                                          + p K G G #.#X#X&.#.y.0 d y z.pXtXtXj.7 7 5 5 4 9 6 4 1.P.bXdX[.[.[.0X5X0X9X9X-X5 4 #XAXrX:XwXwXwXtX>.*.*.p.p.f.>.>.@Xx.x.x.x.x.4.4.x.@X+X@Xc.F x A x x y.&.%.u.i.9 : 9 p p J S S p a 1 ; X                                                                                                                                                                                                                                                                                                                                                                                                                   ",
"                                                                                                                                                                                                                                                                                                                                                                                                                          X + j J H G *.#X%.#.y.H j - j.*X4.:XSXtXtXtXeXqX%Xg * 4 4 7 4 7 4 4 - - 4 8 8 r l.tXiXuXrX>.*.>.*.d.p.:.:.p.p.p.*.>.>.@Xx.v.x.x.x.v.v.v.x.>.G F m C H K %.%.i.i.0 : s a a v J h i s f ; $ $                                                                                                                                                                                                                                                                                                                                                                                                                   ",
"                                                                                                                                                                                                                                                                                                                                                                                                                            # l T H #.#.c.d.%.G Y c 9 T c.+X:XtXrXuXrXrXwXx.:.L L N C C c j q q 0 0 #.O.*.qXiX:X:XqX%.p.:.p.p.p.%.%.&.:.:.u.p.>.@Xv.v.x.x.c.c.v.c.>.u.b J x H $.%.&.y.y.y.9 , , a p S h k s l ; $ # E                                                                                                                                                                                                                                                                                                                                                                                                                   ",
"                                                                                                                                                                                                                                                                                                                                                                                                                            $ 1 S J $.$.@.v.a.$.F c 9 i %X@X+Xx.;XrXrXrXtXuXrXiXAX:X:X+X4.5.3.3.3.3.qXwXuXtXtX3.:.a.%.u.a.*.p.g.Z F G u.u.i.i.,.@Xv.v.v.x.x.v.z.c.C b S b D p.p.%.&.L Y Y = i a 9 d S d p l l o @                                                                                                                                                                                                                                                                                                                                                                                                                       ",
"                                                                                                                                                                                                                                                                                                                                                                                                                            $ # 2 k D H G c.c.l.&.F b 9 9 c.x.x.v.c.*.*.%.*.c.;X>XiXiXiXiXiXiXiXiXiXiXtXtXk.l.d.a.p.p.p.:.i.g.F F D F F D G %.%.c.v.x.x.v.x.x.f.A v b m m D u.p.:.u.y.: & s s i p T 9 a f 2 @ o o 2                                                                                                                                                                                                                                                                                                                                                                                                                     ",
"                                                                                                                                                                                                                                                                                                                                                                                                                            . $ # ; p H H G p.c.&.H D A p h.#Xv.x.v.O.*.%.p.a.>.;X*X*Xx.+X*X*X*X+X@XX.X.O.>.a.a.p.p.p.p.a.p.g.Z D H F H D G i.%.v.v.x.+X@X@Xv.j.4 v b x x u.p.%.p.i.i.- ; s i a h 9 s s 3 # = E ; o .                                                                                                                                                                                                                                                                                                                                                                                                                   ",
"                                                                                                                                                                                                                                                                                                                                                                                                                          @ T n.= $ @ j h c &.f.i.$.A A 0 9 L c.c.x.c.a.%.p.p.>.z.+Xx.x.+X+X+X+X+X#XO.@.$.a.a.p.p.p.:.p.p.$.G F D A H 0 D G #.:.z.z.x.x.@X#Xc.7 A v b x x y.&.%.i.h.: i s s 9 9 p s 1 @ @ $ R i.R B .                                                                                                                                                                                                                                                                                                                                                                                                                   ",
"                                                                                                                                                                                                                                                                                                                                                                                                                          + Y j.C < @ ; f j D G H F A A z d d F c.v.c.k.l.%.&.L Z #Xv.v.+X+X+X+X@X#X#.#.#.$.a.:.>.p.p.p.a.&.G D J A 0 9 J %.a.c.x.x.z.z.#Xh.h.9 A A A x F y.&.%.u.A : a i p p i 1 2 3 @ = , C C Y B o                                                                                                                                                                                                                                                                                                                                                                                                                   ",
"                                                                                                                                                                                                                                                                                                                                                                                                                          + Y s.s.q o o 2 l k v J A x C A g , 9 c.x.+Xv.#X%.$.j 0 m.#X;X@X;X@X;Xv.#X#.&.@.G u.s.:.s.p.p.p.%.G H T J 9 9 A %.a.v.v.x.>.:.%XY Y 9 A A x x y.$.y.y.y.d : a s p s 1 2 2 $ @ , C y c Y B o                                                                                                                                                                                                                                                                                                                                                                                                                   ",
"                                                                                                                                                                                                                                                                                                                                                                                                                          . Y #.qX%XY U + + + ; k S Z m A S p 9 y v.c.+X#X&.K z g 6 #X+Xv.v.;Xv.@X;Xv.c.#.G G %.s.:.p.p.a.%.G J S S 9 9 S %.k.#Xx.x.:.%.g., 9 9 J x x c c x x C A : 1 a s s 1 ; . @ . T Y y.%.y.j f .                                                                                                                                                                                                                                                                                                                                                                                                                   ",
"                                                                                                                                                                                                                                                                                                                                                                                                                          E 9 y.z.f.P j.Y f ; $ 1 k Z Z b v d 9 0 b.c.x.v.d.i.J S 0 $.c.x.;Xx.+X+X+X#Xc.*.H H g.p.p.:.a.a.y.G J J S 9 g A %.f.v.v.c.p.%.c 9 9 j A D A h A z A v h : s s s s ; > + , ; B C y.y.Y 1 3 E                                                                                                                                                                                                                                                                                                                                                                                                                   ",
"                                                                                                                                                                                                                                                                                                                                                                                                                            . R g.u.Z :XqXs.q = = f S h S A d 9 9 j.c.c.v.x.d.i.C j 9 y.z.v.@Xv.x.+X@Xx.>.H #.p.f.a.d.p.:.$.G Y A v 9 J A &.l.v.c.l.i.Y 9 s 9 A x A S W k k B B k ; s l 2 1 % + = Y j 0 C Y Y T @ 3                                                                                                                                                                                                                                                                                                                                                                                                                     ",
"                                                                                                                                                                                                                                                                                                                                                                                                                          X . 1 J D Z :X:XrX#Xf.K , $ $ i p p s s 9 h.d.3.3.z.z.G J 9 9 8 #X#X#Xv.v.#Xc.a.G #.@.G #.a.p.:.y.G J 6 9 9 J D &.d.,.,.&.%.Y 9 i p S b A s @ $ . o 1 B > @ $ @ @ T R i.i.i.i.C q k o X X X                                                                                                                                                                                                                                                                                                                                                                                                                   ",
"                                                                                                                                                                                                                                                                                                                                                                                                                      X X X l @ o : S L %.tXwXqX,.c.%X%.+ @ @ > 1 1 9 S k.k.c.b.F D h p p - y.$.G Z f.d.k.b.#.G F D Z p.:.&.F J 9 9 i T G Z G %.y.A p i 1 s 3 > $ + $ + ZXeXc.B . . l j z n.C C C i.&.$.S 2 X X 3 3 . .                                                                                                                                                                                                                                                                                                                                                                                                                 ",
"                                                                                                                                                                                                                                                                                                                                                                                                                      X X $ k l k s = & i.s.$X%XP f.qX#Xc.P S l + + + f F F F F F S J g s 9 0 T H F H #.#.&.G G G G D H u.y.F H 9 9 i j J J D K L d i : s & : Y Y i.U % i.tXyXc.T . R y.i.i.i.K C F J : = @ @ 3 s f 1 $ # 2                                                                                                                                                                                                                                                                                                                                                                                                             ",
"                                                                                                                                                                                                                                                                                                                                                                                                                      # 1 p S v g f , , f p S i.C &.>.rXrXz.%.Y S S S j i 1 , , , , s 1 1 1 : k h z Y y.$.K G F J H J H Y H F J , , i s k g z z z p i i ; S J s.%X%Xc.i.q yXrX:X&X@ 2 Y i.:.i.K S s s > > ; ; l a a f ; ; X                                                                                                                                                                                                                                                                                                                                                                                                             ",
"                                                                                                                                                                                                                                                                                                                                                                                                                    X , V L @.m x C g k = = i l j V C %XqXqX:.K &X$X$XP ; = > ; ; < , ; ; ; ; , , , U U S B k k B h S B h h B B ; ; ; , , , : 1 1 1 1 1 > n.j.s.tXrXqXeXw %XwX:X%X, $ T Y i.S B B $ > > ; 1 i s l a a a ; # X                                                                                                                                                                                                                                                                                                                                                                                                           ",
"                                                                                                                                                                                                                                                                                                                                                                                                                l o + $.:.:.>.d.p.$.c x h k 1 O O 1 S Y L $X$.C #XtXrXrXqXN L c.qX$XqXZ < o o $ ; = = = % + o o @ = = % % % % + o + + % O o + $ @ # $ + = = : J eX>.+XyXj.& %XrX%XT > B B B o o @ @ 2 1 i i i : a i a d a s o .                                                                                                                                                                                                                                                                                                                                                                                                         ",
"                                                                                                                                                                                                                                                                                                                                                                                                              . o S Y *.v.rXrX3.d.f.l.b.q d a l l : O o Y T Y F Z >.:XwXrXrXv.r tXrXqXtXyXeXV %XZXyXyXeXeXeXq F %X%XyXyXyXyXZXq %XeXeXeXeX%XZXC J %X&X%XZ S v & A &Xj.>.$X: ZX#X%.T $ o X X 3 2 1 1 1 s 9 0 T : a a i d p a s o .                                                                                                                                                                                                                                                                                                                                                                                                       ",
"                                                                                                                                                                                                                                                                                                                                                                                                              . U $.&.rXrX>XuX3.k.d.k.f.g.j d h p j j k + > O % j Y $.%.a.k.l.f.Z k.qXrX>XrXtXZ >.rX>XrXrXrXtXc L :.rXrXrXrXtXtXy N tXrX:X:XqXqXZ y c.%XeXY j.i.% = 9 %.%Xj C G J U + o $ X ; 1 1 1 1 i v y.i.9 1 : a d g S i s .                                                                                                                                                                                                                                                                                                                                                                                                       ",
"                                                                                                                                                                                                                                                                                                                                                                                                              2 U c.#XwX>XrX*X5.k.k.d.f.Z 0 C H $.A j g ; 1 1 ; ; ; , q $.L &.G x $.$X+X;X#X%XP Z ,.$X$X$X+X%Xi.Z y z.$X@X+X#X%X$.&.:.>.z.z.$X#XL y i.s.s.K i.K f $ = C %XI c F J - 1 l 2 $ , , , i s i d D y.S ; : 1 p d k a l ; W                                                                                                                                                                                                                                                                                                                                                                                                     ",
"                                                                                                                                                                                                                                                                                                                                                                                                            o y.O.;XwX-X>XwX>.z.3.>.f.j.9 0 Z k.c.O.0 c c j f s @ $ @ 3 S U S U B h j.s.f.c.j.i.q q g.g.j.f.c.j.L h F j.j.c.c.j.j.i.q 0 y.y.i.i.i.z h j S Y J Y B > ; j j.C U T B o k A A O ; 1 : 9 p p z c Z m.9 ; ; l a p S T s ; X                                                                                                                                                                                                                                                                                                                                                                                                   ",
"                                                                                                                                                                                                                                                                                                                                                                                                          ; S i.:XwXuX-X>XrXk.3.3.l.f.9 9 h.b.z.z.k.b.h.c.D d s 1 f f , ; ; > > @ % B A L $.K J Y J q c C K K F S S 0 F C F L L J Y Y d S A F F F J v p S B S % = l B S K x k : + B B y.y.S @ ; p S S S J D u.g.Y U ; : s d T Y p ; X #                                                                                                                                                                                                                                                                                                                                                                                                 ",
"                                                                                                                                                                                                                                                                                                                                                                                                          % i.@X>X>X>X>X,X;Xk.k.d.p.y.0 C f.3.3.:X+Xk.c.b.#.m j h p a , ; , : ; ; @ 2 1 f f s s f f , , s f s s 1 s , s s f f s s 1 1 ; 1 s s s 1 , , , , 2 2 , , , p J Y d 1 > # 2 S i.g.%.9 : 9 S C D A A $.y.i.J 9 = s d J Y v i ; X                                                                                                                                                                                                                                                                                                                                                                                                 ",
"                                                                                                                                                                                                                                                                                                                                                                                                          & z.uX6X>X1XrX+X>.k.k.d.$.0 8 c.k.3.5.uX,X5.z.z.l.%.H J d p 9 i a a a l > @ @ o o o o o $ $ $ o o . @ o @ @ @ @ o o @ @ . @ @ @ @ @ o @ o . @ X @ # f S - 9 T U 1 o o $ $ k h.g.#Xc 9 ; U F Z x v C y.%.$.y.: s a d J y.S l @                                                                                                                                                                                                                                                                                                                                                                                                 ",
"                                                                                                                                                                                                                                                                                                                                                                                                      . f s.rX6X6X6X>X>.3.k.z.d.Z Z H X.v.5.*XuXuX>X:X4.3.z.:.G $.Y p i , p 0 0 g g g d 9 p f s a a a l s s i i i a a p p i 9 i i s s s s s s i a s s 1 1 o O i.c J f o @ X f l 2 @ o j q %Xc.y.B % S C x A S c #.%.u.- a a g j y.u.R s X                                                                                                                                                                                                                                                                                                                                                                                               ",
"                                                                                                                                                                                                                                                                                                                                                                                                    . R L 3.>X>XuX+X5.b.k.k.3.%XZ C G x.x.5.,X6X6X>X,X;Xz.z.p.H H 0 0 0 - i.j.z.f.f.f.f.h.h.0 0 p p p p p 9 S A A H H J D D A A S v d : i a s 9 0 i a a 1 O & F h.J f + 2 s a s s 1 $ f h %X:X$XT ; U S x A v b m G g.i.A : g d Y y.T k .                                                                                                                                                                                                                                                                                                                                                                                               ",
"                                                                                                                                                                                                                                                                                                                                                                                                  . . i.#X>X>X6Xx.x.z.z.;X+XwXk.y &.k.x.x.iXiXuXuX>X*X;Xk.l.&.F H q 9 y.g.b.d.d.a.d.s.d.d.f.h.F S S p p p 0 h.g.g.g.g.g.p.g.g.g.g.g.S : s s p S S p i s ; %X%X%Xj.B l @ f a 9 a i s l $ + Y #X#Xi.T O k A A A D b H h.g.c j d g d v T U s . E                                                                                                                                                                                                                                                                                                                                                                                           ",
"                                                                                                                                                                                                                                                                                                                                                                                                  . B b.*X>X6X>X4.z.z.>X>X-XwX3.:.d.3.4.>XuXiX6X8X>X*Xx.z.*.G F J 9 h.h.l.>.z.x.v.v.#Xz.k.k.s.D D U p p l i.g.:.a.a.p.p.p.a.p.p.s.f.j.: i i 9 S A g d s ; tXqXqXZ = # @ a d v k k 9 f # $ d #Xc.%.n.+ B S A D D A F H p.#.J g g d d g T i . E                                                                                                                                                                                                                                                                                                                                                                                           ",
"                                                                                                                                                                                                                                                                                                                                                                                                  & p.4.=X-X>XpXx.5.5.pX1X>X>X3.3.z.3.2.6X6X6X6X8X>X*Xz.z.O.G J S 6 c.k.>.z.x.;X;X;X:Xx.z.k.a.F F J 9 9 g d.a.a.:.:.>.*.>.a.p.a.p.p.h.9 9 0 9 U A D j s = yXyX%Xj o X > d 0 A J b 9 p % = 2 m.j.%.%X= k k A A A S A A u.u.y.j d a a d T i o n.                                                                                                                                                                                                                                                                                                                                                                                          ",
"                                                                                                                                                                                                                                                                                                                                                                                                o g.*.wX6X>X>X5.4.,XuX6X6X1X>X5.3.5.5.8X6X6X8X8X6X>X+Xk.b.@.G J 9 0 l.z.z.:X:X;X;X;X;X:XqXd.s.F J J 9 9 d d.a.d.:.>.#X#X#Xc.:.:.p.d.s.h.0 0 J S F A g 1 ; eXyXy V + ; l p J D J J J p a f + k F %.%XK % k S A A S A A x $.y.q d d a d U Y 1 $ X                                                                                                                                                                                                                                                                                                                                                                                         ",
"                                                                                                                                                                                                                                                                                                                                                                                                & :.tX>X>XwX4.4.,X6X<X<X<X1XuX,X:X,X=X8X8X6X6X6XuX>X5.z.c.G F z 9 h.d.;X:X:X;X;X;X;X;X;XqX>.f.Z F S 9 0 J d.d.a.a.>.#X#X#X#X#Xv.:.>.d.g.K D A F C F U W > Z P tXi.+ ; s p F Z F D D T p s s $ p $.&.y.Y p = A A A A A x D D i.g d a a d T 1 > X                                                                                                                                                                                                                                                                                                                                                                                         ",
"                                                                                                                                                                                                                                                                                                                                                                                              f i.qX1X1Xx.x.z.>X>X>X<X1X1X<X=X,X=X-X8X8X8X8X8XuX*X4.x.z.@.G F D m.:.:X,X:X:X:X:X:X;X;X:XqXa.s.D F J A F h.d.d.>.z.v.#X@X@X@X@X@X@Xv.>.:.p.y.K A Z F U W = tXqX%Xj.+ ; a p A g.h.g.Z J 9 i i $ 1 K Z eXg.j > A A A A A x D A i.d d p d g d T k l X                                                                                                                                                                                                                                                                                                                                                                                       ",
"                                                                                                                                                                                                                                                                                                                                                                                            2 V d.wX6X,Xx.x.x.wX-X1X<X-X-X-X=X,X1X<X8X7X7X8X8XiX4.x.z.x.#.G G G v.z.uX>X>X;X:X:X;X;X@X@Xv.d.&.F F F F L g.p.d.v.x.@X@X@X@X@X@X@X@Xv.z.>.a.u.y.D F D k 9 q rXrXeXi.% ; a 0 A f.p.f.#.F g d 9 3 ; p P eX:.j $ S A D D D A b J Y z d d a d k T n s o                                                                                                                                                                                                                                                                                                                                                                                       ",
"                                                                                                                                                                                                                                                                                                                                                                                            , y 3.>X<X5.x.x.5.>X1X1X1X*X=X=X=X=XiX8X7X7X7X7X8X6X4.4.z.z.G #.Z Z z.x.>XuX>X,X;X:X;X;X:Xz.>.f.Z C A C G L a.p.:.#X@X@X@X@X@X@X#X#X@X@X@X>.p.p.g.Z D T s - tXrXtX%XY $ ; g 9 A i.d.d.f.Z z b 9 1 : : F eX#Xc = B S A D x A A b z z d d d g d T S a +                                                                                                                                                                                                                                                                                                                                                                                       ",
"                                                                                                                                                                                                                                                                                                                                                                                          X Y #XwX>X>Xx.x.4.uX1X1X1X1X*X=X=X=X=X8X7X7X8X7X7X7X8X4.x.x.x.@.X.>.x.4.6X1X6X1X1X>X:X:X;X;Xz.:.f.Z A A C g.s.:.p.:.#X#X@X@Xv.v.@X@X#X@X@X@X#X>.>.f.h.G J p 7 tXyXqX$.% @ ; g 0 h.p.d.d.p.g.x c S p , ; S eXqXc.Y O S A A A A v b b A j d d p g g T T > $ X                                                                                                                                                                                                                                                                                                                                                                                   ",
"                                                                                                                                                                                                                                                                                                                                                                                          . i.#X>X6X>Xx.x.*X1X<X1X>X>X*X=X=X=X-X8X8X7X8X7X7X7X6Xe.x.x.z.@.X.>.x.U.6X1X1X1X1X>X:X;X:X;Xz.:.f.D A A D f.f.a.:.d.v.@X@X@X#X#X@X@X#X@X@X@X@Xd.k.:.s.G H 9 - tX%X%XY % ; 1 j c p.p.d.p.a.g.C C A d i 1 j $XqX$XR % S A A A A A A b x g g h g d g T y.; @ X                                                                                                                                                                                                                                                                                                                                                                                   ",
"                                                                                                                                                                                                                                                                                                                                                                                          . Y @X1X>X+X@X;X6X6X<X1X=X*X=X=X=X-X8X7X7X7X8X7X7X7X8X<X*Xx.3.@.v.x.*X6X<X1X<X<X1X1XwX:X;X;Xz.a.g.F A J F s.s.d.a.#X#X@X@X@X#X#X@X@X@X@X@X@X@X#Xl.:.:.:.g.9 < eXZ C i.O 2 f q f.s.p.:.a.p.g.D D D A k 1 % i.qX#Xj.% U A x A A A A x x b b b S p d T T l ; X                                                                                                                                                                                                                                                                                                                                                                                   ",
"                                                                                                                                                                                                                                                                                                                                                                                      $ . . L +XwXx.z.x.=X1X1X<X1X,X*X=X=X-X8X7X7X7X7X7X7X7X7X7X2X*Xk.a.k.x.>X6X<X<X<X1X6X1X6X>X;X;X;Xx.d.s.C x #.d.d.d.f.d.#X@X@X@X@X@X@X@X@X@X@X@X@X@X@Xz.:.a.:.i.p < y tXtXj.+ f d j g.l.a.p.p.p.a.a.g.m A S l + R #.k.%XO U U b D b A A x A b b b D j d S T a 1 @                                                                                                                                                                                                                                                                                                                                                                                   ",
"                                                                                                                                                                                                                                                                                                                                                        q I y y q q w w r q           $ . n.%XwX:X3.k.wX1X1X1X1X=X=X,X,X=X-X8X7X7X7X7X7X7X7X7X7X2X=Xv.*.3.4.-X6X<X<X1X1X6X1X6X>X*X;X;Xx.k.a.y.y.p.d.d.d.s.>.#X@X;X@X@X@X@X@X@X@X@X@X@X@X@X#X#X%.d.g.9 7 tXtXeXi.+ f d q g.l.a.p.p.p.d.s.g.C A S k + B %XqXeXj.O S A D b A A x b b b b S d d n T T l 1 .                                                                                                                                                                                                                                                                                                                                                                                 ",
"                                                                                                                                                                                                                                                                                                                                                  f q I LXJXJXHXDXDXmXmXDXDXw q       @ o j.qX4.3.z.d.>X>X6X6X6X=X=X,X=X<X8X7X7X7X7X7X7X7X7X7X8X<X,Xx.+.*X>X6X6X<X<X<X<X6X1X1X1X>X:X;Xz.d.p.Z g.s.d.d.d.f.>.#X@X@X@X@X@X@X@X@X@X@X@X@X@X@X#X@X#Xs.6 &XtXtX#X%Xi.= f d q g.>.d.d.a.p.d.s.s.g.G S S , % %X#XtXR % W U A b A A A A b b D A d p d s T k : .                                                                                                                                                                                                                                                                                                                                                                                 ",
"                                                                                                                                                                                                                                                                                                                                                &X$X+XB.hXaXaXaXaX|.|.|.|.aXB.V.$X  R = O g.qX4.3.k.f.>X>X1X6X1X=X=X=X=X2X8X7X7X7X7X7X7X7X7X7X8X<X=X*Xx.,X1X1X6X<X<X<X<X6X1X1X6X>X:X;Xz.:.d.%.s.f.d.a.d.d.z.#X@X@X@X@X@X@X@X@X@X@X@X@X@X@Xv.@X+Xs.9 %XyXrXs.g.S + j j j g.a.d.d.a.a.d.a.p.g.Z D S B $ i.$XrX%X9 , p S A A A b A b b A A p d a a T U l X                                                                                                                                                                                                                                                                                                                                                                                 ",
"                                                                                                                                                                                                                                                                                                                                              w w cXjXdXS.S.I.~.S.S.H.F.F.H.bXbXmXN ; = = d.:Xx.k.d.k.>X>X6X>X1X=X=X=XY.2X7X7X7X7X7X7X7X7X7X7X8X1X,XM.*X=X<X<X<X<X<X<X6X<X1X1X6X>X:X;Xz.>.a.d.d.f.a.>.a.k.#X@X@X@X@X@X@X@X@X@X@X@X@X@X@X@X@X@X@Xg.9 &XrXwXg.j.f > j j j g.d.a.a.a.p.p.a.a.a.Z D A W + K z.qXyXj + , S A A A A A A D A b d p s s U T T X                                                                                                                                                                                                                                                                                                                                                                                 ",
"                                                                                                                                                                                                                                                                                                                                          CXw DXbX~.H.H.kXNXMXNXNXnXjXjXjXXXD.H.H.cX% i.Y z.>Xx.k.k.>.wX>X>X>X*X,X,X=X8X8X7X7X7X7X7X7X7X7X7X8X8X=X=Xe.*X8X1X<X6X<X<X<X6X1X1X6X6X6XrXrX+X>.a.d.d.d.:.>.z.#X@X@X@X@X@X@X@X@X@X@X@X@X@X@X@X@X@X@X@Xs.9 %XyXtXC C O k k z c h.s.a.a.d.p.p.a.a.a.g.H A B $ Y #XeXeXL % , S A A A A A A D A b S 9 p a p n T @     f o o o . . o o o o                                                                                                                                                                                                                                                                                                                                                         ",
"                                                                                                                                                                                                                                                                                                                                        f ,.FXbXH.dXjXkXNXaXaXaXaXNXlXjXOXXXOXOXkXvX% y.y.k.wXx.k.k.3.>X>X>XuX3.;X,X*X8X8X8X7X7X7X7X7X8X7X7X8XiX*X*XM.uX8X6X<X<X<X<X1X<X1X1X6X6X6X>XrX+Xa.l.:.l.>.>.,.k.#X@X@X@X@X@X@X@X@X@X@X@X@X@X@X@X@X+X#X@Xs.9 %X$XC Y T + k h c c g.p.a.a.s.p.p.s.d.d.s.$.c S + i.f.#XZ j.= : S A A A A A A A A A S 9 i a a k T l . o C 6X>X>X>X>X>X>XrXrXo O o                                                                                                                                                                                                                                                                                                                                                   ",
"                                                                                                                                                                                                                                                                                                                                        q ,.NXlXjXjXkXlXGXMXNXNXFXLXnXjXjXlXjXjXxX- % Y L 3.>Xx.k.k.3.*X,X6X<.<.;X,X*X-X2X2X7X7X7X7X7X8X7X7X8XiX*X*Xe.uX6X6X2X2X<X1X1X6X6X6X6X1X1X6XrXrXeX*.d.d.>.k.#X@X@X@X@X@X@X@X@X@X@X@X@X@X@X@X@X@X@X+X#X#Xs.9 q Z ZXm.n.$ B z F i.s.:.a.a.s.p.p.s.d.d.s.i.i.S ; Y p.d.v.%X% : U A A A A A A A b S S v j a s B T Q o Y k.` ` ` ` ` ` ` ` ` %X%X%XV ;                                                                                                                                                                                                                                                                                                                                               ",
"                                                                                                                                                                                                                                                                                                                                        w >.FXNXlXjXjXkXbXbXbXBXLXLXMXnXbXgXXXOXcX+ : L #.z.wXz.k.z.z.;X;XrX>.d.#X*X*X,X>X-X1X8X7X7X7X7X7X7X8X8XU.=X=X<X<X<X<X<X<X<X1X1X6X6X6X1X6X>X>X>XrXx.z.z.x.z.@X@X#X@X@X@X@X@X@X@X@X@X@X@X@X@X@X@X@X@X@X@Xs.9 P %.tXn.j.$ h b J s.d.s.d.d.d.s.d.d.a.a.a.s.i.F - B B Z :X%X= : k b A D b A A A A C A h g a a g U W O T +.' ' ] ] ] ` ` ` ` q.L.U.Z C                                                                                                                                                                                                                                                                                                                                               ",
"                                                                                                                                                                                                                                                                                                                                        w ,.DXGXkXjXOXjXH.J.H.^.DXGXJXFXbXH.XXOXvXo T G L z.qXx.z.z.z.:X;X:X>.>.#X;X*X,X,X=X=X8X8X7X8X7X7X7X8X8X*X-X1X<X1X<X<X<X<X1X1X1X6X6X1X1X>X>X>X>X>XrXwXrXwXwX@X@X@X@X@X@X@X@X@X@X@X@X@X@X@X@X@X@X@X+X@X#Xs.9 &XtXtXJ S $ k n J s.a.s.d.d.d.d.d.d.d.d.a.s.g.F U = , y #X%X= : S S A x S b A A A A b 0 p a a p a U o o r q.7.q.q.q.2.| |  ...~ ~ T.+X&                                                                                                                                                                                                                                                                                                                                             ",
"                                                                                                                                                                                                                                                                                                                                        7 _ R.mXnXkXkXjXjXjXjXkXH.H.'.~.H.XXOXOXvXO J K $.k.d.l.l.k.z.;X:XqX>.d.>.;X;X=X,X=X=X=X8X8X8X8X8X7X8XiX=X-X1X<X<X<X<X<X1X1X1X1X1X1X1X6X>X>X>XwX>X>XwXwXwXwX;X+X+X@X@X@X@X@X@X@X@X@X@X@X@X@X@X@X@X+X@X#Xg.9 &XeXeX9 s $ B v J :.a.a.p.p.d.d.d.d.s.s.a.s.g.A U ; h i.#Xy J U = S D A A b b A A A b J z a a d a U 1 . q { 8.8.8.8. . .K.0XY.L.L.Q.0XrXo                                                                                                                                                                                                                                                                                                                                           ",
"                                                                                                                                                                                                                                                                                                                                        9 / !.W.dXNXNXNXjXjXjXjXjXjXjXkXjXjXdX_.;XO K K L b.%.a.d.k.>.k.x.qX>.d.k.@X;X*X=X,X,X=X=X=XU.8X8X8X8XiX*X,X1X<X1X1X<X6X1X1X1X1X1X1X1X>X>X>X>XrXwXwX>X;X+X+X@X@X@X@X@X@X@X@X@X@X@X@X@X@X@X@X@X@X@X@X@Xv.s.9 &X#XN CXn.> S b F p.a.d.p.p.d.d.d.d.s.s.d.s.g.A S = B %.Z Z H T = S D A A A b A A b D D z a a d a U 3 o 0 | 0X5X{.].].].'.'.q.Z.Z.Q.'.3XO                                                                                                                                                                                                                                                                                                                                           ",
"                                                                                                                                                                                                                                                                                                                                        9 / Y.W..XbXbXNXbXlXbXnXlXnXlXnXnXkXsX'.+Xo L L L g.%.s.f.d.k.k.z.qXd.k.k.x.@X;X,X*X,X*X=X=X=X6X8X8X6X1X=X,X<X<X1X1X1X<X6X1X6X1X1X6X>X>X>X>XrXrXrXwXwX+X@X@X@X@X@X@X@X@X@X@X@X@X@X@X@X@X@X@X@X@X@X@X@X@Xd.9 i.:.P %X&X= h b J s.p.p.p.p.p.p.d.d.d.s.a.d.g.b n = B $.Z D H S = U T C A A A A b x D J c a a d a U 1 . j  .0X].{.`.).).].].L.Z.A.Q.7X:Xo                                                                                                                                                                                                                                                                                                                                           ",
"                                                                                                                                                                                                                                                                                                                                        y e e Q.).F.sXNXMXGXGXFXMXGXMXGXMXbX} 7.4.O L K K @.G p.d.d.k.k.k.k.l.k.k.k.k.;X;X;X*X;X*X*X*X=XU.iX=XM.M.,X6X<X1X1X1X6X1X6X1X1X6X6X>X>X>X>X>X>XwX+X+Xx.@X@X@X#X#X@X@X@X@X@X@X@X@X@X@X@X@X@X@X@X@X#X@X@Xd.: V #.ZX%X&X= V z F s.a.a.d.d.d.d.d.d.d.d.s.s.i.x n ; V j.c.m.m q = U S A C A A A A b A J c p a p a U 1 o 9 ' ` 0X].].{.].'.A.L.L.8.Q.2XO.o                                                                                                                                                                                                                                                                                                                                           ",
"                                                                                                                                                                                                                                                                                                                                      0 ;X*X8 e 0X!.].J.(.(.J.F.F.W.(.Q.{ 6.7.r.x.O K H K H H p.d.d.d.d.k.d.k.d.d.d.d.>.x.;X;X;X*X*X*X*X*XM.x.*Xx.:X1X6X1X1X1X1X1X1X>X1X1X1X>X>X>XrX>X;X@X@X@X@X@X@X@X@X@X@X@X@X@X@X@X@X@X@X@X@X@X@X@X@X@X@X@X@Xk.: j.%Xc.Y Y > B v J s.a.a.d.d.s.s.d.a.a.p.a.a.s.g.A % , h C c Z F R = s A D A A A A A A A b S p p s U i O 7 ' ( ~  .| 7.7.q.8.8. .0X| ^ Z o                                                                                                                                                                                                                                                                                                                                           ",
"                                                                                                                                                                                                                                                                                                                                      8 <XU.8 cXr t  .).).).).J.).J.J.].7.8.e e y & K G H $.H p.s.d.l.a.l.l.d.d.d.d.k.>.k.z.+X*X;X*X;X;X*X*X*Xx.+X;X*X*X>X1X1X1X6X>X6X,X*X,X>XrX>X*X;X@X@X@X@X@X@X@X@X@X@X@X@X@X@X@X@X@X@X@X@X@X@X@X@X@X@X+X@X#Xf.9 j.#XG - i U & g H p.a.a.d.d.s.s.d.d.a.a.g.p.:.a.C B , = &.ZXZX%Xj.+ 2 A x A A A A A A A D A 9 p s U i O q q.q.q.q.q.q.q.w.9.].9X| ! t G + @                                                                                                                                                                                                                                                                                                                                         ",
"                                                                                                                                                                                                                                                                                                                                      2.[.P.e I.B.V.5.d.,.*.*.+.+.*.*.*.X.X.e ! l.% K K L L L p.s.d.>.k.k.k.k.d.d.d.d.s.f.d.z.@X*X*X*X;X;X+X+X+X+X@X@X@X:XpX1X1X1X1X;X;X;X;XqX:X;X@X@X@X@X@X@X@X@X@X@X@X@X@X@X@X@X@X@X@X@X@X@X@X@X@X@X@X@Xx.#Xb.k.C U Y F q D T % k L a.a.p.s.d.d.d.d.d.a.s.a.a.a.a.C A , = i.%XtX%XL o 1 b b A A A A A b A h l a i s U 1 O r 6.I.I.S.S.A.A.I.E.U.e.' o.J 9 w N &.                                                                                                                                                                                                                                                                                                                                      ",
"                                                                                                                                                                                                                                                                                                                                    7 3X[.P.e L.sXbX2.4 7 7 7 7 4 - 7 7 8 8 8 _ qX% K H L K $.p.a.d.k.k.k.k.k.d.d.d.d.l.f.d.>.;X;X*X;X;X;X@X@X@X+X+X+X+X;XwX>X1X>XrX;X;X@X@X@X@X@X@X@X@X@X@X@X@X@X@X@X@X@X@X@X@X@X@X@X@X@X@X@X@X@X@X@X@X@X@X#Xp.d.i.9 - G P i.j.& B Y :.p.g.s.d.d.d.d.d.s.s.a.a.p.a.C S 9 = g.p.qX%Xi.+ s v A A A A A x b A p i i i s U i O w q.7X0X0X0X0X0X0X0X( o.o.O.c & 5.0XL X                                                                                                                                                                                                                                                                                                                                     ",
"                                                                                                                                                                                                                                                                                                                                    7 JXgXP.t w.E.F.fXHXJXJXJXJXLXJXcXxXxXxX9XT.;X% H H H #.L H #.l.d.k.k.d.d.d.d.d.d.k.d.k.3.3.@X@X@X+X;X+X+X;X;X;X+X+X;X+X+X*X+X+X@X@X@X@X@X@X@X@X@X@X@X@X@X@X@X@X@X@X@X@X@X@X@X@X@X@X@X@X@X@X@X@X@X@X@X@X#X:.p.- &XeXeX:.s.g.& k k y d.f.p.p.p.p.d.d.d.d.d.p.p.a.Z S 9 = a.L %XeXg.+ s C A A A A A b S v d s s i i U i @ 7 ' _ ( _ _ _ _ _ ( o.X.y.4 5 <.q.!.C @                                                                                                                                                                                                                                                                                                                                     ",
"                                                                                                                                                                                                                                                                                                                                    - LXjXkXDXe e.E.I.I.(._.8.8.q.8.8.8.6.{ { | *.& H H K $.$.#.$.f.d.d.d.d.d.d.d.d.d.3.v.;X3.3.k.>.>.3.@X@X@X@X@X;X;X+X@X@X@X@X@X@X;X@X@X@X@X@X@X@X@X@X@X@X@X@X@X@X@X@X@X@X@X@X@X@X@X@X@X@X@X@X@X#X#X#X>.>.d.>.g.- j.qXrXtXtXs.j.; : c a.s.p.p.p.p.p.p.d.s.a.:.p.a.D S 9 = i.h $.i.j.+ s A A A A A A A b p 0 i s i i U s @ 9 O.+.o.O.O.O.O.X.O.O.& O O.4.7.| 0XP .                                                                                                                                                                                                                                                                                                                                     ",
"                                                                                                                                                                                                                                                                                                                                    7 V.xXnXnXVXN ) ~ ` ).).9.w.w.9.9.8.q.| -.t 0 O y.H K K $.$.$.&.f.a.d.d.d.d.k.d.k.3.@X;X;Xz.k.l.a.d.k.3.k.z.x.@X;X;X+X@X@X@X@X@X@X@X@X@X@X@X@X@X@X@X@X@X@X@X@X@X@X@X@X@X@X@X@X@X@X@X@X@X@X@X@X#X#Xk.>.s.a.a.h.: n.qX+XyXqX:.i.$ : c f.s.d.d.d.p.p.p.p.p.a.:.s.g.Z S 9 % R = Y Y - l S x A A A A A b S v p i s i s U i X O % & & * * & & % & & i.O.) q.| Q.^ w .                                                                                                                                                                                                                                                                                                                                     ",
"                                                                                                                                                                                                                                                                                                                                    5 2.Z./.nXGXR.-X/ e _ ( ! ! / _ _ t u u u 8 9 o y.K K $.$.$.$.#.f.a.a.d.d.d.d.d.k.k.v.:X;Xx.3.d.d.>.a.d.k.k.z.z.z.z.@X@X@X@X@X@X@X@X@X@X@X@X@X@X@X@X@X@X@X@X@X@X@X@X@X@X@X@X@X@X@X@X@X+X@X#X#X#Xz.:.a.>.d.a.f., n.eXs.ZXyX%.j.; : h f.d.d.d.d.d.d.d.d.d.:.a.s.g.C S d 9 9 = U T = S A C A A A A A b v d p s s i s U 1 $ ; Z C Z X.X.Z Z Z y y 3.K.Q.T.Q.| ^ 0 .                                                                                                                                                                                                                                                                                                                                     ",
"                                                                                                                                                                                                                                                                                                                                    5 M.e.K.xXxXsXgX,.7 w w w w r r t e 8 e 8 0 9 O H K $.$.$.$.$.L g.d.d.d.d.a.k.k.l.d.v.@X:X;X3.k.d.a.a.d.d.d.d.d.d.d.v.@X@X@X+X@X@X@X@X@X@X@X@X@X@X@X@X@X@X@X@X@X@X@X@X@X@X@X@X@X@X@X@X@X@X#Xv.v.:.p.s.>.s.d.f.7 i.%Xj.j.Y K R % 1 h s.a.d.d.d.d.d.d.d.d.d.p.p.g.D A A A : , l B , S b Z A A A A A b h p p 9 i a s U 1 X : +.3.<.1.| | | | | | { K.2X2X2X( =.0 X                                                                                                                                                                                                                                                                                                                                     ",
"                                                                                                                                                                                                                                                                                                                                    , e 4.2.q.w.).bXGXLXLXLXPXPXLXzX2X1.-.-.;.Z 9 % c H K K K $.$.L G d.d.a.d.d.k.k.d.&.O.z.;X;X:Xx.k.f.f.f.f.d.d.d.l.d.d.>.x.@X@X@X@X@X@X@X@X@X@X@X@X@X@X@X@X@X@X@X@X@X@X@X@X@X@X@X@X@X@X@X@Xv.:.:.a.p.p.>.s.s.d.C , 9 n.; - Y n.> 1 h d.>.d.d.d.d.d.d.a.d.a.d.s.p.C A A J D S = = S A b D S A A A A b 9 S d 9 i a s U : X : X.O._ -X2X0X0X0X0X2X2X2.;./ ) / O.d X                                                                                                                                                                                                                                                                                                                                     ",
"                                                                                                                                                                                                                                                                                                                                      9 8 5 M e.E.E.F.E.Q.| 7.1.1.1.| ] ' 3.e e A o z H K G L K K K L f.f.d.d.k.k.d.d.#.%.k.3.;X;X;X;X>.>.d.d.f.f.d.a.d.d.d.a.a.a.#X#X#X#X#X#X+X@X@X@X@X@X+X@X@X@X@X@X@X@X@X@X@X@X@X#X#X#Xc.:.p.d.d.d.d.d.s.s.a.a.s.j p 1 ; ; R = h C y s.a.p.p.s.a.a.a.a.a.p.s.i.A A A b J A b A A x b b A A A A A A S 9 S d s s i s U 1 o . o #.( ( / / / ( o.( ( o.=.X.@.G & o X                                                                                                                                                                                                                                                                                                                                     ",
"                                                                                                                                                                                                                                                                                                                                      9 e e e M.Y.Q.W.E.Q.7.| | | -.' 1.-.+.e e A o h J J K K K K K L g.d.d.z.k.k.k.k.#.%.k.3.@X;X;X;Xk.>.d.d.f.s.d.a.d.d.d.d.a.d.#X#X#X#X#X#X@X@X@X@X@X+X@X@X@X@X@X@X@X@X@X@X@X@X#Xv.#X#Xc.d.p.d.d.d.d.a.s.a.a.d.%.C p 1 ; 1 R - h z c a.a.p.p.s.a.a.a.a.a.d.p.y.A A A A A A b b A A A b A A A b A A A p v j s s a s U 1 $ @ O G / o.o.o.( ( o.o./ O.X.G F y.* + X                                                                                                                                                                                                                                                                                                                                     ",
"                                                                                                                                                                                                                                                                                                                                      7 4.r.2.5 5 *XY.Y.=Xr.1.1.<.-.3.+.8 8 >.X.q . k v j L K K K K K L i.b.k.k.k.k.d.#.%.f.>.>.@X;X;X;X3.d.a.d.d.d.d.d.d.d.a.a.a.d.d.d.d.d.z.#X@X@X@X@X@X@X@X@X@X@X@X@X@X#X@X#X#Xv.>.>.:.:.d.a.d.d.d.d.d.s.s.d.a.f.L J = ; , - h j F h.p.a.a.a.a.s.d.d.s.d.s.L C A A A A A A A A x x C b A A A D D b 0 J 0 i i a s a U 1 1 ; $ & y.#.@.@.@.@.X.X.#.K = % % & y.d X                                                                                                                                                                                                                                                                                                                                     ",
"                                                                                                                                                                                                                                                                                                                                      6 3.2.q.U.>X5 5 e e e 5 5 5 5 4 8 *X| <.0 . X ; k S Y G $.K K K $.#.&.z.k.d.d.d.H G &.z.>.3.x.;X;X;X3.>.d.d.d.d.d.a.d.a.d.a.a.d.d.a.a.a.d.#X@X#X#X#X#X#Xd.>.d.d.d.d.>.>.>.>.d.p.p.a.a.a.a.d.d.d.d.d.s.d.d.a.:.f.g.z C A A c g.g.s.d.p.a.a.a.a.a.a.d.d.p.K C A A D C C i.A A A A A b A A b b A J p S p d p i a k : i i i l X $ o O O O O o & & O Z z.:XX.@.q .                                                                                                                                                                                                                                                                                                                                     ",
"                                                                                                                                                                                                                                                                                                                                      9 8 t 7.7.8.0X,X*X*X*XM.e.M.3.+.-.| 7.<.0 . # > s : j G $.#.$.$.H $.#.#.a.d.d.d.$.H G #.d.k.k.z.;X;X@Xx.k.k.d.d.d.d.d.d.d.f.a.s.f.d.d.a.>.a.>.a.a.>.d.d.:.a.a.d.d.s.a.a.a.d.d.p.p.s.d.s.d.d.d.d.d.d.s.d.d.a.:.a.s.g.g.g.i.i.g.p.s.d.:.a.a.a.d.d.d.d.d.Z x D A A D $.i.g.D x A C A b A A b A c p U a s a p v k k i : k k W @ X Y &.*.d.qXwXeXtXwX5._ ( / X.9 X                                                                                                                                                                                                                                                                                                                                     ",
"                                                                                                                                                                                                                                                                                                                                      9 Z u ;.' q.7XT.L.L.L.L.L.Y.| ] ' ;.o.Z , @ s ; 1 , d H $.$.$.y.$.$.$.#.a.f.p.a.$.$.L %.l.d.k.z.+X;X;X@Xz.z.k.d.a.a.d.d.d.s.s.s.s.d.d.a.a.d.a.a.a.a.a.a.d.d.a.d.a.g.s.s.s.s.s.s.s.s.d.d.d.d.d.d.d.d.s.s.d.a.a.>.s.s.d.s.d.d.p.p.p.p.a.a.a.a.p.d.a.s.&.D A A A C G y.u.y.C C A A x b b b A b z d k s a a p S k a 9 a k v k > . y.+.-.1.e.Y.U.Y.=X1.( o.X.e ; X                                                                                                                                                                                                                                                                                                                                     ",
"                                                                                                                                                                                                                                                                                                              = 7 7 7 7 7 7 7 7 7 7   - eX+.e 8 4.Y.U.U.e.e.U.U.*X5.3.3.*.0 & $ @ k : 1 i p J $.$.$.$.K y.$.$.$.h.%.#.H $.$.f.l.b.l.z.3.;X@X@X@X@Xz.d.d.a.d.d.d.d.s.d.s.d.d.d.d.d.d.d.d.d.d.d.d.a.d.s.s.s.s.s.s.s.s.s.s.s.d.d.d.d.d.a.a.a.s.d.d.d.a.>.p.d.a.a.a.a.a.a.p.p.a.d.p.p.a.a.g.g.C D D A C c i.i.y.x C A A A x x A x S h A S i p s k A v d 9 9 n k h k l o S @.o.+.( / ( / ( o.o.*.K O o X                                                                                                                                                                                                                                                                                                                                     ",
"                                                                                                                                                                                                                                                                                                        7 8 8 SXcXxXxXxXzXfXzXfXzX0X8 4 5 ) -X6X5 e 5 5 5 5 5 5 5 5 5 5 5 Y O ; k v : : 9 k z F $.$.$.c G $.$.$.H $.$.$.$.#.G #.l.l.d.z.k.@X@X+X@Xx.>.k.a.d.a.d.d.d.d.d.d.d.d.d.d.d.d.d.d.s.s.d.d.d.s.s.s.d.d.d.d.d.d.d.d.d.d.d.a.d.a.a.a.a.a.s.d.d.a.a.a.a.a.a.a.a.a.a.a.a.p.s.a.g.C D x D D A z D g.i.G D A C A A A A A A x q q 0 0 0 p p g b A d 9 9 v v h k l @ o h &.O.=.$.$.@.=.&.G & & Y 9 X                                                                                                                                                                                                                                                                                                                                     ",
"                                                                                                                                                                                                                                                                                                    - ,.iX9X9X} } 6.6.6.6.6.6.6.8.8.U.iXt 5 5 e.Q.2X=X=X=X,X=X=X-Xe.e.4.b.o . = z h v 9 9 k h F K $.$.x D y.$.$.H $.K $.$.H #.b.&.O.O.l.k.3.3.3.>.z.@X#Xf.d.a.d.d.d.d.d.d.d.d.d.s.s.s.d.s.s.s.d.d.a.a.a.s.d.d.d.a.a.a.a.a.s.d.d.a.d.a.a.a.a.a.s.g.s.a.p.a.a.a.p.a.p.a.d.a.a.Z Z C c C A A A D A D i.%.Z C b x x A c 0 0 0 0 0 7 0 9 9 0 0 A b S 9 9 p n v h g h k k @ + O & O . O O O & * eX@.y.0 .                                                                                                                                                                                                                                                                                                                                     ",
"                                                                                                                                                                                                                                                                                                  = HXxX5X9.6.5X5X].].].].).].].].].5X9.0Xx.4 / q.Q.| ~ ` ` ` ` ] ] ] -.:.O W k z v v v S 9 g A H $.#.$.J z z Y y.$.L $.$.$.$.$.$.$.#.O.d.d.d.d.>.k.k.>.d.a.a.d.d.d.d.a.a.a.a.d.d.d.s.s.d.d.d.d.d.d.d.d.d.d.d.d.d.d.d.d.d.a.a.a.a.a.a.a.a.a.d.d.s.f.a.a.p.i.p.:.a.g.P 7 7 4 4 4 6 4 A J b D C y.g.p.x C c A 7 7 w ,.PXPXPXLXJXDXmXcXxXxXrX8 0 9 0 a 9 h h h k n h k O @ = j.u.h.h.c.%XrX:Xo.O.X.q X                                                                                                                                                                                                                                                                                                                                     ",
"                                                                                                                                                                                                                                                                                                  = HX3XZ.).(.`.{.{.{.{.{.).).).`.).).W.(.T.,.4 ) Y.| -.o.-.' -.+.+.) O.j o k v x z v v v 9 g z A G $.y.F x g A J $.$.$.$.$.$.$.#.$.$.#.%.l.a.d.a.d.d.d.a.a.p.s.d.d.d.d.a.a.d.d.d.d.s.s.d.d.d.d.d.d.d.d.d.d.d.d.d.d.d.d.d.d.d.d.d.d.d.d.d.a.d.d.d.a.d.a.a.:.a.a.m c ,.$X$X&X&X&X$X&Xq g g A $.%.:.H D z q w qX$X%X:XVXVX9X9XaX[.[.[.{.[.fXR.2.V.8 g k h h k h k k v , # $ s 7 9 8 8 y m X.O.O.8 l                                                                                                                                                                                                                                                                                                                                       ",
"                                                                                                                                                                                                                                                                                                  = DX4XC.).`.|.4X|.4X4X[.{.).J.).).`.).`.).iXO T @X>.$.u.*.*.&.K G G S . + z c z z b h g 6 p v x K y.$.G x c c J $.y.$.K K $.$.$.$.$.$.$.g.s.p.f.a.d.a.d.d.d.d.d.d.d.d.a.a.a.a.d.d.d.d.d.d.d.d.d.d.d.d.d.d.d.d.d.d.d.d.d.d.d.a.d.d.d.a.d.d.d.a.a.a.a.a.l.h.h.%.7 7 V.NXNXJXFXNXNXDX- 8 4 G y.a.&.m F x 7 7 mXmXDXhXN.D.S.S.S.P.T.T.I.Z.gXfX4XsXr y j h h k g h v c h ; o + & & % & % & & F U :                                                                                                                                                                                                                                                                                                                                         ",
"                                                                                                                                                                                                                                                                                                  = DXfX{.`._.mXGXFXFXFXMXsX(.).).).).].7X9XuXO . . O O & & & & o o . . . B A C z b b h h k 9 v v z y.y.Y Y j c c J y.$.$.$.$.$.$.$.$.$.$.L $.H f.g.g.f.f.a.d.d.d.a.d.a.a.a.a.a.d.d.d.d.d.d.d.d.d.d.d.d.d.d.d.d.d.d.d.d.d.d.d.d.d.d.d.d.d.a.d.a.a.f.&.G $.@.$.- LXJXbXgXgXzXdXdXsXdXgXxXxX5 Z Z m m D 7 $XDXbXN.N.I.kXjXjXkXbXJXJXJXDXK.C.6.{..XfXB.8 j g g g k k z c : * qX-X-X<X-X-X,X#XO O                                                                                                                                                                                                                                                                                                                                           ",
"                                                                                                                                                                                                                                                                                                  % VXfXsX_.{.5XI.I.I.L.W.).J.J.).).).8X5 4 * HXSXHXvXiXzXzX9XiXiX4 o . . B A b v n z v v v v 0 9 z z H Y Y H c c z x y.$.$.$.K y.y.y.K K K K G H L L L d.f.d.a.d.a.d.a.a.a.d.a.d.d.d.d.d.d.d.d.d.d.d.d.d.d.d.d.d.d.d.d.d.a.a.a.d.a.a.d.d.s.s.a.G G J H H w I LXVXxX^.` ` ` { { { { sX.XdXfXr y c D 0 HXMXMXN.sXNXnXlXXXlXFXGXJXJXVXN.sX XXXH.D..XdXvX8 g g z j g k k 3 * b.` ` ` ~ ~ ~ ^ 1XtX& o .                                                                                                                                                                                                                                                                                                                                     ",
"                                                                                                                                                                                                                                                                                                  * [ N.hXbXbX[.`.sX5XsX.X`.}..XsXfXfX4 SXKXcX....2.} } { | { { ` 3XiXeXo : S n v v v b v v v z h h v z c j Y x z z b x F y.$.%.c x Y K K K H K $.$.$.$.#.G %.a.f.d.d.d.d.d.d.d.d.d.d.d.d.d.d.d.d.d.d.d.d.d.d.d.d.d.d.d.d.d.d.s.s.a.s.s.G G Z G Z J J $.- LXJXbXsX} Z.5X{.sXsXsXfXfXZ..XXXoX4X,.0 A 7 DXNXNX.XkXnXnXlXjXnXFXFXGXR.[..XXXoXoX}. XXXXXfX8 z z h z j : ; ; * x.q.w.q.r.r.r.r.~ ^ uXtXZX+                                                                                                                                                                                                                                                                                                                                   ",
"                                                                                                                                                                                                                                                                                                  * [ B.4XFXNX[.|..X[.sX.X.X|.fXhXzXvX* SXcXcX...... .{ { { ` { { 0X8XtXO : U n v h v b v z b z x v h z g c y.z z z z c F y.K $.y x y.K K K H H H $.K $.#.G p.b.f.f.s.f.d.d.a.d.d.d.d.d.d.d.d.d.d.d.d.d.d.d.d.d.d.d.d.d.d.s.s.s.s.s.f.f.G G Z G G H J P - JXGXdXdX} D.`..X X.X.XsXsXN.sXsXoXdX[ 0 x 7 HXMXnXXXlXnXlXlXkXnXGXFXFXN._..X}.oX}.}. X}.XXzX8 x z k k l ; 3 O 4 x.q.w.q.r.q.7.r.~ ~ 8X6XrX&                                                                                                                                                                                                                                                                                                                                   ",
"                                                                                                                                                                                                                                                                                                  & +.<...[ DXmXMXnXmXMXMXMXFXHX= % = PX[ | { fXzXbXmXmXbX(.).).].8.} K.iX% s d c h v v v b z z z h v v b h c c z v v c z A y.H K D j K L H K H K K H $.$.$.$.H @.#.G %.d.d.d.a.d.d.d.d.d.d.d.d.d.d.d.d.d.d.d.d.d.d.d.d.d.%.G G G G G G G H H G F J 0 w LXaXgXsX{ sXsXXXXXoXoXoXoX}. XC.C..X}.|.+X- 7 HXFXnX|.lXkXjXlXlXnXxXI.I.sXXXoXXXoX}.}.}.}.dXzX8 z v v l ; . o C 5.r.q.q.q.8.8.8.8.7X] ' 8.W.iX%..                                                                                                                                                                                                                                                                                                                               ",
"                                                                                                                                                                                                                                                                                                    - N 5.| L.L.Y.L.I.I.Q.Y.<.s.% , vX .!.].'.mXmXhX|.aX{.).).`.).].).).[.[ O ; p s h v n n x c z k k h z z h j j k h z g c L L H T Y z z H K K $.$.H K $.$.H H $.K K K $.$.$.#.G g.s.a.s.s.s.s.d.d.d.d.d.g.#.#.#.#.#.#.K K G G G G G G H H K Y H 9 &XBXMXsXsX} {. X.XoXXXGXFXVXS.}..X{.`.C.}.oX{.,X4 3XxXFXmXdXOXoXXXnXgX_.XXkXbXNXbXXX}.oXjXjXdX_.+X9 v + ; ; O K X.+.<.1.-.' ].].{ 2X].A.L.K.A.A.6X,.o                                                                                                                                                                                                                                                                                                                               ",
"                                                                                                                                                                                                                                                                                                      R Z / e.q.8.9.K.9.L.7.) *.& - GXI.].).[.4XmXhXgXhXsX_._.(.sX[.).].].T.o @ ; 1 a a a p h k j : : : , 9 9 s 9 d k h g h C b n J L A j J A F y.$.$.$.$.K K K K H K K K K K K $.y.%.&.&.%.%.%.&.&.&.&.&.y.G L K K K $.$.$.K K K K G G H H K H $.9 yXFXxXS.I.D..XgXgXoXXXGXGX3XN..XkX(.W.F.).}.XX3X8 U.4XxXMXkXoXoXoX.X'.(.{.5X[.[.[.`.dXjXlXbX^.q.>.6 1 > : y y ;.;.' ' ' ' ' 5X{.} 0X7XL.8.w.9.A.iX>..                                                                                                                                                                                                                                                                                                                               ",
"                                                                                                                                                                                                                                                                                                        1 9 g.,.<.>.>.,.,.,.Z J % = MX{.).`.).S.5XhXfXfXbXaXaXaXkX[.).).).fX+ X X 1 1 , ; , 1 s p 7 7 < w 8 w w 4 9 k s a p h k g x F F x c z c H H $.$.K K K K H H K K $.$.$.$.$.$.H G L L L L L L L K K K K K H K K K K K K K H H K F H G H K $.q yXMXsX{ { {.|.FXmX}.dXJXDX3XN..XNX} } ].(.|.dX4Xe Y.'.[.bXbXgXdXsXH.(.H.H.S.H.H.H.~.gXbXgXzX..' +.7 o ; q -.<.<.-.-.-.-.' ' 0X0X .-X2XL.L.q.K.Q.uX,.X                                                                                                                                                                                                                                                                                                                               ",
"                                                                                                                                                                                                                                                                                                            @ o o o o . . . o @ @ # mX4X{.`.).].{ } 7. .bXmXmXmXbX{.`.J._.fX+ X X $ $ . . + O * 4 HXDXcXzX9X5X5X5X8 & & & = k k h j v j y.z z b z J H K K H L K K K K K #.$.K K K K K H L L L L K K K K L K H H $.K K K K K K K K $.H j D G K H #.0 yXMXdX{ 0. X|.FXVXN.dXGXMX^.} dXNX..{ {.`..XdX0X5 =XL.W.S.fXMXFXNXbXkXkXkXkXXXXXXXnXMX3XK.<.1.<.p., X X , >.l.l.l.a.+.3.' ] ] ] 7.t.{ Y.B.+X+XtXZ j @                                                                                                                                                                                                                                                                                                                               ",
"                                                                                                                                                                                                                                                                                                                                o = ..mX|._.).].].0.8.8.6.6.A.A.C.`.`.{.fX^ O       X + o PXvX9XzX......{ { { { { Y.T.6XzXtX% + B j x c z z z v v z c c z j A y.H K K K #.L $.L K K K K K K K K K K K K K K K K K K K K K K K H $.K H H c C Y Y c 9 yXMXdX0.6. X}.MXJXFXNXGX[.{.`._.bX..} `.`.XXdX6X8 5 <.!.G.S.sXhXaXFXJXJXJXGXkXdXXXS.I.....' 1.X.* % o @ o O O & & & * #XM.e.U.L.L.Y.Y.>X& % O & % + + + @                                                                                                                                                                                                                                                                                                                           ",
"                                                                                                                                                                                                                                                                                                                                = : 1...fXgXdX`.`.(.].].].{.{.sXsXsX.X[._ / +     = LXLXLX[ ..} 6.{.].{.).).].].].{.{.} {  .SXO @ i v v h v h v z z g g z g g g c j K K $.$.K K $.K K K H H $.$.$.$.$.$.$.K K K $.$.K K $.K L K K $.K K c j h h j 7 yXMXgX6.C. X}.sXbXFXMXFX[.`.`.`.bX} } {.{..XdX3X5 ;X/ M E.W.sX_.D.S.Z.K.P.S.S.S.S.{ L.` ' 3.M 6 7 x.z.k.+X:X,X,X-X:X$X& o O & M.Y.e * = yX6X3XuXrXrXrXuXZX+ @                                                                                                                                                                                                                                                                                                                       ",
"                                                                                                                                                                                                                                                                                                                                ; % 5.' T.'.sX{.sX.XdXdXdXgX[.{.5XI.P.2.o.X..     = GX3X^.'.S.I.'.].].gXbXgX).).`.`.`.E.A.A.R.z.- : l d v h b z z h h h h h z z c z J D D D F A K K K H H H H H H H K H $.K K K K K K K K H K L F F F J z h h g h 9 yXMXgX6.A.{. X XsXhXfXsX{.`.`.`.dX6.6.{.{..XdX-X5 *X' / o.) '.).S.F.F.F.W.W.W.W.E.0.r.e y r +.y 4 ' -.-.' <.<.| 1.4.3.O.O.O.O.y C , & N 3X .8.q.q.q.8. .2.[ #.L                                                                                                                                                                                                                                                                                                                     ",
"                                                                                                                                                                                                                                                                                                                                o + k.3.' q.5X{.gXbXxXxXxXbX^.'.2X' o./ X.Z o     % DX .} {.{.gXbX[.).nXFXmX(.).[.'.).`.).).6.zX- - , i k v z h z h k k k v v v h z c c z z c z Y H H H H H H H H H Y Y Y H K H Y Y Y H H H J H c c z v z g j h c 6 qXMXgX0.C.{. XdX|.{.`.`._.`.`.`.`.6.6.{._..XsX-X5 2.q.2.e 5 e.=X=X=X=X=X=X=X=X=X=X5.l.* * * *X*.4 ( _ ~ ( ( ~ ~ ~ ~ _ <X<X-X-X& o + * 0X].` ` ] ] ] ` ~ ` 8X0X3X=                                                                                                                                                                                                                                                                                                                   ",
"                                                                                                                                                                                                                                                                                                                                    = &.O.+.+.7.8.C.9.A.9.L.^ ~ o.&.*.#.Y o   E % PX0.{.{.}..XxXmXN./.bXFXmX(._.gXK.6.`.].].C.`.S.,.% s 9 9 d n k v z c b b c z n z x c c c h h z c c c z z z z z z v v k z z z z z z z z k z n c c k h z c z j h 7 3XbXxX6.C.{.{.mXbX|.{.{.`.|.|..XsX} } ).bXkXfX,X5 cXP.` } Y.t 5 5 5 5 5 5 5 4 5 5 * * =.! ! Y.X.4 ;.-.' ' 1.| L.A.A.9.~ ~ ~ q.SXy ,.gX).0.L.L.L.A.A.A.A.L.~ q.'.6X&                                                                                                                                                                                                                                                                                                                 ",
"                                                                                                                                                                                                                                                                                                                                      + o o * 1.w.L.L.K.L.K.) / X.* * % o     E % HXI.{. X}..XxXFXmXNXNXGXMX|.XXkXP.} `.`.`.). XW.O.O 9 s s s , , , i v v z h g v h v h z z z z h h h n z z z z z h z z h z z z z z z z z z c z c h v c c g k k z 5 +X/.jXdX XC.`.C.^.bXbXlXkXkXbXbX{ F.{.(.kX.XI.=X5 <.3XHXbX .2.-X8X9X9X9X9X9XY.-X,X/ O./ 3XcX^ 8 * ;.-.-.-.' | Y.L.L.L.w.Y.Y.Y.* >.3XfX(.E.| I.fXA.A.L.L.w.L.7.] ..rX%                                                                                                                                                                                                                                                                                                               ",
"                                                                                                                                                                                                                                                                                                                                              & * 4 * * * * & O %             E % DXD.`.`.}.|.bXGXGXFXFXFXFXNXnXaX8.{ `.`.J.)..XA.O.+ ; i i 1 1 1 i 9 i s k h z c v v v z z z c z n k k z z z z z z z z z z z z c z z c z c j j h h n z c V C v v C w N dXsXsXC.`.`.W. .} } } }  . .5X].{.bX[.W.q.4 4 4. .B.MXmXmXfX .8.6.6.6.} ` ` ' zXcXcX3XB.-.0 * ;.-.-.-.1.' | | | 7.w.L.A.U.- >.0XdX(.L.6.T.fXA.A.w.w.L.A.A.q.8.2X;XP o                                                                                                                                                                                                                                                                                                           ",
"                                                                                                                                                                                                                                                                                                                                                                              n.% HX[.{. X}. XaXhXzX9XzX9XhXhX4X(.A.6.).`._.{..XI.:.O ; 1 : : 3 3 3 : 3 1 s p p 9 b g j c h h h v n z h z z z z z z z z h z z z z z z z z c h h z z z v s p d a s f , 7 3XsXsX(.`.`.F.A.A.A.A.A.A.C.{.sXaXmX).Q.x.- 6 4.7.} gXgXxXfX/.R.R.R.P.P.B.2. .fX9XiX,X<.u 6 & ;.-.-.-.-.1.| 7.7.8.!.!.A.U.= +.Q.^.[.S.6.T.5XS.S.L.9.A.A.A.A.w.w.'.[ 9                                                                                                                                                                                                                                                                                                           ",
"                                                                                                                                                                                                                                                                                                              = = < < , , < < - - - =                                         E % HXNXaX.X}.}.S.N. . ..... .N.N.} W.).J.)._.sXdX{ Z O ; 1 = + + + % O O % % & & & h h j h h h h v z c h z z z z z z z v h v v z z v v z z z k k z h h k % & % % + % = - N fXfXdX`.`.).].].].].].].`._.nXMXR.G.8.O.- 6 x.q.{ I.I.(.sXmXFXFXMXNXmXmXDXxX~.` <.<.3.6 & & ;.' ' -.-.| ..L.I.L.9X].L.U.* O.1.N.kXS.W.Y.{ fX5X5XZ.9.L.C.A.w.{ '.0XZXo @ o .                                                                                                                                                                                                                                                                                                   ",
"                                                                                                                                                                                                                                                                                                          1 9 UXPXPXUXUXPXJXGXDXDXSXSX= :                                     E O B.DXmXnXdX}. XsXMXmXmXmXDXDXmX].(.J.XXXXXXsX^ ` c + o @ o i.SXSXHXHXvXvXvXiXrXtX& o o . s j j k h h b h h h h k k k k k k v v v v v v k k S h : , o + PXPXPXPXLXSXiX:X5 7 w gXdX.X X`.`.`.`.`.`.`.bXP.P.W.K._ 4 : 9 4 ! ] W.(.F.(.(.^.~.~.~.H.~.P.} Z.' ;.e 6 wXK * +.-.-.-...9XfX5X5X].} A.A.K.* O.2.K.bXdX~.Q.L.` Z.5XsXsXA.A.A.w.L.6.P.iX* Y tXZXO                                                                                                                                                                                                                                                                                                 ",
"                                                                                                                                                                                                                                                                                                        R eXqXiX3XVXiXuX4X4X[.[.'.'./.R.qX&X                                  n.* 2.T.hXhXbXbXsX[.dXhXhXhXhXhXhXsXsX.XdX[.'.q.^ ' D + @ &X$XB.K.T.'.(.F.W.(.I.K.U.5.>.k.c.0 : : d a g d d d d d a d a a a a d d d d d d d d d < + + &X$X3X3X4X4X4X].Q.U.o.5 8 B.dXdXdXdX.XXXdXXXXXsX^.Z.L.E.t e 6 6 - : 6 e ~ 8.W.).).).).).).).(.L. .e.u 0 Z X.,XP * ;.' | -.` q.q.K.K.K.L.I.I.8X8 y '  .T.xXaX'.Q.| 2.K.T.I.].'.'.'.K.8.I.0X* x <.<.c.S                                                                                                                                                                                                                                                                                               ",
"                                                                                                                                                                                                                                                                                                      &Xw DXmXP.~.S.S.D.I.R.R.I.C.A.6.xXmXV.I                                 n.* r.} T.0XmXmXhX4X[.[.aX|.4X4XaX|.xXcXKX$X4.X.X.X.J % < HXcX^. .6.Z.Z.Z.C.D.6.{ { '.5X'.9Xr - & 9 9 l s s i i i i i i i i i i i i i i i i 9 s = < w DXmXN.Z.I.I.S.S.A.L.e.5 8 N vXvXgXdXgXdXdXdXdXgXP.q.q.4.8 5 5 5 8 8 7 7 5 <.=X-X-X-XT.-X2X-X2XU.5.d.* 7 N ` U.Z 4 -.| ` ] ` { { ` ` { T.I.S.6XX.4 O.q.K.xXxX[.Z.Y.7.] ] { sXsX X XL.K.I.iX4 j ~ ` 1X4 &X                                                                                                                                                                                                                                                                                            ",
"                                                                                                                                                                                                                                                                                                    = j.DXN.C.dXdXkXkXaXmXGXJXMX|.oX{.6.C.Q.SX=                                 * 1.7.7.t.L.Z.gXNXMXGXGXFXFXFXMX3X7 = = = & = = & = = FXmX} H.XXXXdXjXjXkXdX.X].].{ ` | | I.0XtX% > 2 i i i i i i i i i s i i i i i i s i 3 + LXJXDX . .{.oXdXdXOXdXkXgX6.r.e.5 7 7 [ '.!.F.W.E.I.W.T.5 4 * <.<.Z.fXgXfXsXaXAX5 4 4 7 5 5 5 5 5 e M 5 - * iX[.{.' y * -.Q.L.I.E.E.A.L.L.I.{.{.`.` +.7 I -.8.I.gXdXdXS.S.E.8.5XsX.X.XsXL.A.W.3X* g ' w.{ >XV .                                                                                                                                                                                                                                                                                           ",
"                                                                                                                                                                                                                                                                                                  o HXMXnXXXdXNXbX|.hXGXJXHXvXN.{.{. X`.`.{.~.cXo                                 & 4.1.| q.8.8.8.Z.Z.K.K.4.- - 7 yXcXDXmXmXmXmXhXz.7 NXNXsXdXjXlX|.P.FXGXGXaX`.`.kX'.].].0.7.2.iX= # # # # # # # # # # # # # # # # # # ; j.vXMXB.P.dXxXbXXX}.XXoXXXjXgXgX6.8.1.r.r.) 4 4 - 4 4 4 4 M ;.4.1. .7.0.6.6.Z.6.} FXDX3X3.5 >.+.) <.<.<.1.<.zX9X9X{ ~ ) y * ) Q.L.'.fXfXsX5X5X7X..` ' / o.=.- * 4.Y.K.^.xXxX4XsXD.A.9.` ~ ^ L.A.I.,X* b ' L.L.2Xy X                                                                                                                                                                                                                                                                                           ",
"                                                                                                                                                                                                                                                                                                  = JXFXnXXXOXMXGXFXFXJXJXVXP.(.}.}.}.}.`.`..XxX=                                   * * 6 4.2.8.9.8.8.U.) 8 rXHXHX,XN.P.D.Z.Z.Z.Z.,.7 NXNX|.oXoX.XgXmXDXbX/.[.bXkXD.).].`.).].5X8.tX+ . . X X . X X X X X X X X X X . X X i.MXnXsX X.XdXXXoXoXoXjXkXP.D..X.X X5X8.9.-XtX6 6 l.3.>.<.1.1.| 0.].5X{.{.{.{.5X[.Z.Z.sXvXiX8 :XDXDXDXDXDXcX'.` ` ~ -.O.0 * +.) ' ^ ^ ^ ^ ^ ^ ) _ ) +./ &.- c x 4 U.L. .^ [ B.fXsX5XE.I.Y.I.].5XQ.5.* v ' L.8.0XN $                                                                                                                                                                                                                                                                                           ",
"                                                                                                                                                                                                                                                                                                  o JXFXnXXXXXNXGXJXJXJXvX4X[. X}.}.}.}.`.}.XXxX+                                         q y y N / / X.+.,.VX4X9XT.I.W.F.W.W.F.W.3.8 VXNXhXXX X XsX4X4X[.[.hXbXdX_.).`.`.).).{.9.9XO l                                 $ R MXnX|.}.XXXXXXsXgXgXgXaXH.(.XXXX.X.XH.S.^.vX- ,.5.1.1.| 7.Q.I.G.`.{. X X X X X{.S.S.(.aXxXN V.yX3X3X3X3X3XY.| ' o.+.0 = & O.o.o.o.( ( ( ( / X.o.o.+.0 0 4 Z Z 0 Z 4.1.) ) 1.-XI.5X(.(.'.).].K.2.*.* h ' 9.I.'.N $                                                                                                                                                                                                                                                                                           ",
"                                                                                                                                                                                                                                                                                                  % HXDXnX|..XgXNXDXDXcXK.4XbXbX.X{.`.`.}.}.jXmX+                                         . . o o O ; - V.mXFXC.6.].{..X.XsXXXXX.X4.e Y.DXNXbXaXsX(.D.C.C.sXbXgX[.jX`.`.`.`.).`.6.5X%                                   # R MXFX|.|.XXoXhXBXFXNXsXH._.oXXXoXXX.XXXdXgXbX7 DX .0.0.0.{ 5X{.{.}.}.|.|.}. X XsX{.{.F.(.dXgX,.7 e.8.8.8.8.w.' 3.*.y.o X O K $.%.%.=.#.@.@.$.H $.#.=.& * Z +.+.y.& H *.+.) -.( ) 9X[.5X5X7X5X[ @.y.- N ` 9.].0XI #                                                                                                                                                                                                                                                                                           ",
"                                                                                                                                                                                                                                                                                                  % 5.3XmXmXaX|.|.sX} 6.C.C.D.D.Z.Z.[.|.dXgXmXV.+                                                   $ PXJXmXN.5X`.{._..XdXnXnXlXaX4.e L.K.xXFXFXFXgX|. X{.D.N.D.D.dX{.`.J.`._._.{.fXO                                   X I 4XmXNXnX|.XXmXFXMXN..XXXXXXXdXoX}. X|.NXgX4X4 MX .W.{.{.{.|.|..X[.kXNXNX[._.gXnX X.XH._.gXgX,.4 4.2.5.4.4.4.3.& O + X X X o O & % & % % O O O % & * >.+.o.( ~ ) #.* * * *.O.o.o.) ~ ^ ^ ^ ) Z 9 & / ..L.5X0X^ 7 X                                                                                                                                                                                                                                                                                           ",
"                                                                                                                                                                                                                                                                                                  = 2. .B.FXNXnXkXsXsXsXsXsXsXsXsXsXnXmX^.K._ O.o                                                   $ PXVXK.5X`._.kXNXoX.X|.aXgX|.2.M L.L.K.3XFXGXMXnX.X}._..X].A.S.{.`.`.`.{..XsX[ O                                   X y  .sXNXNXNX|.hXaXsXC.C.C.D.C.D.oXXXsXbXFXhX,X4 DXN.S. X}._.bXNXFXFXGXJXGXGXFXGXFX6.XXXXgXkXbXO.& & & O % & & & h.7 o . X # @ j.:.,.O.O.O.O.O.+.+.+.<.' ' ' U.Q.'.4.o.0 * O % & #.X.=.O.O.O.O.& & & 1X0XT.Y.~ / - #                                                                                                                                                                                                                                                                                           ",
"                                                                                                                                                                                                                                                                                                  % 5.| 2...^.aXmXMXMXFXFXFXMXmX'.'.^.[ _ ~ -.@.O                                                   @ HXxX{.`.`.`.^.B.nXNXNXNXMX_.^.>X5 Y.9.I.^.^././.bXnXnXdXsX.XsX.XdXjXkX.XsX^ / o                                   . q e.Z.P./.FXNXbXdXdXsXsXsXsXsXsXNXNXNXFXB...) 4 -XgXdX}..X[.mXFXGXGXGXGXHXJXGXGXFXC.sXkXbXbX .w = y.u.%.%.%.p.*.;.=X#X:X%.o + y ;.1.9X9XY.Q.Q.Q.Q.'.'.2XQ.Q.W.W.5X~ ( O.Y $ @ O O & O & & & & c.v.3.) ^ ^ ( / =.: $                                                                                                                                                                                                                                                                                           ",
"                                                                                                                                                                                                                                                                                                  n._ ~ 2.| W.S.3X3X3X3X3X3X3X3X . .8.1.;.-.+.8 CX                                                  o PXxX_.`.`.{.fXfXGXvX3X3X3X`.).6X*._ L.A.F.G.G.I.R.R.aXaXXXoXoXXXXXaX~.S.N.' @.O                                   @ - t E.W.I.4XxXgXdXbXbXnXbXlXkXkXhXhXvXB.2.7.<.4 =X[.sXgXbXsX/./././././.3X3X3X3XR.{.gXbXhXB.<.r * *.' ' ' -.-.-.' 1.| E.4.U o Z X.( } } I.W.5XsXsXsXsXsXsXS.A.A.| / =.y - @ # l l a f l f p d *.' ' ) ) _ X.=.5 R                                                                                                                                                                                                                                                                                             ",
"                                                                                                                                                                                                                                                                                                    % I 4.1.L.L.9.9.9.9.6.8.8.q.] ' -.1.3.a.i.o                                                     $ PXxX[.[.`.`.bXFXFX4XK.9.C.{.{.{.;X5 U.T.Q.L.A.E.7.6.5X.X.XXX.X.X.X7X8.7.] ;.#.o                           = = + O & & 4 Y.E.!.F.}.}.hXGXJXJXGXGXGXmXW.).{.] t.t.l.4 U.L.sXNXNXdXZ.K.Z.Z.Z.Z.P.I.I.S.D.aXbXMXvX^ ' r 4 *.' ' -.-.' ] ' ' ` Q.L.#Xo S c ! / _ Q.I.4XxXxXxXxXxXxXR.Y.=X_ / X.l o o : F X.+.o.o.X.o.o.o.o.o.o.o.X.G J + CX                                                                                                                                                                                                                                                                                            ",
"                                                                                                                                                                                                                                                                                                      n.& * 4 4.q.q.q.q.q.q.q.r.' ' >.* & & O                                                       @ :XaXkX_.`.`.I.P.R.R.P.bX.X{.{..X9X*X4 * 5 e.L.q.e.q.9.6.A.C.C.Z.{ ` ` ' ;.*.&                       @ . PXPXLXHXHXvXU.3.5 T.A.S.).`.(.(.(.(.~.D.K.K.` { W.| <./ 4 * *XA.S.S.fXMXMXFXNXmXmXmXMXMXFXMXMXDXP.[ ) ( ;.q * ;.-.' ' ` Y.Q.Q.!.Q.W.'.tXo o C m X./ ' ^ ~ ^ _ ^ ^ ^ _ ~ ~ ( o.Z &         O #.O.X.O.X.X.X.o.o.o.o.o.x O o                                                                                                                                                                                                                                                                                                 ",
"                                                                                                                                                                                                                                                                                                              A N C C c c y c c 0 0 f                                                               @ z.P.aXdX_. X).(.4X4X^.sX|.`.`.{.{.T.r 8 0 G Z w c U.K.w.9.A.9.L.| ) ;.Z 7 9                   R R R V.V.3X3X3X0X3XR.E.e.o./ _ ~ Y.`.).F.J.).).A.E.L.-.-.' e y y y u Z -XL.A.S.4XgXgXkXFXFXFXFXGXMXvX4X4X| ] ' o.5 y r -.;.' | } A.F.F.F.F.F.{.iX.   1 : 4 y / ( o.o.o.o.( ( ( o.o.X.9 s             9 9 q 9 9 9 9 9 9 9 9 9 1                                                                                                                                                                                                                                                                                                     ",
"                                                                                                                                                                                                                                                                                                              # @ . . . . X . . X X $                                                               @ ;.K.4XmXhXaXsX{.bXbXgX`.`.`.`.}..XsX` ;.*.4 = . . c.#Xv.;X*X+Xv.k.$.y.h . X                   + o < HXDX .6.C.A.9.Z.A.L.e.e e M *X6X3X>X2X6X>X,X,X;X*.*.#.5 4 ! | ' 5 :Xe.L.A.A.5XsXsXnXmXmXmXnXbX'.8.Z.| -.+.*.5 y <.' ' ] 8.E.F.G.G.F.F.G.5XiX.   # X + 9 Y L K K K K $.D L K J S @ X             . @ . X X X X X . X X @ 3                                                                                                                                                                                                                                                                                                     ",
"                                                                                                                                                                                                                                                                                                                                                                                                    o f.<.` K.DXMXaX/.[.[.[._._._._.{.gXgX` -.;.*.p . X . . . . o o . . . o                     n.. PXLXHX} } {. X}..X.XXX.XsXK.q.w.e.5 4 4 4 5 4 4 4 5 * * * 4 ( ~  .W.W.2X5 t <.<XQ.E.W.(.(.W.W.I.W.I.K.r.e.<.O.0 * 3.;.-.] ` L.E.G.E.A.A.S.D.].T.,..         . . . . . . . . . . . . ;                                                                                                                                                                                                                                                                                                                                               ",
"                                                                                                                                                                                                                                                                                                                                                                                                      O 8 ' w.| xXNXNXNXNXmXmXNXNXmXfX' ` ' -.X.*                                             $ R PXJXmXN.{. X.X}.}.oXXX}.kXnXmXZ.A.q.2.e.e.U.:X4 4 l.e.2.5.5.<.0X].'.W.W.I.2.u * * * ,X2X'.!.'.Q.W.W.I.q.<.* * * 4 a.<.' ] W.W.F.F.F.S.F.{.{.9X` ^ &.o                                                                                                                                                                                                                                                                                                                                                                                 ",
"                                                                                                                                                                                                                                                                                                                                                                                                        &X5 r.t.Y.K.K.I.L.K...[ ......-.o.+.5 ;                                               @ R HXMXxX_.}. X}.}.}.}..XkXGXDXP.sX.X X{.8.I.sXiX4 qXU.q.7.].5X4XbX[.4XxXmXbX1.<.3.3.>.8 4 8 5 5 5 4 4 - 4 c - y.&.+.+.' w.L.F.S.F.S.S.{.sXW.} ..( X.J o                                                                                                                                                                                                                                                                                                                                                                                 ",
"                                                                                                                                                                                                                                                                                                                                                                    CXCXCXCXCX                              i.O.4.q.w.9.9.L.| ' ' 1.' ;.Z C               CXCXCXCXCXCXCXCXCXCXCXCX            X R GXmXgX|. X}. X X.XgXkXBXbXfX~.XX}. X XH.~.XXxX- yXI.A.C.}. XaXFXvXxXFXGXGXR./.-X6X[ e e 5 8 8 0 & @ o - q r o.-.) B.N.I.(.~.(.(.(.(.`.(.q.' ) o.m f                                                                                                                                                                                                                                                                                                                                                                                   ",
"                                                                                                                                                                                                                                                                                                                                                            = = = = - - 7 8 8 7 7 8 -                       X . Y m.%X;X;X;Xv.d.l.b.f.n.. X             $ = = @ + & * - 4 4 7 4 *             @ ,.mXMXkX|. X.X.XaXVXGXFXgX_.B.gXoX}. X.XsXOXdXcX= vXsX}.}.}.}..XMXJXJXFXGXGXGXFXGXDX..{ ` ] { ' &.o @ X , A X.( ' | zXfXfXfXfXgXfXfXzXQ.| ' ( O.%., .                                                                                                                                                                                                                                                                                                                                                                                   ",
"                                                                                                                                                                                                                                                                                                                                                        % = PXPXLXPXJXDXxXxXgXzXfXgXgXw * %                     , o O O O O + o o o o $             @ + UXPXLXPXHXzXfXfXfXfXfXfXfX& % &X      $ N B.mXDXNX|.hXmXFXGXDXfXsXgXmXbXoXoX}.aXNXDXcX) * +X5X.XoX.X.XsXmXDXDXMXMXDXMXmXmXmX.X[.[.P.Q.U.p.o       % %.*.-.1.' | ....| | | | | ] 1.*.*.%.O                                                                                                                                                                                                                                                                                                                                                                                       ",
"                                                                                                                                                                                                                                                                                                                                                      < PXJXvXxX}  .8.8.Z.Z.K.8.Z.6.XXgXzXvXw                                                   . j.PXHXDXB. .B. .6.6.8.C.6.6.C.dXfXvX,.,     $ r K. .B.DXGXGXVXaX[.} C.6.C.Z.N.dXdXdXnXFXqX( +.& +.8.P.bXnXbXsXD.Z.Z.Z.C.Z.A.Z.Z.D.|.dXgXmX| ( q @         + O $.=.X.;.+.;.;.;.;.;.<.<.3.& O o                                                                                                                                                                                                                                                                                                                                                                                         ",
"                                                                                                                                                                                                                                                                                                                                                  @ ZXPXLX .D.(.[.{.`.{.5XmXmXmXxX'._.} C.sXvXI l                                             = PXHXmXN.P.5X{.{.{.{.{.{.{.].{.{.(.C.sXxXIXo   @ y e.K.8. .xXFXFXNXbXgXgXdXdXdXgXNXnXNX4X[ +.+.*.* >.q.8.P.bXbXlXsXsXsX.X{.{. XsX.XsXbXfXfX[ -./ j .             ; & O % O o O O & & & & o                                                                                                                                                                                                                                                                                                                                                                                               ",
"                                                                                                                                                                                                                                                                                                                                                  &XSXDX3XT.(.[.gX4X{..XbXFXFXhX[.{.{.(.W.(.sX3Xj.                                          &XV.JXvX^.S.J.|.sX{.|.bXxXhX X`.`.`.{.W.I..XvX>.    Y u =XY.L.T.zXbXkXbXMXMXNXlXlXkX4XaXsX..-.-.>.0   C <.L.A.[.[.dXsXgXgXgXgXgXdXgXdX[.hX . .' *.C f                         E E E E E   n.n.                                                                                                                                                                                                                                                                                                                                                                                              ",
"                                                                                                                                                                                                                                                                                                                                                o UXDXxXN..X X.XMXvXaXhXGXGXmX(.C. X X X.XS..XaXyX+                                       @ yXJXmX4X} `.}.bXgXaXhXGXGXxX_._.[.fX5XsXC.J.dXvX+     & @Xe.L.K.{.dX.XgXFXmXMXbXkXgXR.R.T...-.=.y.+   W %.U.E.A.D..X}.gXbXbXbXnXbXxXfXT.2X..' <.y.9 2                                                                                                                                                                                                                                                                                                                                                                                                                                       ",
"                                                                                                                                                                                                                                                                                                                                                o PXBX{. X}. XsXFXFXFXFXGXFXN.(. X.X}. X`. X.XsXrXO                                       @ &XFXGXxX[.`.}.bXMXmXMXGXGXBX.X.XfXxX} `.{.}.dXxXo       - 8 Y.8.W.S.H.~.3XP.P.K.D.Z.^ ^ 1.' <.0 &       k 5 K.A.D.J.D.S.P.P.P.P.P.Z.Z.` ..) ' ;.* &X                                                                                                                                                                                                                                                                                                                                                                                                                                        ",
"                                                                                                                                                                                                                                                                                                                                                o PXgX`. X}. X|.GXGXGXDX4X4X~.(.}. X}. X X}.XXsXyXo                                       o &XGXNXgX{.`..XbXFXGXFXxXxXgX}.oX|.gX} `.`.}.dXzX&         n.O.O.<.Q.W.W.].L.L.Y.L.Y.( ( o.8 0 W             N _ ^ I.G.G.E.E.W.E.G.G.L.' -.u 0 q                                   E E E                                                                                                                                                                                                                                                                                                                                                                                                     ",
"                                                                                                                                                                                                                                                                                                                                                + PXgX}..X.XsXaXGXFXNXxXL.C. XoX}.}. X X X|.dX.X3Xo                                       . &XGXBXkX}.`..XbXFXGXMX|. X.X X XXX.X8.`.}.sXXXgX&           o o & :X2X^.2XY.Y.Y.Y.=X;.+.y.. X               . o - 5.Q.Q.Q.T.T.!.W.E.-X3.l.& . X                         @ % + + + = = = = = = + CX                                                                                                                                                                                                                                                                                                                                                                                          ",
"                                                                                                                                                                                                                                                                                                                                                O rXxXmXMXaX`..XdXgX5XZ.dXdXdXdXXX}. X}.|.kXgX^.*.o                                       . P P.mXGXMX{..X.X{.{..X X X X.X X.X5XC.`.XXdX9X+XO                 @ o + + + % % % % + $ .                         + % & % % % % & % % O .                         . + I PXPXPXLXPXxXzXfXgXfXfXvXN + o                                                                                                                                                                                                                                                                                                                                                                                       ",
"                                                                                                                                                                                                                                                                                                                                                & +XT.VXDXmXaX|._.S.A.Z.C.C.C.C.C.H.dXkXbXbXK.) #..                                       @ y ..T.hXMXNXdXsXS.6.6.6.6.C.C.C.C.Z.{.gXbXP.<.Z O                                                                                                               X UXLXSX3XB.K.K.B.C.Z.} } } } gXxXSXcX%..                                                                                                                                                                                                                                                                                                                                                                                   ",
"                                                                                                                                                                                                                                                                                                                                                O #X|  .R.hXxXbXgX[.].].{.{.`.`.[.fXbX[.4X..) +.Y .                                       . y ' | Z.R.vXmXbXsX'.'.'.].].{.`.{.[.xX4X[ ) / K .                                                                                                             , yXJXR.Z.(.[.{.{.].'.xXxXxXxXI.'.S.S..X3X&X,                                                                                                                                                                                                                                                                                                                                                                                 ",
"                                                                                                                                                                                                                                                                                                                                                  7 ^ q.9.T.zXfXaXkXbXbXxXbX|. X{.'.^.^ ^ ) O.0 f                                           i.e 4.7.8.L.hX4XhXbXbXbXbXgX X.X{.~.^.1.( o.K :                                                                                                             &XyXmXP.~.(.{.gXsX}. XxXFXFXMX^.(.`.J.(.D.(.hX&X                                                                                                                                                                                                                                                                                                                                                                                ",
"                                                                                                                                                                                                                                                                                                                                                  2 J 5.q.6.5X5X~.zXcXcXcXcX'.'.].K.Q.` ( =.$.- 2                                             9 y.4.7.7.5X'.4XcXSXcXcXhX].5X'.K.Y.~ +.*.R .                                                                                                           # &XJXbXN.`. X.XNXbXhXhXGXFXmXgXC.`.`.}.{.C.J.}.vX+                                                                                                                                                                                                                                                                                                                                                                               ",
"                                                                                                                                                                                                                                                                                                                                                      & @XU.7XfX9.q.8.q.q.q.8.8.q.~ <X/ O.y.=                                                   o Z x.e.9X8.8.q.q.q.8.8.8.q.1.( M.o.u.9 $                                                                                                             ; &XGXbX.X`.}.|.NXJXJXLXJXDX4X}  X{.}. XJ.}. X.XzXO                                                                                                                                                                                                                                                                                                                                                                               ",
"                                                                                                                                                                                                                                                                                                                                                        O & s.3.q.e.w.q.q.q.r.e.4./ O.& O .                                                         O & 5.5.r.w.q.q.q.r.2.4.3.X.Z O >                                                                                                                 3 &XGXbX.X X}.}.NXGXJXJXN.K.'. X X}.}.`.}._..XdXcX.                                                                                                                                                                                                                                                                                                                                                                               ",
"                                                                                                                                                                                                                                                                                                                                                            = O * * * * * * * * * & &                                                                   & & 6 6 6 * * * & & & & O                                                                                                                     ; I R.NXbX.X`..XgXBXaXN.fXsXsXdXXX}.}.`.`.dXdXsX,.X                                                                                                                                                                                                                                                                                                                                                                               ",
"                                                                                                                                                                                                                                                                                                                                                                                                                                                                                                                                                                                                      ; C R.hXMXxXsX|. X~.(.Z.(.(.).).(.(. XXX.XgX4X,X,.o                                                                                                                                                                                                                                                                                                                                                                               ",
"                                                                                                                                                                                                                                                                                                                                                                                                                                                                                                                                                                                                      1 y | T.cXDXkXaX_.D.C.A.D.A.D.D.D.S.gXgXxXcX,X( @.o                                                                                                                                                                                                                                                                                                                                                                               ",
"                                                                                                                                                                                                                                                                                                                                                                                                                                                                                                                                                                                                      ; c 5.| q.T.gXnXkXsXsX|.aX|..X.XsXbXbXR.T._ / X.u.o                                                                                                                                                                                                                                                                                                                                                                               ",
"                                                                                                                                                                                                                                                                                                                                                                                                                                                                                                                                                                                                        J X.| q.K.^.gXgXgXhXhXhXdX.X.XsX5X9XB.2.( X.%.A                                                                                                                                                                                                                                                                                                                                                                                 ",
"                                                                                                                                                                                                                                                                                                                                                                                                                                                                                                                                                                                                          & 1.2.1.8.5X'.zXHXHXmXmXfX5X5XZ.L...( X.Z Y o                                                                                                                                                                                                                                                                                                                                                                                 ",
"                                                                                                                                                                                                                                                                                                                                                                                                                                                                                                                                                                                                            % f.<.2.0X8.w.q. . . . .8.K.~ U.<.O.$.- .                                                                                                                                                                                                                                                                                                                                                                                   ",
"                                                                                                                                                                                                                                                                                                                                                                                                                                                                                                                                                                                                              o o 7 3.2.2.q.r.2.2.2.5.5.X.X.5 O O                                                                                                                                                                                                                                                                                                                                                                                       ",
"                                                                                                                                                                                                                                                                                                                                                                                                                                                                                                                                                                                                                  CX& & & & & O O O O O O o CX                                                                                                                                                                                                                                                                                                                                                                                          ",
"                                                                                                                                                                                                                                                                                                                                                                                                                                                                                                                                                                                                                                                                                                                                                                                                                                                                                                                                                                                                                                        ",
"                                                                                                                                                                                                                                                                                                                                                                                                                                                                                                                                                                                                                                                                                                                                                                                                                                                                                                                                                                                                                                        ",
"                                                                                                                                                                                                                                                                                                                                                                                                                                                                                                                                                                                                                                                                                                                                                                                                                                                                                                                                                                                                                                        "
};
