/* XPM */
static char *_b1e4617e6684264bfd0fd45195bf943efx58qPxJwDibMI6[] = {
/* columns rows colors chars-per-pixel */
"500 500 256 2 ",
"   c None",
".  c #040201",
"X  c #0B0301",
"o  c #0B0905",
"O  c #0C0C0B",
"+  c #060708",
"@  c #130200",
"#  c #1B0200",
"$  c #130B02",
"%  c #1B0B01",
"&  c #120E0A",
"*  c #1A0F0B",
"=  c #14120D",
"-  c #1B130C",
";  c #1A1205",
":  c #141413",
">  c #1B1512",
",  c #1C1A14",
"<  c #1C1C1A",
"1  c #151817",
"2  c #0D1010",
"3  c #230300",
"4  c #270A01",
"5  c #340D00",
"6  c #22140B",
"7  c #281607",
"8  c #361808",
"9  c #231B15",
"0  c #231E1A",
"q  c #291C16",
"w  c #361D13",
"e  c #36230B",
"r  c #24221D",
"t  c #2B241C",
"y  c #2A2317",
"u  c #342414",
"i  c #3C2B1C",
"p  c #37261A",
"a  c #3C311A",
"s  c #252422",
"d  c #2B2622",
"f  c #2C2A24",
"g  c #2D2C2A",
"h  c #262828",
"j  c #342C24",
"k  c #3B2D23",
"l  c #332E2A",
"z  c #382C27",
"x  c #3C3225",
"c  c #34322D",
"v  c #3C342B",
"b  c #3D372B",
"n  c #353432",
"m  c #3B3632",
"M  c #3D3A34",
"N  c #3C3C39",
"B  c #30302F",
"V  c #1F201E",
"C  c #461A05",
"Z  c #4D1801",
"A  c #47240C",
"S  c #592704",
"D  c #462A17",
"F  c #48321D",
"G  c #57351B",
"H  c #543110",
"J  c #672B05",
"K  c #73370B",
"L  c #673818",
"P  c #793A18",
"I  c #6B340B",
"U  c #442E23",
"Y  c #433324",
"T  c #4B3424",
"R  c #43352B",
"E  c #4A362B",
"W  c #443A2C",
"Q  c #4C3B2C",
"!  c #4A3A25",
"~  c #533B2C",
"^  c #5B3D2B",
"/  c #573825",
"(  c #443C33",
")  c #4B3C33",
"_  c #433D39",
"`  c #453935",
"'  c #523E33",
"]  c #593E34",
"[  c #633C23",
"{  c #663C29",
"}  c #6C3D2B",
"|  c #70431C",
" . c #5C422D",
".. c #57422A",
"X. c #4C4135",
"o. c #45413B",
"O. c #4C443B",
"+. c #474439",
"@. c #544334",
"#. c #5B4434",
"$. c #53453B",
"%. c #5B4B3C",
"&. c #584839",
"*. c #514732",
"=. c #63432C",
"-. c #6A4428",
";. c #76472A",
":. c #644433",
">. c #6B4B33",
",. c #634C3B",
"<. c #684936",
"1. c #734B34",
"2. c #7A4C34",
"3. c #774C39",
"4. c #6B523B",
"5. c #74533B",
"6. c #7B543B",
"7. c #785638",
"8. c #75512B",
"9. c #746639",
"0. c #4C4943",
"q. c #4A4744",
"w. c #544C44",
"e. c #574C45",
"r. c #5C544B",
"t. c #575249",
"y. c #5A5853",
"u. c #4B524D",
"i. c #674E43",
"p. c #675648",
"a. c #775946",
"s. c #655B54",
"d. c #775E54",
"f. c #7B4D43",
"g. c #7B624B",
"h. c #6A635A",
"j. c #796556",
"k. c #6D614D",
"l. c #74706B",
"z. c #454143",
"x. c #803B1B",
"c. c #8A481B",
"v. c #8F4916",
"b. c #884B28",
"n. c #954D25",
"m. c #895328",
"M. c #985529",
"N. c #865739",
"B. c #975936",
"V. c #834D34",
"C. c #A4592B",
"Z. c #A45C33",
"A. c #99643B",
"S. c #8F673A",
"D. c #A96538",
"F. c #B56B3B",
"G. c #B9723C",
"H. c #A66D36",
"J. c #845C43",
"K. c #875A46",
"L. c #945E43",
"P. c #805E52",
"I. c #876649",
"U. c #986847",
"Y. c #9A7349",
"T. c #876A56",
"R. c #976C55",
"E. c #897259",
"W. c #987659",
"Q. c #8D7048",
"!. c #A76A46",
"~. c #A6754A",
"^. c #B67548",
"/. c #A77A56",
"(. c #B4744B",
"). c #897563",
"_. c #987B65",
"`. c #897A70",
"'. c #A57B65",
"]. c #C27744",
"[. c #C17E3F",
"{. c #E7971C",
"}. c #D19334",
"|. c #F0B133",
" X c #E0A32F",
".X c #FAC236",
"XX c #AB8358",
"oX c #B8865A",
"OX c #B48D4E",
"+X c #9B8675",
"@X c #9C8269",
"#X c #A88567",
"$X c #B68965",
"%X c #BA9469",
"&X c #A78A73",
"*X c #B89578",
"=X c #AC9376",
"-X c #AD9C71",
";X c #C48B58",
":X c #CD904E",
">X c #CEAA57",
",X c #F9B859",
"<X c #EAB44F",
"1X c #C79568",
"2X c #C79A75",
"3X c #D0976E",
"4X c #CBA17A",
"5X c #D9A679",
"6X c #DAB479",
"7X c #D4AC68",
"8X c #F4B667",
"9X c #E5AA7A",
"0X c #E9B776",
"qX c #EDB76D",
"wX c #F8C847",
"eX c #F7D456",
"rX c #F0CB55",
"tX c #F9C869",
"yX c #FBD768",
"uX c #E9C878",
"iX c #F1CE72",
"pX c #FDE36C",
"aX c #FCE677",
"sX c #EEE177",
"dX c #DCC266",
"fX c #BB8734",
"gX c #918C8B",
"hX c #B69C86",
"jX c #AA978A",
"kX c #BBA58F",
"lX c #B0A0A3",
"zX c #C9A888",
"xX c #D6A985",
"cX c #DAB688",
"vX c #CEB295",
"bX c #E6B486",
"nX c #EAB68B",
"mX c #CBB8A8",
"MX c #C59D83",
"NX c #EFCC90",
"BX c #FDE986",
"VX c #FEF28A",
"CX c #FCEA95",
"ZX c #FBF396",
"AX c #EDE091",
"SX c #D9C8AA",
"DX c #EECFAA",
"FX c #FDF6A8",
"GX c #FCFAB7",
"HX c #F7EBAD",
"JX c #D7C398",
"KX c #FDF9C7",
"LX c #FEFDD7",
"PX c #F9EEC0",
"IX c #FFFFE4",
"UX c #7D7F82",
/* pixels */
"                                                                                                                                                                                                                                                                                                                                                                                                                                                                                                          . . < ( ( X.( < . +                                                                                                                                                                                                                                                                                                                                                                                                                                                                                                           ",
"                                                                                                                                                                                                                                                                                                                                                                                                                                                                                                          O . > M ( ( X.> . 1                                                                                                                                                                                                                                                                                                                                                                                                                                                                                                           ",
"                                                                                                                                                                                                                                                                                                                                                                                                                                                                                                          + . 0 ( ( b O.9 . :                                                                                                                                                                                                                                                                                                                                                                                                                                                                                                           ",
"                                                                                                                                                                                                                                                                                                                                                                                                                                                                                                          . . , ( O.X.b > . 2                                                                                                                                                                                                                                                                                                                                                                                                                                                                                                           ",
"                                                                                                                                                                                                                                                                                                                                                                                                                                                                                                          O . r ( ( ( +.> . 1                                                                                                                                                                                                                                                                                                                                                                                                                                                                                                           ",
"                                                                                                                                                                                                                                                                                                                                                                                                                                                                                                      n N . . 0 b ( b ( > o . l s                                                                                                                                                                                                                                                                                                                                                                                                                                                                                                       ",
"                                                                                                                                                                                                                                                                                                                                                                                                                                                                                                      . . . . 0 M ( W ( - o o . .                                                                                                                                                                                                                                                                                                                                                                                                                                                                                                       ",
"                                                                                                                                                                                                                                                                                                                                                                                                                                                                                                  l.q.: O . o r o.b ( O.t & o o o N l.l.                                                                                                                                                                                                                                                                                                                                                                                                                                                                                                ",
"                                                                                                                                                                                                                                                                                                                                                                                                                                                                                                . . s g n & & 0 M M ( ( t - 0 d d 0 . .                                                                                                                                                                                                                                                                                                                                                                                                                                                                                                 ",
"                                                                                                                                                                                                                                                                                                                                                                                                                                                                                                o . c M n & & r M M c M c > < d f r . .                                                                                                                                                                                                                                                                                                                                                                                                                                                                                                 ",
"                                                                                                                                                                                                                                                                                                                                                                                                                                                                                                . . c M m > o > c M c r = . - j f 0 . o                                                                                                                                                                                                                                                                                                                                                                                                                                                                                                 ",
"                                                                                                                                                                                                                                                                                                                                                                                                                                                                                                + o n N q.o . & d s g r . . o f v d . o                                                                                                                                                                                                                                                                                                                                                                                                                                                                                                 ",
"                                                                                                                                                                                                                                                                                                                                                                                                                                                                                                . . N s.h.X . . o . + . . . o t.t.m X .                                                                                                                                                                                                                                                                                                                                                                                                                                                                                                 ",
"                                                                                                                                                                                                                                                                                                                                                                                                                                                                                                = . N y.s.o o . . . . . . o . t.y.( o o                                                                                                                                                                                                                                                                                                                                                                                                                                                                                                 ",
"                                                                                                                                                                                                                                                                                                                                                                                                                                                                                                . . o.y.r.& . o : : 2 1 O . o t.r.m X o                                                                                                                                                                                                                                                                                                                                                                                                                                                                                                 ",
"                                                                                                                                                                                                                                                                                                                                                                                                                                                                                                o . l _ o.X .             . o y.y.( X o                                                                                                                                                                                                                                                                                                                                                                                                                                                                                                 ",
"                                                                                                                                                                                                                                                                                                                                                                                                                                                                                                o . c _ +.o .             . & r.t.l o o                                                                                                                                                                                                                                                                                                                                                                                                                                                                                                 ",
"                                                                                                                                                                                                                                                                                                                                                                                                                                                                                                O . l O.( . .             . o ( _ d o o                                                                                                                                                                                                                                                                                                                                                                                                                                                                                                 ",
"                                                                                                                                                                                                                                                                                                                                                                                                                                                                                                o . f 0.+.X o             o o l n r . .                                                                                                                                                                                                                                                                                                                                                                                                                                                                                                 ",
"                                                                                                                                                                                                                                                                                                                                                                                                                                                                                                o . f O.O.o .             . o M M r . .                                                                                                                                                                                                                                                                                                                                                                                                                                                                                                 ",
"                                                                                                                                                                                                                                                                                                                                                                                                                                                                                                O . l q.q.o .             . . 0.0.f . .                                                                                                                                                                                                                                                                                                                                                                                                                                                                                                 ",
"                                                                                                                                                                                                                                                                                                                                                                                                                                                                                                O . c q.0.. .             o o t.w.f . .                                                                                                                                                                                                                                                                                                                                                                                                                                                                                                 ",
"                                                                                                                                                                                                                                                                                                                                                                                                                                                                                                O . c 0.0.X o 0.        q.. . c M r . .                                                                                                                                                                                                                                                                                                                                                                                                                                                                                                 ",
"                                                                                                                                                                                                                                                                                                                                                                                                                                                                                                o . c q.o.X . . o . o o . . o l g < . .                                                                                                                                                                                                                                                                                                                                                                                                                                                                                                 ",
"                                                                                                                                                                                                                                                                                                                                                                                                                                                                                                O . g _ _ o & = 9 t 0 < : o O g l 0 . o                                                                                                                                                                                                                                                                                                                                                                                                                                                                                                 ",
"                                                                                                                                                                                                                                                                                                                                                                                                                                                                                                . . g q.m < < > b ( ( M 0 : : n l h . .                                                                                                                                                                                                                                                                                                                                                                                                                                                                                                 ",
"                                                                                                                                                                                                                                                                                                                                                                                                                                                                                                + . s n _ 0 < 0 +.( ( +.t < < n c s . .                                                                                                                                                                                                                                                                                                                                                                                                                                                                                                 ",
"                                                                                                                                                                                                                                                                                                                                                                                                                                                                                                      V s < r v t.r.r.s.M c g 1 1 n                                                                                                                                                                                                                                                                                                                                                                                                                                                                                                     ",
"                                                                                                                                                                                                                                                                                                                                                                                                                                                                                                      : + < 0 v s.p.r.s.+.l s . .                                                                                                                                                                                                                                                                                                                                                                                                                                                                                                       ",
"                                                                                                                                                                                                                                                                                                                                                                                                                                                                                                      . O . 9 z p.e.p.r.c l h + =                                                                                                                                                                                                                                                                                                                                                                                                                                                                                                       ",
"                                                                                                                                                                                                                                                                                                                                                                                                                                                                                                          O . j $.p.p.r.v . :                                                                                                                                                                                                                                                                                                                                                                                                                                                                                                           ",
"                                                                                                                                                                                                                                                                                                                                                                                                                                                                                                          . . t r.$.e.p.y . O                                                                                                                                                                                                                                                                                                                                                                                                                                                                                                           ",
"                                                                                                                                                                                                                                                                                                                                                                                                                                                                                                          . . f t.t.r.r.j . o                                                                                                                                                                                                                                                                                                                                                                                                                                                                                                           ",
"                                                                                                                                                                                                                                                                                                                                                                                                                                                                                                          . . f r.e.r.r.t . o                                                                                                                                                                                                                                                                                                                                                                                                                                                                                                           ",
"                                                                                                                                                                                                                                                                                                                                                                                                                                                                                                          . . d t.0.s.r.y . o                                                                                                                                                                                                                                                                                                                                                                                                                                                                                                           ",
"                                                                                                                                                                                                                                                                                                                                                                                                                                                                                                          . . r ( ( s.y.r . o                                                                                                                                                                                                                                                                                                                                                                                                                                                                                                           ",
"                                                                                                                                                                                                                                                                                                                                                                                                                                                                                                          . . 9 l v r.y.0 . o                                                                                                                                                                                                                                                                                                                                                                                                                                                                                                           ",
"                                                                                                                                                                                                                                                                                                                                                                                                                                                                                                          . . < c b t.t.r . =                                                                                                                                                                                                                                                                                                                                                                                                                                                                                                           ",
"                                                                                                                                                                                                                                                                                                                                                                                                                                                                                                          . . r v M O.0.r . =                                                                                                                                                                                                                                                                                                                                                                                                                                                                                                           ",
"                                                                                                                                                                                                                                                                                                                                                                                                                                                                                                          . . r c v M ( < . O                                                                                                                                                                                                                                                                                                                                                                                                                                                                                                           ",
"                                                                                                                                                                                                                                                                                                                                                                                                                                                                                                      + O + . r c v M _ r . . O .                                                                                                                                                                                                                                                                                                                                                                                                                                                                                                       ",
"                                                                                                                                                                                                                                                                                                                                                                                                                                                                                                      . . o . 0 c ( o.o.0 . . + .                                                                                                                                                                                                                                                                                                                                                                                                                                                                                                       ",
"                                                                                                                                                                                                                                                                                                                                                                                                                                                                                                  l.u.O < : o r l M ( ( r = = : + N l.                                                                                                                                                                                                                                                                                                                                                                                                                                                                                                  ",
"                                                                                                                                                                                                                                                                                                                                                                                                                                                                                                . . s g c 1 < t M ( ( ( f < < s < O . .                                                                                                                                                                                                                                                                                                                                                                                                                                                                                                 ",
"                                                                                                                                                                                                                                                                                                                                                                                                                                                                                                o . g N c 1 0 t b W ( _ d 1 < n n : . o                                                                                                                                                                                                                                                                                                                                                                                                                                                                                                 ",
"                                                                                                                                                                                                                                                                                                                                                                                                                                                                                                . . l q.o.1 = t b W o.o.r o = N N r . .                                                                                                                                                                                                                                                                                                                                                                                                                                                                                                 ",
"                                                                                                                                                                                                                                                                                                                                                                                                                                                                                                o o c u.0.= . r ( W ( ( 0 . + n n g . .                                                                                                                                                                                                                                                                                                                                                                                                                                                                                                 ",
"                                                                                                                                                                                                                                                                                                                                                                                                                                                                                                o . n y.q.& . - y 9 0 0 & . + n n < . .                                                                                                                                                                                                                                                                                                                                                                                                                                                                                                 ",
"                                                                                                                                                                                                                                                                                                                                                                                                                                                                                                o X M t.0.& . . . . . . . . . v l r . o                                                                                                                                                                                                                                                                                                                                                                                                                                                                                                 ",
"                                                                                                                                                                                                                                                                                                                                                                                                                                                                                                $ . c r.r.& . o . . . . . . o m M d . o                                                                                                                                                                                                                                                                                                                                                                                                                                                                                                 ",
"                                                                                                                                                                                                                                                                                                                                                                                                                                                                                                o . M y.w.. +             . . w.0.l . o                                                                                                                                                                                                                                                                                                                                                                                                                                                                                                 ",
"                                                                                                                                                                                                                                                                                                                                                                                                                                                                                                & . m y.t.. .             . . y.y.n . o                                                                                                                                                                                                                                                                                                                                                                                                                                                                                                 ",
"                                                                                                                                                                                                                                                                                                                                                                                                                                                                                                O . c y.y.o .             . o u.y.c . o                                                                                                                                                                                                                                                                                                                                                                                                                                                                                                 ",
"                                                                                                                                                                                                                                                                                                                                                                                                                                                                                                o . m y.u.o .             . o u.y.n . o                                                                                                                                                                                                                                                                                                                                                                                                                                                                                                 ",
"                                                                                                                                                                                                                                                                                                                                                                                                                                                                                                + . c y.u.o .             . . y.y.c . o                                                                                                                                                                                                                                                                                                                                                                                                                                                                                                 ",
"                                                                                                                                                                                                                                                                                                                                                                                                                                                                                                + . g y.q.. +             o o u.0.f . .                                                                                                                                                                                                                                                                                                                                                                                                                                                                                                 ",
"                                                                                                                                                                                                                                                                                                                                                                                                                                                                                                . . n u.q.. .             o o 0.q.h . .                                                                                                                                                                                                                                                                                                                                                                                                                                                                                                 ",
"                                                                                                                                                                                                                                                                                                                                                                                                                                                                                                + . f q.o.. . c         g . o n _ s . .                                                                                                                                                                                                                                                                                                                                                                                                                                                                                                 ",
"                                                                                                                                                                                                                                                                                                                                                                                                                                                                                                + . r M m . . . . . . o . . & c m 0 . .                                                                                                                                                                                                                                                                                                                                                                                                                                                                                                 ",
"                                                                                                                                                                                                                                                                                                                                                                                                                                                                                                . . r c v . o o o . o o o . . c m 0 . .                                                                                                                                                                                                                                                                                                                                                                                                                                                                                                 ",
"                                                                                                                                                                                                                                                                                                                                                                                                                                                                                                . . s n m . o f o.M o.( f o o M m 0 . .                                                                                                                                                                                                                                                                                                                                                                                                                                                                                                 ",
"                                                                                                                                                                                                                                                                                                                                                                                                                                                                                                o . s m m $ . ( 0.0.t.w.l o o l c 0 . .                                                                                                                                                                                                                                                                                                                                                                                                                                                                                                 ",
"                                                                                                                                                                                                                                                                                                                                                                                                                                                                                                . . 0 c c > = o.s.s.s.s.( 0 0 t s > . .                                                                                                                                                                                                                                                                                                                                                                                                                                                                                                 ",
"                                                                                                                                                                                                                                                                                                                                                                                                                                                                                                . . 0 c c f j w.h.h.h.l.O.l f 0 > & . o                                                                                                                                                                                                                                                                                                                                                                                                                                                                                                 ",
"                                                                                                                                                                                                                                                                                                                                                                                                                                                                                                1 < n f g 0 t O.h.h.h.h.( l d 1 : O .                                                                                                                                                                                                                                                                                                                                                                                                                                                                                                   ",
"                                                                                                                                                                                                                                                                                                                                                                                                                                                                                                      o . o . v h.h.h.h.z . o o .                                                                                                                                                                                                                                                                                                                                                                                                                                                                                                       ",
"                                                                                                                                                                                                                                                                                                                                                                                                                                                                                                      . . . . j h.h.h.h.( o . . .                                                                                                                                                                                                                                                                                                                                                                                                                                                                                                       ",
"                                                                                                                                                                                                                                                                                                                                                                                                                                                                                                          . o t r.s.h.h.z . o                                                                                                                                                                                                                                                                                                                                                                                                                                                                                                           ",
"                                                                                                                                                                                                                                                                                                                                                                                                                                                                                                          o . 0 O.e.h.h.j . r                                                                                                                                                                                                                                                                                                                                                                                                                                                                                                           ",
"                                                                                                                                                                                                                                                                                                                                                                                                                                                                                                          . . t w.w.h.s.f . o                                                                                                                                                                                                                                                                                                                                                                                                                                                                                                           ",
"                                                                                                                                                                                                                                                                                                                                                                                                                                                                                                          . . > O.e.h.h.l o +                                                                                                                                                                                                                                                                                                                                                                                                                                                                                                           ",
"                                                                                                                                                                                                                                                                                                                                                                                                                                                                                                          . . 0 w.0.h.s.d . O                                                                                                                                                                                                                                                                                                                                                                                                                                                                                                           ",
"                                                                                                                                                                                                                                                                                                                                                                                                                                                                                                          . . r w.O.e.e.0 . O                                                                                                                                                                                                                                                                                                                                                                                                                                                                                                           ",
"                                                                                                                                                                                                                                                                                                                                                                                                                                                                                                          . . 0 0.w.+.( 0 . .                                                                                                                                                                                                                                                                                                                                                                                                                                                                                                           ",
"                                                                                                                                                                                                                                                                                                                                                                                                                                                                                                          . . > ( ( ( ( < o .                                                                                                                                                                                                                                                                                                                                                                                                                                                                                                           ",
"                                                                                                                                                                                                                                                                                                                                                                                                                                                                                                          . . 9 v c ( ( > . .                                                                                                                                                                                                                                                                                                                                                                                                                                                                                                           ",
"                                                                                                                                                                                                                                                                                                                                                                                                                                                                                                          O . r ( ( ( ( 0 . +                                                                                                                                                                                                                                                                                                                                                                                                                                                                                                           ",
"                                                                                                                                                                                                                                                                                                                                                                                                                                                                                                          o . 0 ( ( ( ( 0 . .                                                                                                                                                                                                                                                                                                                                                                                                                                                                                                           ",
"                                                                                                                                                                                                                                                                                                                                                                                                                                                                                                      . O . o 0 b b b ( > X . + .                                                                                                                                                                                                                                                                                                                                                                                                                                                                                                       ",
"                                                                                                                                                                                                                                                                                                                                                                                                                                                                                                      + = = . r ( O.( +.f o O + O                                                                                                                                                                                                                                                                                                                                                                                                                                                                                                       ",
"                                                                                                                                                                                                                                                                                                                                                                                                                                                                                                O . t z z f d l O.X.o.q.c r y y y r o                                                                                                                                                                                                                                                                                                                                                                                                                                                                                                   ",
"                                                                                                                                                                                                                                                                                                                                                                                                                                                                                                + . l b b f r v ( X.O.q.M s t b v f o O                                                                                                                                                                                                                                                                                                                                                                                                                                                                                                 ",
"                                                                                                                                                                                                                                                                                                                                                                                                                                                                                                + . f x ( - o f +.+.o.o.c o $ x b f . .                                                                                                                                                                                                                                                                                                                                                                                                                                                                                                 ",
"                                                                                                                                                                                                                                                                                                                                                                                                                                                                                                + . b r.s.= o d ( ( o.o.n + o w.t.m . .                                                                                                                                                                                                                                                                                                                                                                                                                                                                                                 ",
"                                                                                                                                                                                                                                                                                                                                                                                                                                                                                                . . b h.s.o o 0 ( ( _ _ B . o r.s.( . .                                                                                                                                                                                                                                                                                                                                                                                                                                                                                                 ",
"                                                                                                                                                                                                                                                                                                                                                                                                                                                                                                + . b s.y.o o o - & o O O . o w.t.v . .                                                                                                                                                                                                                                                                                                                                                                                                                                                                                                 ",
"                                                                                                                                                                                                                                                                                                                                                                                                                                                                                                . . b s.s.& . O o X . O . . o t.r.m . o                                                                                                                                                                                                                                                                                                                                                                                                                                                                                                 ",
"                                                                                                                                                                                                                                                                                                                                                                                                                                                                                                + . b p.t.o o             O . e.e.c . .                                                                                                                                                                                                                                                                                                                                                                                                                                                                                                 ",
"                                                                                                                                                                                                                                                                                                                                                                                                                                                                                                . . ( h.s.o o             . . w.e.v . o                                                                                                                                                                                                                                                                                                                                                                                                                                                                                                 ",
"                                                                                                                                                                                                                                                                                                                                                                                                                                                                                                + . v r.s.& o             . . 0.O.l . o                                                                                                                                                                                                                                                                                                                                                                                                                                                                                                 ",
"                                                                                                                                                                                                                                                                                                                                                                                                                                                                                                . o ( s.s.o .             . . w.0.l . o                                                                                                                                                                                                                                                                                                                                                                                                                                                                                                 ",
"                                                                                                                                                                                                                                                                                                                                                                                                                                                                                                o . W s.h.o .             . . t.t.b . o                                                                                                                                                                                                                                                                                                                                                                                                                                                                                                 ",
"                                                                                                                                                                                                                                                                                                                                                                                                                                                                                                O . ( p.t.o & l.        h.. . e.e.b o o                                                                                                                                                                                                                                                                                                                                                                                                                                                                                                 ",
"                                                                                                                                                                                                                                                                                                                                                                                                                                                                                                o . R p.s.& . . o . . O . . o ( +.z . o                                                                                                                                                                                                                                                                                                                                                                                                                                                                                                 ",
"                                                                                                                                                                                                                                                                                                                                                                                                                                                                                                o o R p.s.& . + & = 1 < + . . ( ( j . o                                                                                                                                                                                                                                                                                                                                                                                                                                                                                                 ",
"                                                                                                                                                                                                                                                                                                                                                                                                                                                                                                o o v p.s.o . : g c M n 1 . . O.O.c . o                                                                                                                                                                                                                                                                                                                                                                                                                                                                                                 ",
"                                                                                                                                                                                                                                                                                                                                                                                                                                                                                                O . N s.h.& o ; i x b ( > . = N 0.g . +                                                                                                                                                                                                                                                                                                                                                                                                                                                                                                 ",
"                                                                                                                                                                                                                                                                                                                                                                                                                                                                                                o . 0 f M = - z w.r.r.r.c > : < O : . +                                                                                                                                                                                                                                                                                                                                                                                                                                                                                                 ",
"                                                                                                                                                                                                                                                                                                                                                                                                                                                                                                o . 0 l d = $ j w.e.r.e.v d < + O + . .                                                                                                                                                                                                                                                                                                                                                                                                                                                                                                 ",
"                                                                                                                                                                                                                                                                                                                                                                                                                                                                                                o & > < 0 > $ z r.e.r.s.z 9 < & O . . .                                                                                                                                                                                                                                                                                                                                                                                                                                                                                                 ",
"                                                                                                                                                                                                                                                                                                                                                                                                                                                                                                      . . . . t e.$.p.p.y X X . +                                                                                                                                                                                                                                                                                                                                                                                                                                                                                                       ",
"                                                                                                                                                                                                                                                                                                                                                                                                                                                                                                      . . o . y w.e.p.p.y o o . .                                                                                                                                                                                                                                                                                                                                                                                                                                                                                                       ",
"                                                                                                                                                                                                                                                                                                                                                                                                                                                                                                      O . . . 0 e.e.p.p.y X X . . g                                                                                                                                                                                                                                                                                                                                                                                                                                                                                                     ",
"                                                                                                                                                                                                                                                                                                                                                                                                                                                                        . . o . . . . . . . . . . . . . . o . t w.$.r.s.j X . o . . + . . . . . . . . . . . . .                                                                                                                                                                                                                                                                                                                                                                                                                                                                         ",
"                                                                                                                                                                                                                                                                                                                                                                                                                                                                        . o . . . . . . . . . . . o . . O . . r O.t.y.r.t o . o . . . . . . . . . . . . . o . o                                                                                                                                                                                                                                                                                                                                                                                                                                                                         ",
"                                                                                                                                                                                                                                                                                                                                                                                                                                                                    . + . + c c g g s r r s s g f f g n n 1 + f q.q.t.y.f . O l B g s s s r s r s d f c c m & o . o O                                                                                                                                                                                                                                                                                                                                                                                                                                                                   ",
"                                                                                                                                                                                                                                                                                                                                                                                                                                                                  . o . . . N N n M M c c n c g c l n o.N 1 . r M M o.O.r . = N N n c c c c c c n c M 0.q.0.$ . + . .                                                                                                                                                                                                                                                                                                                                                                                                                                                                   ",
"                                                                                                                                                                                                                                                                                                                                                                                                                                                                  + . O s < d g < < 1 : : > 1 > 1 1 V V r 2 + = r r t t : . O s r 1 < < : > , < < < 0 l m ( > > O + O                                                                                                                                                                                                                                                                                                                                                                                                                                                                   ",
"                                                                                                                                                                                                                                                                                                                                                                                                                                                                  o . r m _ c 0 . . . . . . . . . . o . . . . o . . o . . . . . . . o . . . . X . X X $ t b o.w.g . .                                                                                                                                                                                                                                                                                                                                                                                                                                                                   ",
"                                                                                                                                                                                                                                                                                                                                                                                                                                                                  . . d M c 0 & . . . . . . . . . . o . . . . . . . . . o . . . . . . . X $ . . . $ X $ y j +.O.g . .                                                                                                                                                                                                                                                                                                                                                                                                                                                                   ",
"                                                                                                                                                                                                                                                                                                                                                                                                                                                                  o X 9 O.o.( _ c c f > < f m _ j t M ( M d r r r 9 t f d r g g l z z l O.e.l 0 y k k k W ( ( ) V . .                                                                                                                                                                                                                                                                                                                                                                                                                                                                   ",
"                                                                                                                                                                                                                                                                                                                                                                                                                                                                  . . 0 q.o.M ( M o.M r 0 m 0.t.R z e.t.u.m v v v l ( ( M N 0.u.t.w.0.w.l.l.( q q z W b v ( v ( 1 . .                                                                                                                                                                                                                                                                                                                                                                                                                                                                   ",
"                                                                                                                                                                                                                                                                                                                                                                                                                                                                  . . = < s M M ( ) R u i T ,.i.@.Q p.p.p.~ ..T T T ~ #.@.@.%.p.7.4.4.4.T.).! w u i x k b ` d l O . .                                                                                                                                                                                                                                                                                                                                                                                                                                                                   ",
"                                                                                                                                                                                                                                                                                                                                                                                                                                                                  . . . o < M o.W ) Q T F #.i.p.a.p.T.).E.a.a.4.4.5.a.a.a.p.a.g.W.E.I.g.g.T.Y p u p k O.w._ o X + . .                                                                                                                                                                                                                                                                                                                                                                                                                                                                   ",
"                                                                                                                                                                                                                                                                                                                                                                                                                                                                  + . . o , c b b @.#.F D ^ :.4.a.a.a.I.g.5.5.5.7.7.6.a.6.>.>.4._.T.g.g.a.d.E p p W x +.( o.. . . . .                                                                                                                                                                                                                                                                                                                                                                                                                                                                   ",
"                                                                                                                                                                                                                                                                                                                                                                                                                                                                  + . O o o = ; e.kXvXT D / :.<.6.6.>.>.1.7.N.U.U.U.Y.U.I.N.7.7.-.-.I.I.a.#.Y p R `.l.O.o = . o . . .                                                                                                                                                                                                                                                                                                                                                                                                                                                                   ",
"                                                                                                                                                                                                                                                                                                                                                                                                                                                                  O + : : & $ % p.kXmXF e D :.:.N.N.;.-.-.V.N.Y.~.~./.~.U.N.N.N.8.8.N.7.>.=.D u Y `.`.( o & . . + . +                                                                                                                                                                                                                                                                                                                                                                                                                                                                   ",
"                                                                                                                                                                                                                                                                                                                                                                                                                                                                  + . < r y y y Y @.#.D D =._.&X$X$X/./.~.~.~./.oXoXoXoXoXoXoXoX$XoX$X2X*X*X/ 8 u e.s.( t t t j O . .                                                                                                                                                                                                                                                                                                                                                                                                                                                                   ",
"                                                                                                                                                                                                                                                                                                                                                                                                                                                                  2 . d M ( W ) X.Q Q p 8 ~ @X=X$X$XoXoXoX(.(.(.(.(.oX;X1X1X1X3X%X2X2X4X2X*XF 8 p k j j j l j t 2 . .                                                                                                                                                                                                                                                                                                                                                                                                                                                                   ",
"                                                                                                                                                                                                                                                                                                                                                                                                                                                                  2 . r v ( ( X.( ) W u u T _.+X$X#X#X#X/./././././.XX$X$X$X$X$X%X%X*X%X*XhXF w 9 z v m l v R k = . .                                                                                                                                                                                                                                                                                                                                                                                                                                                                   ",
"                                                                                                                                                                                                                                                                                                                                                                                                                                                                  : . 0 v W O.X.t o o $ @ @ 4 # @ @ @ @ @ @ @ @ @ @ @ @ # # % % # # 3 % # # @ X o . . s l j v p = . .                                                                                                                                                                                                                                                                                                                                                                                                                                                                   ",
"                                                                                                                                                                                                                                                                                                                                                                                                                                                                  . $ y ( v x +.t . X $ $ X @ X . . . o . . . . . . . . . . X X X o X X $ X X o + + + V f v t X.= . o                                                                                                                                                                                                                                                                                                                                                                                                                                                                   ",
"                                                                                                                                                                                                                                                                                                                                                                                                                                                              h.h.= o 9 v b l f = . & = - q p w . . q.                            u.. . j z 0 & + O O O 1 0 O.X.v y t                                                                                                                                                                                                                                                                                                                                                                                                                                                                   ",
"                                                                                                                                                                                                                                                                                                                                                                                                                                                              . . j z O.p.r.o . . . O 0 v $.T.g.. O gX                              o X p.h.O.t d < : . . . l.d.O.b b o .                                                                                                                                                                                                                                                                                                                                                                                                                                                               ",
"                                                                                                                                                                                                                                                                                                                                                                                                                                                              . . j z +.p.w.. . . . . t W @.).T.. . gX                              . X p.k.@.p y > = . X X s.d.$.Q W o o                                                                                                                                                                                                                                                                                                                                                                                                                                                               ",
"                                                                                                                                                                                                                                                                                                                                                                                                                                                              . . l t ) s.t.X . . o o f U ~ W.J.& . gX                              o @ p.a.~ u q - > . . X j.j.p.R W $ X                                                                                                                                                                                                                                                                                                                                                                                                                                                               ",
"                                                                                                                                                                                                                                                                                                                                                                                                                                                              . o f b e.s.e.X . . . . q p / W.N.o . gX                            gX. X i.p.Q w t & o . . o h.j.%.Q @.X o                                                                                                                                                                                                                                                                                                                                                                                                                                                               ",
"                                                                                                                                                                                                                                                                                                                                                                                                                                                            s . . v W t - - `.  q.o . k ~ =.U.B.X o gX                            gX+ X e.s.$.Y j . . q.l.l.b x Q p.p.q 9 (                                                                                                                                                                                                                                                                                                                                                                                                                                                             ",
"                                                                                                                                                                                                                                                                                                                                                                                                                                                        . . d q. .@.e.r . o       X @ <.3.3.T.d.+ .                               gX. . e.i.#.$.q.. .       o + A R.g.%.e.0 . .                                                                                                                                                                                                                                                                                                                                                                                                                                                         ",
"                                                                                                                                                                                                                                                                                                                                                                                                                                                        . . t w.,.~ X.d . .       . @ <.6.f.a.d.O 1                                 . . O.i.,.] _ O .       . . A T.T.#.X.q o .                                                                                                                                                                                                                                                                                                                                                                                                                                                         ",
"                                                                                                                                                                                                                                                                                                                                                                                                                                                        . X t t.p.,.s.0 o .       o @ <.6.{ @ p                                         - @ ..,.e.X .       O X D T.g.%.&.q X o                                                                                                                                                                                                                                                                                                                                                                                                                                                         ",
"                                                                                                                                                                                                                                                                                                                                                                                                                                                        $ X y p.g.d.s.d . .       . @ a.1.^ X q                                         - X ..:.%.@ .       O . D T.j.#.@.w X o                                                                                                                                                                                                                                                                                                                                                                                                                                                         ",
"                                                                                                                                                                                                                                                                                                                                                                                                                                                      h.% % p p.a.] ) O.        s.- 7 a.5. .X -                                         - X <.5.a.% @ s.          ) E #.i.Y * ; gXgX                                                                                                                                                                                                                                                                                                                                                                                                                                                    ",
"                                                                                                                                                                                                                                                                                                                                                                                                                                                    . q R Q Q p.p.% @       2 . 9 W / T.W.a.X 9                                         * @ a.W.Q.A U 9 X g       X X p.j.,.i p o .                                                                                                                                                                                                                                                                                                                                                                                                                                                     ",
"                                                                                                                                                                                                                                                                                                                                                                                                                                                    $ q Q &.#.4.j.% X       : o - ~ :.W.R.4.$ -                                         9 @ I.Y.Y.-.^ 7 $ s       X $ p.a.,.Q i . .                                                                                                                                                                                                                                                                                                                                                                                                                                                     ",
"                                                                                                                                                                                                                                                                                                                                                                                                                                                r t 9 Y ..4.g.E.l.% $       < . q ~ [ W.W.,.X 9                                         * @ I./.~.;.>.D @ s       . o p.j.i.T Y $ X 1 <                                                                                                                                                                                                                                                                                                                                                                                                                                                 ",
"                                                                                                                                                                                                                                                                                                                                                                                                                                              = . $ x &.,.a.j.E.`.$ o       < . w <.[ W.R.i.X 9                                         6 # I.XX(.b.I.F X 0       . o s.i.i./ T p p o . n                                                                                                                                                                                                                                                                                                                                                                                                                                               ",
"                                                                                                                                                                                                                                                                                                                                                                                                                                              = . $ Y p.+X=X#.e m           0 X u =.-.R.T.a.X 0                                         > @ I.~.(.A.Y.D X <           $ @ F ).j.' k X . l                                                                                                                                                                                                                                                                                                                                                                                                                                               ",
"                                                                                                                                                                                                                                                                                                                                                                                                                                              = X $ u ,.kXkX#.@ h           < $ D ;.-.R.R.#.@ 0                                         0 @ a.XX(.~.~.G @ 9           > X Y ).+X%.U % X l                                                                                                                                                                                                                                                                                                                                                                                                                                               ",
"                                                                                                                                                                                                                                                                                                                                                                                                                                              = X % ! #.+XhX%.% n           h X D 2.| N.a.#.$                                           l $ g.U.!.oX/.H X &           o X W +X+X,.i % X v                                                                                                                                                                                                                                                                                                                                                                                                                                               ",
"                                                                                                                                                                                                                                                                                                                                                                                                                                        l.. . j R @.a.i.4 %                 s X G /.$XS 8                           -X-X                      8 C !.$XG @ -               l.@ # g._.a.Q i - .                                                                                                                                                                                                                                                                                                                                                                                                                                           ",
"                                                                                                                                                                                                                                                                                                                                                                                                                                        l.. . z Y Q _.g.@ @                 0 @ G oX$XZ 8                           -X-X                      4 5 /.$XH X o               +XX # g._.a. .Y X .                                                                                                                                                                                                                                                                                                                                                                                                                                           ",
"                                                                                                                                                                                                                                                                                                                                                                                                                                        l.. o z Y ~ ).a.X X                 : X G $XoXS A                       zXcXNX                        w 5 ~.#XF o O                 X X g.#XI.<.T X .                                                                                                                                                                                                                                                                                                                                                                                                                                           ",
"                                                                                                                                                                                                                                                                                                                                                                                                                                        l.. . x E ~ ).i.@ X                 o @ [ /.oXS e                     vX#X%X                          7 5 ~.#XD . O                 X @ T.#XI.:.F $ .                                                                                                                                                                                                                                                                                                                                                                                                                                           ",
"                                                                                                                                                                                                                                                                                                                                                                                                                                        h.. X Y G / j.t.O +                 # 3 -.~./.S A                     6X:X:X                          8 5 Y./.G # $                 O o ).=X7.-.G % $ gX                                                                                                                                                                                                                                                                                                                                                                                                                                        ",
"                                                                                                                                                                                                                                                                                                                                                                                                                                    & o V M W a.I.a.@ q                 o X T.R.R././.H =.                    NX>X:X                          =.G 8.I.I.E.k.o +                 R # #X#X=X4.w.g . o                                                                                                                                                                                                                                                                                                                                                                                                                                     ",
"                                                                                                                                                                                                                                                                                                                                                                                                                                    = . f W %.p.I.a.@ 0                 o @ g.I.R.W.Y.G G                     NX}.:X                          ,./ -.1.6.g.k.. .                 R # W.*X#X:.) p + =                                                                                                                                                                                                                                                                                                                                                                                                                                     ",
"                                                                                                                                                                                                                                                                                                                                                                                                                                    o o y @.#.E.&Xj.X 0                 . % 7.U.J.L G                         NX<X XuX                            D F <.g.p.$ .                 x @ W.=X#X=.#.i . .                                                                                                                                                                                                                                                                                                                                                                                                                                     ",
"                                                                                                                                                                                                                                                                                                                                                                                                                                    : . 7 ..=.W.=X).X 0                 . @ Q.S.N.4 3                         uX X{. X>X                          # @ =.I.a.X X                 v @ +X=X&X4.^ e . :                                                                                                                                                                                                                                                                                                                                                                                                                                     ",
"                                                                                                                                                                                                                                                                                                                                                                                                                                    & X u G G E.+X`..                   . # S.~.N.4 %                         qX X{. X<X                          o @ ^ N.7.# X                   % j.&X@XG G D . .                                                                                                                                                                                                                                                                                                                                                                                                                                     ",
"                                                                                                                                                                                                                                                                                                                                                                                                                                > r c $.a.#X*X4 @                       . @ $X4XI.3 @                       7X<XwX|.|.<X                          . % =.Q.I.@ X                       @ 8 &X/.-.< g + .                                                                                                                                                                                                                                                                                                                                                                                                                                 ",
"                                                                                                                                                                                                                                                                                                                                                                                                                                o o M X.a.zX*X4 @                       X @ %X6XI.4 X                     OXfX<X|..X|.<X                          o @ 5.%X#X@ X                       @ 7 #X$X2.> g . .                                                                                                                                                                                                                                                                                                                                                                                                                                 ",
"                                                                                                                                                                                                                                                                                                                                                                                                                                . $ ( &.5.zXzX4 X                       X # %X6XI.# $                     >X<X,XwXwX|.<XiX                        . @ 5.4X#X# X                       X 7 &X#X8.> z . .                                                                                                                                                                                                                                                                                                                                                                                                                                 ",
"                                                                                                                                                                                                                                                                                                                                                                                                                                o o @.#.I.zXzX7 $                       X 3 2X6XQ.@ .                     <X<XwXeXeXwXeX<XOX%X                    X @ a.2X%X# @                       . % &X=X2.7 x X .                                                                                                                                                                                                                                                                                                                                                                                                                                 ",
"                                                                                                                                                                                                                                                                                                                                                                                                                                o X #. .J.zXzX7 o                       @ 4 2X5XT.@ o                     <X<XwXeXeXeXeX<X}.>X                    X @ a.2X$X4 #                       o $ +X#X7.7 Y X .                                                                                                                                                                                                                                                                                                                                                                                                                                 ",
"                                                                                                                                                                                                                                                                                                                                                                                                                          s < n Y F 4.5.-.G #.                      M p.~ G ~./.>.X .                 AXsXrXwXyXaXVXpXwXwX<X<X,XbX                X @ :.XX/.-.{ h.s.                      i D / >.4.u p t 0 g                                                                                                                                                                                                                                                                                                                                                                                                                           ",
"                                                                                                                                                                                                                                                                                                                                                                                                                          . + s ..p.#X_.=.# @                     . . Q T.Y.A.S. .X .                 dXrXwXwXyXVXZXaXeXwX|.|.|.>X                X @ <.Y.H./.oX$.$ o                     X X ~ W.#X<.#.6 . .                                                                                                                                                                                                                                                                                                                                                                                                                           ",
"                                                                                                                                                                                                                                                                                                                                                                                                                          . . s 4.=.*X*X5.@ X                     . o Q U./.B.U.,.X .               <X<XrXeXeXaXFXGXCXaXwX|.|.|.<X                o X g.XX^.oXoX,.@ &                     . X @././.-...6 o .                                                                                                                                                                                                                                                                                                                                                                                                                           ",
"                                                                                                                                                                                                                                                                                                                                                                                                                          . . < / >.*X2Xa.@ o                     o $ T S.~.A.W.,.X .             }.|.|.wXrXrXBXGXGXFXVXrX|.|.|. X                : o <.XX;X:X:X,.@ -                     . o ( /./.1. .6 X .                                                                                                                                                                                                                                                                                                                                                                                                                           ",
"                                                                                                                                                                                                                                                                                                                                                                                                                          . . s ..=.XX%X5.u                       . X ..A.~.U.W.p.9 :           }. X|..XwXeXyXCXGXKXFXZXeX|.|.|. X                h t / Y.OX[.:Xp.@ &                     : 0 O.!.~.7.<.u & .                                                                                                                                                                                                                                                                                                                                                                                                                           ",
"                                                                                                                                                                                                                                                                                                                                                                                                                      + O X.#.I./.#X% @                           . X 4.1XxX@ o                 {.{.|.wXrXCXGXLXIXIXLXKXCXyXeX X XdX                    o U $X:Xh.$ *                           @ 4 #X$XR.4.O.o .                                                                                                                                                                                                                                                                                                                                                                                                                       ",
"                                                                                                                                                                                                                                                                                                                                                                                                                      . = O. .a.XX'.% @                           + X g.4X2X7 .                 {.{.|.wXeXVXGXLXLXIXLXKXCXaXeX|. XtX                    . k 4X9Xl.X >                           X @ $X$X6.<.r.o .                                                                                                                                                                                                                                                                                                                                                                                                                       ",
"                                                                                                                                                                                                                                                                                                                                                                                                                      . & &. .a.#X#X@ X                           o @ 7.3X4X4 .                 {.{.|..XeXBXFXKXLXIXLXKXCXaXeX X XtX                    . u 3X3Xj.X *                           X # *X$XI.<.&.$ o                                                                                                                                                                                                                                                                                                                                                                                                                       ",
"                                                                                                                                                                                                                                                                                                                                                                                                                      . & @. .J.#X&X@ .                           $ @ S.5X4X4 .                 }.}.|.wXeXaXZXGXLXLXLXKXCXBXyX|. X                      . u 5X3Xg.@ @                           . @ =X&XI.=.~ 6 .                                                                                                                                                                                                                                                                                                                                                                                                                       ",
"                                                                                                                                                                                                                                                                                                                                                                                                                    y.X % @.=.7.&X&XX o                           4 3 N.3XxX4 o                   }.<XwXwXaXBXFXKXLXLXKXCXiXyX X<X                      o u 5X3XI.3 #                           = 6 jX&XJ.[ <.7 o h.                                                                                                                                                                                                                                                                                                                                                                                                                    ",
"                                                                                                                                                                                                                                                                                                                                                                                                                  . = v R +X=XG @ X                           . ; E./.oX5X2X7 .                     tX<X<XpXaXCXGXGXGXFXAXiXyX<X:X                      o u 1X:X~.I.j.X .                           % 4 [ W.W.! p f 1                                                                                                                                                                                                                                                                                                                                                                                                                   ",
"                                                                                                                                                                                                                                                                                                                                                                                                                . o - Y i.hXhXG X @                           . % a.~.(.1X4Xu .                       7X<XyXaXBXFXHXGXFXBXyXtX<X7X                      . w XXOX!./.).$ .                           6 X =.$X#X/ j 1 . .                                                                                                                                                                                                                                                                                                                                                                                                                 ",
"                                                                                                                                                                                                                                                                                                                                                                                                                X X 7 Y :.hXzXH X .                           o 4 N.A.H.3X%X7 .                         uXiXdX>XOXOXAXAXdXdXtX8X                        X 7 N.8.m./._.X .                           o @ ^ #X#XG p d . .                                                                                                                                                                                                                                                                                                                                                                                                                 ",
"                                                                                                                                                                                                                                                                                                                                                                                                                o $ 8 / >.kXzXF X .                           o 4 I.~.^.$X#X% X                           >X>XH.H H NXAXdX>X>X                          o 6 a.N.M.oX_.@ .                           : X ~ &X#XG i y . o                                                                                                                                                                                                                                                                                                                                                                                                                 ",
"                                                                                                                                                                                                                                                                                                                                                                                                                o X T  .4.hXkXF . O                           . 4 /.;X(.XXW.$ o                           4X%XS.S J NXNX6X7X                            o $ j.a.M.oX'.@ .                           : . E _.R.G e q o .                                                                                                                                                                                                                                                                                                                                                                                                                 ",
"                                                                                                                                                                                                                                                                                                                                                                                                            < l %.@.g.T.T.5 %                                 o 5 oX;XA.8 4                                   zXH A XXS.                                    % # P /.#X# X                               `.# 5 5.T.g.( b o o                                                                                                                                                                                                                                                                                                                                                                                                             ",
"                                                                                                                                                                                                                                                                                                                                                                                                            . 9 %.~ &X&X_.@ @                                 X 5 /.;XB.4 4                                     H H Y.8.                                    X X L $X/.# @                               gXX @ T._.a.Q x o . y.                                                                                                                                                                                                                                                                                                                                                                                                          ",
"                                                                                                                                                                                                                                                                                                                                                                                                            . 9 ,. .'.=X@X# X                               e.p I oX;XS.% $                       LXKXLXKXLX  kXA A I.>.                                    o . L $XXXC 8 '                             gXX @ a._.I...W o . 0.                                                                                                                                                                                                                                                                                                                                                                                                          ",
"                                                                                                                                                                                                                                                                                                                                                                                                            . $ #.=.#X*XW.@ o                           . X k p.m.oX1X7.% o                     GXKXHXHXGXKXKX-XD e Q...JXLXLXIXLXLX                        . + L $X1Xm.7.u X +                         UX. $ a.Q.6...E o . 0.                                                                                                                                                                                                                                                                                                                                                                                                          ",
"                                                                                                                                                                                                                                                                                                                                                                                                          l.. ; p.^ %X*X#X@ o                           . . p p.b.oXoXN.o o                     HXHXFXFXGXGXGX-Xe e 9.>.JXKXKXKXKXKXKX                      . + [ #XoXm.N.A X +                           + . p.I.7.G T $ . q.                                                                                                                                                                                                                                                                                                                                                                                                          ",
"                                                                                                                                                                                                                                                                                                                                                                                                      c f c ( $._.&XQ.G >.                              . X p p.b.oX1X8.$ o                     NXNXCXFXGXGXKXPXHXHXHXPXKXKXGXKXGXHXSXDX                    + . [ $X1Xm.N.A X +                               Y 5 L R.).v c c < 1                                                                                                                                                                                                                                                                                                                                                                                                       ",
"                                                                                                                                                                                                                                                                                                                                                                                                      + . b 4.2.%XzX~ $ g                               o X i p.v.oXoX5.% o                     uXuXAXFXFXGXGXGXGXGXGXGXGXGXGXGXFXFXNXJX                    . . I oX;XB.N.D X +                               0 X ~ #X#X=...Q X o                                                                                                                                                                                                                                                                                                                                                                                                       ",
"                                                                                                                                                                                                                                                                                                                                                                                                    l.+ . z >.7.%X*X] X h                               X X p a.c.oX$X>.$ o                     uXuXAXCXFXFXFXFXGXGXGXGXGXFXFXFXFXAXuXJX                    . . | oX;XB.N.A X +                               t @ T _.#X=.D ~ 6 o l.                                                                                                                                                                                                                                                                                                                                                                                                    ",
"                                                                                                                                                                                                                                                                                                                                                                                                  . + . o k 4.6.*X*XQ $ s                               . @ p i.| /.#X..o .                     uXuXNXBXCXZXZXZXFXFXHXZXFXZXZXZXCXNX7XcX                    o . -.$X$XB.B.G @ .                               0 @ T g.5.I.I.p.E M o .                                                                                                                                                                                                                                                                                                                                                                                                   ",
"                                                                                                                                                                                                                                                                                                                                                                                                  . . & y E <.5.#X&Xk $ N                               X # D 5.8.Q.E.&.o .                     uXdXsXBXVXVXZXZXZXZXZXZXZXZXZXZXCXuX7X6X                    = =  .'.$XU.U.L @ $                               l * k T / E.&Xa.! M . o                                                                                                                                                                                                                                                                                                                                                                                                   ",
"                                                                                                                                                                                                                                                                                                                                                                                                  . . $ i Q <.4.# @ l.                              . > ) #.W.#X_.# @ l.                        uXuXBXVXVXVXVXZXZXZXZXZXZXZXVXVXCXiX7X6X                        +X# 3 1XbX2X4.X.o +                                 @ @ ).+X,.F v o .                                                                                                                                                                                                                                                                                                                                                                                                   ",
"                                                                                                                                                                                                                                                                                                                                                                                                  . . $ i ..T.p.X X                                 . 0 e.:./.$X_.@ X                           iXuXBXBXBXVXVXVXVXVXVXVXVXVXVXBXBXiX7X6X                          @ 3 2XxX%X=.@.o .                                 o $ %.E.p.F ( o .                                                                                                                                                                                                                                                                                                                                                                                                   ",
"                                                                                                                                                                                                                                                                                                                                                                                                u.< - i / I.jXj.X X                                 . 9 @.=./.oX_.@ X                           uXuXiXuXiXBXVXaXBXBXVXVXBXVXBXiXtX8X7X6X                          X # *X2X1X-.~ X .                                   s.e.E.4.T ( y 0 o.                                                                                                                                                                                                                                                                                                                                                                                                ",
"                                                                                                                                                                                                                                                                                                                                                                                            1 o < N X.j.a._.hXj.X .                                 . q #.-.oX;X+X@ .                           NXuX0X7XqXBXVXsXsXsXVXVXBXVXaXdX<X<X<X6X                          X # &X2X1X-./ X .                                     e.@ p ..w.( O.0 . .                                                                                                                                                                                                                                                                                                                                                                                             ",
"                                                                                                                                                                                                                                                                                                                                                                                            < . 1 0.Q T.a.T.k.$.O :                                 o 6 <.;.oX;X+X@ .                           NX0X0XqX7XBXBXsXsXsXVXBXBXBXaXdX<X<X<X6X                          . % &X2X1X} ^ @ .                                     w.X T a.h.X.( 0 . .                                                                                                                                                                                                                                                                                                                                                                                             ",
"                                                                                                                                                                                                                                                                                                                                                                                            r . : 0.@.T.a.4.@ j                                     . 7 >.| ;X;X`.@ X                           NXuX0XqXqXBXBXaXaXaXaXaXaXVXaX<X,X<X8X5X                          + @ _.1X1X;.G @ X                                     0.X E ).j.Q ( 9 o .                                                                                                                                                                                                                                                                                                                                                                                             ",
"                                                                                                                                                                                                                                                                                                                                                                                            1 o = e.@.E.T.,.X l                                     @ 8 ;.;.;X;X+X@ X                           NXNXuXqXqXaXaXaXaXaXpXpXpXaXaXrX<X<X8X6X                          . X #X2X$X;.[ @ X                                     q.o R E.).@.X.0 . .                                                                                                                                                                                                                                                                                                                                                                                             ",
"                                                                                                                                                                                                                                                                                                                                                                                            : . - $.Q F D                                         l...>.U.A.~.!.a.@ X                           OXOX7XuXtXaXaXpXpXpXpXpXyXyXyX<X8X>X>X5X                          o @ 5.K.U.N.N./ U s.                                        b u ) x 0 o . h.                                                                                                                                                                                                                                                                                                                                                                                          ",
"                                                                                                                                                                                                                                                                                                                                                                                        . 2 M c i R Y $ @                                     + $ E R./.oXoXA.| ~ @ X                           A.m.:XiXtXaXaXpXpXpXpXpXrXrXrX<X8X}.M.S.                          . X F [ L.!.R._.).9 . :                                     . @ p.e.x t < . .                                                                                                                                                                                                                                                                                                                                                                                         ",
"                                                                                                                                                                                                                                                                                                                                                                                      h.. . M o.F p.%.$ o                                     . X D R./.(.(.A.;.T @ $                           A.m.:XuXqXtXpXpXpXpXpXpXrX<X,X,X8X:XM.Y.                          o @ D L N.~.U.T.).q . :                                     . # p.s.k 0 > . +                                                                                                                                                                                                                                                                                                                                                                                         ",
"                                                                                                                                                                                                                                                                                                                                                                                  . . . . O M m ,.SXmX; .                                     . @ u U.~.D.A.B.;.E # . . O + + O . . . . . . X X m.c.;X0XqXtXtXyXpXpXyXpXrX,X,X,XqX:XM.N.% . + . . o o o o . + + O . @ T L N.!.U.8.a.w . <                                     . # mXkXj y d o . O + &                                                                                                                                                                                                                                                                                                                                                                                   ",
"                                                                                                                                                                                                                                                                                                                                                                                  . . . . . N N  .SXSXo o                                     + X 8 U.H.D.(.U.;.] @ o O + + + . . . . . . . X $ b.m.;XqXqXtX<XyXyXpXpXpXrX,X,X,XqX:Xm.8.X . + + . o X X X . . . . X X ~ { N.!.U.-.a.7 $ :                                     . # mXjXx t < . . . . .                                                                                                                                                                                                                                                                                                                                                                                   ",
"                                                                                                                                                                                                                                                                                                                                                                                  o . 6 w D =.=.$.+XjX                                      l.o . 6 W $.@.@.Y w A 1.;.| | L L L L L L L L L L I b.m.;XqX8XtX,XtXtXtXtXtX8X8X,X,X,X}.M.N.I L P P P P K K K K I K L L =.u w z n B l l > X &                                     + o e.@.Y D D w w 6 6 -                                                                                                                                                                                                                                                                                                                                                                                   ",
"                                                                                                                                                                                                                                                                                                                                                                              . . . X i a.5.6.I.e.@ X                 o o o o X . . . . X X $ X X X @ X @ @ @ @ 5 xXnXxX5X5X9X5X5X5X5X5X5X5X3X3Xm.n.:X8X,XtX,XrX,X,X,X,X,X,X,X,X,X[.m.B.1X5X5X5X5X9X5X5X5X5X5X9X5XxXMX# @ @ @ X X @ @ @ X $ X X o X $ X o o . . o M           . . $ @  .g.a.a.d.@.@.W X .                                                                                                                                                                                                                                                                                                                                                                               ",
"                                                                                                                                                                                                                                                                                                                                                                            s.X X % @ 8 >.8.8.N.$.X X               h.$ @ @ @ X @ @ @ @ @ X X @ # @ # # # # # # C bXnXnXnXbXnX0X0X0X0X9X9X9X9X7Xn.v.:X8X,XtX,X,X,X,X,X,X,X,X,X,X8X:Xn.M.9X9X9X9X9X9X0X0X9X9X9X9XbXbXxX3 3 # @ # # # 3 3 3 # 3 # # @ % @ @ @ @ $ X )           . . X @  .7.7.7.J.^ / @.X .                                                                                                                                                                                                                                                                                                                                                                               ",
"                                                                                                                                                                                                                                                                                                                                                                          < ( e.' u D R.4XxX2X4Xh.X . 0 0 0 0 0 r 6 &.jX&X_.#X#XW.W.@X'.#X&X#XR.R.J.a.a.P.P.P.P.B.;X^.^.G.^.G.G.G.G.F.D.C.Z.Z.C.v.v.:X8X,X,X,X,X,X,X,X,X,X,X,X,X8X].x.x.B.D.D.D.G.F.H.H.H.H.!.!.D.H.~.;.;.-.1.3.3.1.1.{ ;.$X'.'.'.W.W.W.W.W._._._.8 6 6 > > - o . X @ E.4XxXxXxXJ.^ #.@.( l :                                                                                                                                                                                                                                                                                                                                                                           ",
"                                                                                                                                                                                                                                                                                                                                                                          X w.j.<.D H Y.xX5X9XbXE.@ X X X o . o X @ 4.MX2XxX9XbX9X9X5XbX5X5X3X/./.U.B.B.L.L.L.U.B.B.Z.D.D.F.D.Z.D.D.M.M.M.M.M.m.v.v.:X8X,X,X,X,X,X,X,X,X,X,X,X<X8X[.K P v.C.C.C.C.n.m.M.m.B.B.B.B.B.B.B.N.N.L.N.N.N.B.B.A.nX5XbX9X9X5X5X5XxXxXzXzX/ @ @ X X o . O @ X W.cX5X5X5XB.{ ^ #.s.j . +                                                                                                                                                                                                                                                                                                                                                                         ",
"                                                                                                                                                                                                                                                                                                                                                                          o i / [ 2.;.B.!.A.5X5Xg.@ @ E e.p.s.i.i.4.;.U.!.^.^.].G.].G.].].^.^.D.Z.M.M.B.M.M.M.B.B.Z.B.M.Z.M.C.C.M.M.M.M.B.B.B.B.c.c.:XqX8X8X8X8X,X8X8X8X8X8X8X8XqX:XK K M.C.C.C.C.c.c.b.b.b.m.b.n.n.M.M.B.B.m.B.B.B.M.M.M.^.^.^.F.F.F.G.F.!.!.B.N.2.3.3.4.4.,.,.q.@ % E.cX5X!.(.b.V.1.^ e.t o .                                                                                                                                                                                                                                                                                                                                                                         ",
"                                                                                                                                                                                                                                                                                                                                                                          X 7 w A U.U.b.S S 2XxXl.X X +XvXzXvXzXxXnXm.J K M.M.C.n.C.v.v.v.n.v.n.M.M.C.n.c.c.n.n.n.n.n.M.Z.n.M.C.M.M.M.B.A.U.U.U.b.c.3XNXnX0XqXqXqX0X0X0X0X0X0X0X0X%X;.| D.M.C.Z.C.b.b.b.b.b.b.b.n.n.M.n.B.n.b.b.Z.Z.M.Z.M.n.n.c.v.v.v.n.v.c.c.J S ~.xXxXxXxX2XxXlX@ @ T.nX2XJ J b.N.2./ i - . .                                                                                                                                                                                                                                                                                                                                                                         ",
"                                                                                                                                                                                                                                                                                                                                                                          X 7 8 A U.U.b.L L /.$Xt.X @ _.*XMX2XxX5X5XB.b.c.M.M.M.C.n.M.M.v.n.v.C.C.C.C.M.n.n.n.n.C.n.M.Z.C.Z.C.C.C.C.M.B.A.U.U.U.G H #XxX4X%X$XXXXXXXXX$X$X$X%X%X*XY.G -.A.A.D.Z.Z.n.m.B.b.m.M.n.n.M.Z.Z.D.Z.Z.M.D.Z.Z.Z.Z.b.b.b.c.c.c.n.c.n.n.I K (.3X5X3X3X5X3XjX# X p.&XQ.L I b.B.N.D i - . X                                                                                                                                                                                                                                                                                                                                                                         ",
"                                                                                                                                                                                                                                                                                                                                                                          o q 8 A L.U.L.;.-.3 @ X X @ <.>.-.2.V.b.b.B.B.B.x.P K P K P K K J J !.^.F.^.F.F.^.F.].G.G.G.G.G.G.F.F.F.G.F.!.A.U.~.;.@ @ % % # @ @ @ @ @ X @ @ # # # # # # 3 2.;.Z.D.F.D.D.D.D.D.D.Z.D.D.F.^.F.F.F.F.^.F.^.(.B.x.P x.P P P P P P P M.M.b.b.b.b.V.b.b.] @ @ @ @ # L } V.L.6.F i - . .                                                                                                                                                                                                                                                                                                                                                                         ",
"                                                                                                                                                                                                                                                                                                                                                                          . * 8 A K.L.K.} ] @ X X @ @ i.a.6.3.3.;.V.V.L.L.P P P P P P I I J K !.^.^.^.^.G.G.G.F.G.G.G.G.G.G.G.F.F.G.F.D.!.~.U.2.@ # % # @ @ @ X X X X @ X @ @ @ 3 % # # 1.N.B.D.F.D.D.D.D.D.Z.Z.Z.D.F.^.F.F.G.G.F.^.^.(.!.x.P P P P P P P P P N.N.V.2.N.2.3.1.3.~ # X X X # / [ V.K.5.D i - . .                                                                                                                                                                                                                                                                                                                                                                         ",
"                                                                                                                                                                                                                                                                                                                                                                          . - 8 C K.K.K.} ] X X w T.j.F 8 u w w w w ~ T.K.;.} ;.;.;.2.;.;.P b.B.D.Z.Z.M.M.C.C.D.D.F.F.F.D.D.D.D.D.D.!.~.~.K.A 8 6.I.I.I.I.J.6.7.1.5.4.1.1.5.6.a.P.a.T.I.A H B.^.F.F.F.D.D.D.D.Z.!.!.!.Z.C.C.C.C.Z.Z.D.D.!.b.b.b.b.V.V.2.V.2.3.K.T.:.5 8 4 7 7 3 8 <.p.y . X ~ { 6.J.5.D p - . .                                                                                                                                                                                                                                                                                                                                                                         ",
"                                                                                                                                                                                                                                                                                                                                                                        1 . - 7 8 J.K.J.] ' X . @.mXmX8 # # @ @ X X ) +X_._.'.'.'.'.'.'.'./.R.U.B.m.m.b.n.n.n.M.D.D.!.!.!.!.!.!.!.!.!.~.R.6.4 4 NXDXDXDXnXnXnXNXnXnXcXcXnXnXnXDXDXDXDXDX5 3 V.!.^.^.!.!.!.D.D.D.!.!.!.Z.M.C.C.M.n.b.!.~.~./././.R.R.R.R.R.R.T.).j.D @ @ @ X @ @ G vXlX_ . @ ] <.6.J.5.D j > . .                                                                                                                                                                                                                                                                                                                                                                         ",
"                                                                                                                                                                                                                                                                                                                                                                        1 . & 8 C N.K.N.^ ) X . ( mXmXD 4 4 4 4 3 7 U j.d.d.a.a.d.d.a.a.a.a.f.>.-.;.2.N.N.V.V.;.M.B.U.L.L.L.L.B.B.B.U.U.R.f.# 4 0XNXNXNXnXnXbX5X5X5X5X5X9XbXbXbXbXNXDXDX5 # 3.'.!.!.U.L.L.L.B.B.B.B.B.B.b.n.n.b.b.N.N.6.3.f.3.3.i.i.p.i.i.p.i.i.a.p 7 4 7 4 3 # G jXjXo.o X ~ { N.J.a.D t - . .                                                                                                                                                                                                                                                                                                                                                                         ",
"                                                                                                                                                                                                                                                                                                                                                                        2 + > 7 C N.N.2.{ E X . - e.i.hXvXvXzXzXzXkXD @ X @ # @ @ @ @ @ @ # # # # 8 a.f.3.6.A C C Z C C C C C C Z Z Z A D D @ 4 A.H.| J J c.c.K S S J I K K K J J K Y.Q.3 # 8 A Z Z Z C 5 5 5 5 C C Z Z S P b.N.2.3.3 # # # # # @ @ @ @ @ @ @ @ @ ..hXkXhX*X&X'.E.p.O.< . X #.-.N.K.5.8 * o . .                                                                                                                                                                                                                                                                                                                                                                         ",
"                                                                                                                                                                                                                                                                                                                                                                        V . > 7 C 2.N.2.[ T X X 6 ' / zXxXxXxXxXzXzXT @ @ @ # @ @ # # # # # @ # # 4 5.5.5.a.C 8 8 8 8 8 w 8 8 8 8 C A D p q o & A.Y.L S S ;.;.J S S L L L L L S J I Y.I.@ # w D A C C 8 w w w w 8 8 8 C C [ 1.6.f.] 3 # @ @ @ X @ @ @ @ X @ @ @ # 5.zXvXzXzX*XW.'.%.) t . X ^ -.N.N.3.4 @ $ . .                                                                                                                                                                                                                                                                                                                                                                         ",
"                                                                                                                                                                                                                                                                                                                                                                        n h l 8 A 2.N.;.-.T X X 4 ] ^ I.U.U.U.R.W._.a.,.#.,.,.a.g.g.j.j.T.T.j.T.T.:.8 4 5 5 4 # @ @ @ @ @ @ @ # # # # # @ o o O A.U.| L P N.V.;.L L ;.2.2.;.2.L K P U.E.@ X % # 3 3 # @ @ @ X X @ @ # 3 3 3 4 4 3 # ' d.s.s.s.p.p.p.p.p.e.$.] ^  .a.Q.W.Y.S.N.2.a.%.e.9 o @ / } V.N.f.8 - 0 < <                                                                                                                                                                                                                                                                                                                                                                         ",
"                                                                                                                                                                                                                                                                                                                                                                    + . u.q.X.u A N.K.3.{ E o . > ( ( ) E E Q Q Q / T._.W././.%X6X0X6X6X6XbXcXcXcX#X@ # % X X X + . . X . . X X X @ o X . . + O U.U.;.P | V.N.;.{ { f.K.2.;.2.L L ;.U.I.# $ X X X X X X X X . + . . . X X X X X @ @ I.xX4XbX3X5X3X5X5XxX/.U.Y.I.I.4.~ ) w.$.Y a W X.o.0 . X T ^ N.K.6.8 w R w.w.. .                                                                                                                                                                                                                                                                                                                                                                     ",
"                                                                                                                                                                                                                                                                                                                                                                    . . u.q.O.w A 6.N.3.{ ~ o o 9 _ ) ) E E E Q Q ~ g._.W.W.W.#XcXcXcX6XcXcXcXNXJX#X4 # @ % $ X @ X @ @ X @ $ @ @ @ % % % - . = A.U.;.} ;.N.N.;.{ { 3.K.V.V.2.[ ;.;.U.T.# X 6 $ % % $ @ @ @ $ & $ o $ $ $ @ @ @ @ 3 I.zX4X4X4X3X2X2X4X2X#XU.I.I.T.,.R W $.$.E a R ( M 1 . X T { 6.K.a.8 7 R e.e.o .                                                                                                                                                                                                                                                                                                                                                                     ",
"                                                                                                                                                                                                                                                                                                                                                                    . O u.0.$.p A 2.N.3.^ ~ o . * v v x i i i i i p Y ~ /  .=.=.1.=.>.>.;.1.;.;.1.I.@X_.@X_.hXvXzXzXzXzXzXcXcXcXJXDXSXvXSX=X@ % U.U.2.} ;.V.N.-.{ G [ [ -.2.N.>.[ } R.I.@ X jXmXSXJXJXJXcXcXvXzXzXzXzXzXzX*X=XhXhX*XQ.1.;.8.-.-.>.>.4.a.4.:.:.#.&.) x k v k i a R W m : . X T / 6.U.J.8 7 R w.w.. .                                                                                                                                                                                                                                                                                                                                                                     ",
"                                                                                                                                                                                                                                                                                                                                                                    . + y.t.( D A 6.N.2.^ E X . - W R R k k Y Y Y Y Y Y ! ~  .~ ,.,.,.<.^ =.<.=.=.7.#XW.#XW.hXvX6X6X6X6X6XNXDXDXNXDXDXcXDXhX@ % N.K.;.{ { 6.N.8.-.L [ [ ;.3.f.} >.{ P.a.@ $ =XzXDXDXDXDXNXNXNX6X6XcXcXcXxX*X#X@X#X=XI./ =.=.G G X.Q X.@.~ @.@.Q ) R k k k i i i ( ( c : . X T / 1.J.a.w u W w.u.O .                                                                                                                                                                                                                                                                                                                                                                     ",
"                                                                                                                                                                                                                                                                                                                                                                    . O u.q.O.p D 6.N.2.{ E X . * v R Y Y Y R W R x R R E i Y T i R @.@.%.#.^ #.^ 4.I.I.7.6.R.W.~.~.Y.Y.~.XX%X%X%X$X*X=X_.d.# @ N.K.} / [ 1.7.;.[ [ -.-.;.6.f.} / / K.a.@ X p.T.#X#X$XoXoXoXoX/././.~././.I.7.7.g.g.4.~ T ! ~ ~ o.o.O.( ) R R X.( ( ( R v x Y U W b c : . X T / 6.J.a.U Y R m M . .                                                                                                                                                                                                                                                                                                                                                                     ",
"                                                                                                                                                                                                                                                                                                                                                                    . . + . p i D 3.2.1.^ E X . % v R W R Q X.$.$.O.$.O.W ; % 4 7 % ' ) ' E Q Q ~ ^ / / G G G H H H H H G | -.| -.G >./ D w @ @ N.J.} / / >.1.[ / [ -.[ >.5.3.} [ / P.a.@ X 7 8 G G -.| L | | -.-.L G G G H D D D T @.Q E ) W Y M v $ $ ; 7 - +.( ( ( W x k k k R b c : . X Y T 3.f.a.F k 9 o X . .                                                                                                                                                                                                                                                                                                                                                                     ",
"                                                                                                                                                                                                                                                                                                                                                                        . o 9 i D 1.1.>.^ E X . $ v v R R Q X.X.O.O.$.O.W p 7 7 % 7 T Q Q ' @.Q Q E Q Y T D F D D D F G G G G G G / ..T Y q X o 1.6.{ [ [ >.>.^ / / ^ ^ 1.6.1.L / / a.i.X X 6 u T / ../ / / ^ ] ^ / / / T F p u q Q ) R R W ) ) X.R u u e u q W ) R W R x R R j R R n : . X U F 1.6.a.T Y 9 X . 1 +                                                                                                                                                                                                                                                                                                                                                                     ",
"                                                                                                                                                                                                                                                                                                                                                                        . . p p D 1.1.:.~ R X . = v v R R W ) ) ) X.j y x j.j.).hXvXD 4 i @.@.Q ) ( ) ' $.e.Q Y T T T ~ ! ! ~ ~ ~ T #.@.) p X . 6.J.;.{ [ :.=.F 5 5 5 5 / 1.7.-.-.[ a.i.X . 9 k Y F i i D D U k U k p p i k R W W ( W X.X.( ( t 4 u =X-XhXj.g.R k R X.X.x j v v v b n : . X Y T <.3.f.F U 9 o o                                                                                                                                                                                                                                                                                                                                                                         ",
"                                                                                                                                                                                                                                                                                                                                                                        O . t p D <.>.{ ~ k X . & v z ( b x X.) ) W p 6 u E.j.+XSXmXu % u $.X.( ( W W X.%.%.) U T E Q ~ ' ' ~ ~ ~ ~ #.@.@.p . X 7.J.2.-.[ <.>.D 3 5 4 4 ^ 5.2.;.1.1.a.a.X . 9 x W R a a F i x x x b x a a Y X.X.W W W W ) ) $.q % 8 =X*XkXT.p.k 6 p X.X.x R v R b v n : . . k T :.a.4.T Y 0 . .                                                                                                                                                                                                                                                                                                                                                                         ",
"                                                                                                                                                                                                                                                                                                                                                                        O . q p D :.>.^ ~ U X . = m v b b x R W ) X.p % 7 j.g.j.+X+X7 % u $.O.( ( ( ( X.@.@.Q Q ' ' @.@.@.@.@.#.,.#.#.' ) t X X 7.N.;.;.=.F F / >.>.>.5.<.G G ;.-.>.J.a.X . > b R Q x Y Y F R W R R b b x Y W X.W R R R W W ` 9 % 8 +X=X=Xj.p.i 6 p R x x W v v b ( n : . . x T =.5.<.T R 0 X .                                                                                                                                                                                                                                                                                                                                                                         ",
"                                                                                                                                                                                                                                                                                                                                                                        2 . 0 p D :.=./ ~ x . . = c c v v v x R x W p % q p.p.,.%.p.; % y ) X.W R x R Q Q @.i.g.j.j.j.j.j.j.j.j.p.#.&.' ` q . X 7.J.2.;.{ 8 8 a.DXDXDXDXa.3 5 { [ -.J.a.X . 9 R @.%.%.%.,.#.e.e.e.%.%.%.&.*.*.@.W W R R R R R 6 $ ; &.&.&.X.Q k - t b b +.O.b j b m g 1 + . R T / :.#.U v 9 . .                                                                                                                                                                                                                                                                                                                                                                         ",
"                                                                                                                                                                                                                                                                                                                                                                        : . 0 p D ^ ^ / ' R . . o < 1 v v W R R W ) x u p i F F x R y 9 y W ( R W R R E Q @.i.a.k.k.k.k.d.d.k.g.,.] &.' W t . X 5.J.2.} { 7 7 a.vXJXJXSX4.% 8 ] [ -.I.a.X . 9 W Q &.%.@.^ ~ $.$.%.&.&.&.@.@.Q X.Q W W R R R R 9 o 9 +.X.X.W i j x ( ( b o.X.k j z l B 2 . . W T / :.#.U x 9 . .                                                                                                                                                                                                                                                                                                                                                                         ",
"                                                                                                                                                                                                                                                                                                                                                                        1 . 9 t i /  .~ ' W . . . . . c b b R v ( ( W W k 6 6 q - 9 i j j W W x R R W E Q Q ) E F ! ! ! ! ! ! Q Q ! &.Q v t . . 7.6.2.-.:.8 4 ! g.Q.Q.W...@ 8 ] -.;.I.a.X X q W ) &.$.E U T $.e.Y Y U U Y Q Q Q Q Q ) R R b R t d c t > , 9 - W o.0.o.M ( ( z j z . . . . . v T ^ :.:.E v 9 . .                                                                                                                                                                                                                                                                                                                                                                         ",
"                                                                                                                                                                                                                                                                                                                                                                          . > t D ~ ^ ~ @.` . . . . . t v b ( ( ( ( ( o.z ; $ $ $ ; t z x W R x k x Y R Q Q Q Y F F F ! ! ! ! ! ! ! &.R z t . o 6.6.3.1.:.7 4 ! E.W.W.@X*.$ 4 ] -.1.I.a.@ o q W ) @.) Y U T ' w.E E U k R ) ' ) ( ( ) b R b W z c m 0 & ; $ $ b +.O._ _ o.( b x j o . . + . v Q ^ =.:.E v , . .                                                                                                                                                                                                                                                                                                                                                                         ",
"                                                                                                                                                                                                                                                                                                                                                                          . 9 k F / / ~ &.O.X . y.l.`.f > - > 9 > 0 d M m f d d 0 q z v v ( R W W W R R W Q Q X.] ] #.%.,.i.,.%.#.] ,.Q b j . o a.J.2.1.:.% ; R 4.4.4.k.X.$ 7 ^ } 2.I.a.@ $ q W Q &.&.@...@.&.$.@.@.@.@.@.@.) W ( ( ( b W M b v j b z j x p y b X.j > : : & - ; t gX  N . . ( Q ~ / #.E v > . .                                                                                                                                                                                                                                                                                                                                                                         ",
"                                                                                                                                                                                                                                                                                                                                                                          . 9 R F T / E %.w.o X       m X . X X . o r _ o.N M _ ` ` ( _ ( ) W Q Q W W Q W W X.%.,.,.i.p.d.d.d.a.i.%.p.@.) l . o a.I.2.-.<.4 $ q T F ! &.i $ 4 / } 2.I.P.@ $ y ( Q &.%.%.#.*.&.$.%.%.,.p.p.$.Q R ( ( ( b M ( b b Y x R b W R W W X.y . . . . . . z       + . ( ) ~ / ~ E v , . .                                                                                                                                                                                                                                                                                                                                                                         ",
"                                                                                                                                                                                                                                                                                                                                                                          = f n m c c M q.0.o .       q.2 2 o O = : d m M n c c g g g l c c c c c m ( +.( ( O.$.&.&.%.i.p.p.p.p.e.e.s.$.( b . $ J.J.5.:.@.6 9 V g n M _ j % 6 @.L ;.R.T.# X j R X.$.%.%.&.$.$.w.$.e.r.r.e.$.( W ( b b v c f c l g g l c c c n n M s o 1 1 1 < 1 q.      o . N M M M n m c < & O                                                                                                                                                                                                                                                                                                                                                                         ",
"                                                                                                                                                                                                                                                                                                                                                                            h.. . . o . o = . o                     l.o . . o . . . . . . . . . o & ( ) X.( b b R Y R R R R x k v v ( O.b z o o J.J.5.:.%.k z l X o . X 9 ) E Q -.-.I.g.# X z ( v v x k i j z v k k x v b ( X.X.( o.> . . . . . . . . . . . . . . l.                    . o . . . . . . o l.                                                                                                                                                                                                                                                                                                                                                                            ",
"                                                                                                                                                                                                                                                                                                                                                                              . . . . . . . . o                       . . o . . . . . . . . . . . & c ( v v b ( R R v v k z j j t z ( o.( c . = K.J.1.^ ~ k k q X $ X X 4 Q T ~ L -.T.j.@ X j m m v j p p j l l j j j z b b ( o.o.( = . . . . . . . . . . . . . .                       . o o . . . o . .                                                                                                                                                                                                                                                                                                                                                                               ",
"                                                                                                                                                                                                                                                                                                                                                                                                                                                  h.> t > 9 9 > - - - - - - - - > > < < r 0 . o J.N.1.^ ~ T Q p 6 6 7 7 p ^ /  .[ [ a.a.@ X = : > - - * - - = = = - > > > , - = < : 0.                                                                                                                                                                                                                                                                                                                                                                                                                                                  ",
"                                                                                                                                                                                                                                                                                                                                                                                                                                                    o o o o o o o X . . . . . . . . . o . . & . N.6.>.^ ^ ^ :./ i D T D / <.{ ^ [ [ a.p.$ o . . . . . . . . . . . . . . . . . + . .                                                                                                                                                                                                                                                                                                                                                                                                                                                     ",
"                                                                                                                                                                                                                                                                                                                                                                                                                                                    = . O = . o o + o . . . . o . O + O O 1 . + 6.1.{ G G ^ ^ / w D / D ^ { =./ [ / i.i.$ . O O + + O o o . . + . . . . + o o o . 2                                                                                                                                                                                                                                                                                                                                                                                                                                                     ",
"                                                                                                                                                                                                                                                                                                                                                                                                                                                                                            O . >.>.G C D ^ { { >.:.{ { 1.-.-.H A F a.p.X &                                                                                                                                                                                                                                                                                                                                                                                                                                                                                             ",
"                                                                                                                                                                                                                                                                                                                                                                                                                                                                                            . . <.<.F 8 A ^ { { { >.=.=.:.>.>.G F D ,.p.$ .                                                                                                                                                                                                                                                                                                                                                                                                                                                                                             ",
"                                                                                                                                                                                                                                                                                                                                                                                                                                                                                            O . ,.,.T w D ^ :./ :.:.{ { :.<.{ F D T i.i.$ X                                                                                                                                                                                                                                                                                                                                                                                                                                                                                             ",
"                                                                                                                                                                                                                                                                                                                                                                                                                                                                                            . . e.&.Y w p ~ :.^ ^ #.^ ^ ^ :.~ U F i p.p.X .                                                                                                                                                                                                                                                                                                                                                                                                                                                                                             ",
"                                                                                                                                                                                                                                                                                                                                                                                                                                                                                            . o $.) v t p E ' ' ~ ' ~ ~ Q Q E U k k e.$.X o                                                                                                                                                                                                                                                                                                                                                                                                                                                                                             ",
"                                                                                                                                                                                                                                                                                                                                                                                                                                                                                                X X X . X @ @ $ @ @ @ @ @ X X X X X X X                                                                                                                                                                                                                                                                                                                                                                                                                                                                                                 ",
"                                                                                                                                                                                                                                                                                                                                                                                                                                                                                                . . . o o o o o o X . X X X X X . o . o                                                                                                                                                                                                                                                                                                                                                                                                                                                                                                 ",
"                                                                                                                                                                                                                                                                                                                                                                                                                                                                                                                                                                                                                                                                                                                                                                                                                                                                                                                                                                                                                                        ",
"                                                                                                                                                                                                                                                                                                                                                                                                                                                                                                                                                                                                                                                                                                                                                                                                                                                                                                                                                                                                                                        ",
"                                                                                                                                                                                                                                                                                                                                                                                                                                                                                                                                                                                                                                                                                                                                                                                                                                                                                                                                                                                                                                        ",
"                                                                                                                                                                                                                                                                                                                                                                                                                                                                                                                                                                                                                                                                                                                                                                                                                                                                                                                                                                                                                                        ",
"                                                                                                                                                                                                                                                                                                                                                                                                                                                                                                                                                                                                                                                                                                                                                                                                                                                                                                                                                                                                                                        ",
"                                                                                                                                                                                                                                                                                                                                                                                                                                                                                                                                                                                                                                                                                                                                                                                                                                                                                                                                                                                                                                        ",
"                                                                                                                                                                                                                                                                                                                                                                                                                                                                                                                                                                                                                                                                                                                                                                                                                                                                                                                                                                                                                                        ",
"                                                                                                                                                                                                                                                                                                                                                                                                                                                                                                                                                                                                                                                                                                                                                                                                                                                                                                                                                                                                                                        ",
"                                                                                                                                                                                                                                                                                                                                                                                                                                                                                                                                                                                                                                                                                                                                                                                                                                                                                                                                                                                                                                        ",
"                                                                                                                                                                                                                                                                                                                                                                                                                                                                                                                                                                                                                                                                                                                                                                                                                                                                                                                                                                                                                                        ",
"                                                                                                                                                                                                                                                                                                                                                                                                                                                                                                                                                                                                                                                                                                                                                                                                                                                                                                                                                                                                                                        ",
"                                                                                                                                                                                                                                                                                                                                                                                                                                                                                                                                                                                                                                                                                                                                                                                                                                                                                                                                                                                                                                        ",
"                                                                                                                                                                                                                                                                                                                                                                                                                                                                                                                                                                                                                                                                                                                                                                                                                                                                                                                                                                                                                                        ",
"                                                                                                                                                                                                                                                                                                                                                                                                                                                                                                                                                                                                                                                                                                                                                                                                                                                                                                                                                                                                                                        ",
"                                                                                                                                                                                                                                                                                                                                                                                                                                                                                                                                                                                                                                                                                                                                                                                                                                                                                                                                                                                                                                        ",
"                                                                                                                                                                                                                                                                                                                                                                                                                                                                                                                                                                                                                                                                                                                                                                                                                                                                                                                                                                                                                                        ",
"                                                                                                                                                                                                                                                                                                                                                                                                                                                                                                                                                                                                                                                                                                                                                                                                                                                                                                                                                                                                                                        ",
"                                                                                                                                                                                                                                                                                                                                                                                                                                                                                                                                                                                                                                                                                                                                                                                                                                                                                                                                                                                                                                        ",
"                                                                                                                                                                                                                                                                                                                                                                                                                                                                                                                                                                                                                                                                                                                                                                                                                                                                                                                                                                                                                                        ",
"                                                                                                                                                                                                                                                                                                                                                                                                                                                                                                                                                                                                                                                                                                                                                                                                                                                                                                                                                                                                                                        ",
"                                                                                                                                                                                                                                                                                                                                                                                                                                                                                                                                                                                                                                                                                                                                                                                                                                                                                                                                                                                                                                        ",
"                                                                                                                                                                                                                                                                                                                                                                                                                                                                                                                                                                                                                                                                                                                                                                                                                                                                                                                                                                                                                                        ",
"                                                                                                                                                                                                                                                                                                                                                                                                                                                                                                                                                                                                                                                                                                                                                                                                                                                                                                                                                                                                                                        ",
"                                                                                                                                                                                                                                                                                                                                                                                                                                                                                                                                                                                                                                                                                                                                                                                                                                                                                                                                                                                                                                        ",
"                                                                                                                                                                                                                                                                                                                                                                                                                                                                                                                                                                                                                                                                                                                                                                                                                                                                                                                                                                                                                                        ",
"                                                                                                                                                                                                                                                                                                                                                                                                                                                                                                                                                                                                                                                                                                                                                                                                                                                                                                                                                                                                                                        ",
"                                                                                                                                                                                                                                                                                                                                                                                                                                                                                                                                                                                                                                                                                                                                                                                                                                                                                                                                                                                                                                        ",
"                                                                                                                                                                                                                                                                                                                                                                                                                                                                                                                                                                                                                                                                                                                                                                                                                                                                                                                                                                                                                                        ",
"                                                                                                                                                                                                                                                                                                                                                                                                                                                                                                                                                                                                                                                                                                                                                                                                                                                                                                                                                                                                                                        ",
"                                                                                                                                                                                                                                                                                                                                                                                                                                                                                                                                                                                                                                                                                                                                                                                                                                                                                                                                                                                                                                        ",
"                                                                                                                                                                                                                                                                                                                                                                                                                                                                                                                                                                                                                                                                                                                                                                                                                                                                                                                                                                                                                                        ",
"                                                                                                                                                                                                                                                                                                                                                                                                                                                                                                                                                                                                                                                                                                                                                                                                                                                                                                                                                                                                                                        ",
"                                                                                                                                                                                                                                                                                                                                                                                                                                                                                                                                                                                                                                                                                                                                                                                                                                                                                                                                                                                                                                        ",
"                                                                                                                                                                                                                                                                                                                                                                                                                                                                                                                                                                                                                                                                                                                                                                                                                                                                                                                                                                                                                                        ",
"                                                                                                                                                                                                                                                                                                                                                                                                                                                                                                                                                                                                                                                                                                                                                                                                                                                                                                                                                                                                                                        ",
"                                                                                                                                                                                                                                                                                                                                                                                                                                                                                                                                                                                                                                                                                                                                                                                                                                                                                                                                                                                                                                        ",
"                                                                                                                                                                                                                                                                                                                                                                                                                                                                                                                                                                                                                                                                                                                                                                                                                                                                                                                                                                                                                                        ",
"                                                                                                                                                                                                                                                                                                                                                                                                                                                                                                                                                                                                                                                                                                                                                                                                                                                                                                                                                                                                                                        ",
"                                                                                                                                                                                                                                                                                                                                                                                                                                                                                                                                                                                                                                                                                                                                                                                                                                                                                                                                                                                                                                        ",
"                                                                                                                                                                                                                                                                                                                                                                                                                                                                                                                                                                                                                                                                                                                                                                                                                                                                                                                                                                                                                                        ",
"                                                                                                                                                                                                                                                                                                                                                                                                                                                                                                                                                                                                                                                                                                                                                                                                                                                                                                                                                                                                                                        ",
"                                                                                                                                                                                                                                                                                                                                                                                                                                                                                                                                                                                                                                                                                                                                                                                                                                                                                                                                                                                                                                        ",
"                                                                                                                                                                                                                                                                                                                                                                                                                                                                                                                                                                                                                                                                                                                                                                                                                                                                                                                                                                                                                                        ",
"                                                                                                                                                                                                                                                                                                                                                                                                                                                                                                                                                                                                                                                                                                                                                                                                                                                                                                                                                                                                                                        ",
"                                                                                                                                                                                                                                                                                                                                                                                                                                                                                                                                                                                                                                                                                                                                                                                                                                                                                                                                                                                                                                        ",
"                                                                                                                                                                                                                                                                                                                                                                                                                                                                                                                                                                                                                                                                                                                                                                                                                                                                                                                                                                                                                                        ",
"                                                                                                                                                                                                                                                                                                                                                                                                                                                                                                                                                                                                                                                                                                                                                                                                                                                                                                                                                                                                                                        ",
"                                                                                                                                                                                                                                                                                                                                                                                                                                                                                                                                                                                                                                                                                                                                                                                                                                                                                                                                                                                                                                        ",
"                                                                                                                                                                                                                                                                                                                                                                                                                                                                                                                                                                                                                                                                                                                                                                                                                                                                                                                                                                                                                                        ",
"                                                                                                                                                                                                                                                                                                                                                                                                                                                                                                                                                                                                                                                                                                                                                                                                                                                                                                                                                                                                                                        ",
"                                                                                                                                                                                                                                                                                                                                                                                                                                                                                                                                                                                                                                                                                                                                                                                                                                                                                                                                                                                                                                        ",
"                                                                                                                                                                                                                                                                                                                                                                                                                                                                                                                                                                                                                                                                                                                                                                                                                                                                                                                                                                                                                                        ",
"                                                                                                                                                                                                                                                                                                                                                                                                                                                                                                                                                                                                                                                                                                                                                                                                                                                                                                                                                                                                                                        ",
"                                                                                                                                                                                                                                                                                                                                                                                                                                                                                                                                                                                                                                                                                                                                                                                                                                                                                                                                                                                                                                        ",
"                                                                                                                                                                                                                                                                                                                                                                                                                                                                                                                                                                                                                                                                                                                                                                                                                                                                                                                                                                                                                                        ",
"                                                                                                                                                                                                                                                                                                                                                                                                                                                                                                                                                                                                                                                                                                                                                                                                                                                                                                                                                                                                                                        ",
"                                                                                                                                                                                                                                                                                                                                                                                                                                                                                                                                                                                                                                                                                                                                                                                                                                                                                                                                                                                                                                        ",
"                                                                                                                                                                                                                                                                                                                                                                                                                                                                                                                                                                                                                                                                                                                                                                                                                                                                                                                                                                                                                                        ",
"                                                                                                                                                                                                                                                                                                                                                                                                                                                                                                                                                                                                                                                                                                                                                                                                                                                                                                                                                                                                                                        ",
"                                                                                                                                                                                                                                                                                                                                                                                                                                                                                                                                                                                                                                                                                                                                                                                                                                                                                                                                                                                                                                        ",
"                                                                                                                                                                                                                                                                                                                                                                                                                                                                                                                                                                                                                                                                                                                                                                                                                                                                                                                                                                                                                                        ",
"                                                                                                                                                                                                                                                                                                                                                                                                                                                                                                                                                                                                                                                                                                                                                                                                                                                                                                                                                                                                                                        ",
"                                                                                                                                                                                                                                                                                                                                                                                                                                                                                                                                                                                                                                                                                                                                                                                                                                                                                                                                                                                                                                        ",
"                                                                                                                                                                                                                                                                                                                                                                                                                                                                                                                                                                                                                                                                                                                                                                                                                                                                                                                                                                                                                                        ",
"                                                                                                                                                                                                                                                                                                                                                                                                                                                                                                                                                                                                                                                                                                                                                                                                                                                                                                                                                                                                                                        ",
"                                                                                                                                                                                                                                                                                                                                                                                                                                                                                                                                                                                                                                                                                                                                                                                                                                                                                                                                                                                                                                        ",
"                                                                                                                                                                                                                                                                                                                                                                                                                                                                                                                                                                                                                                                                                                                                                                                                                                                                                                                                                                                                                                        ",
"                                                                                                                                                                                                                                                                                                                                                                                                                                                                                                                                                                                                                                                                                                                                                                                                                                                                                                                                                                                                                                        ",
"                                                                                                                                                                                                                                                                                                                                                                                                                                                                                                                                                                                                                                                                                                                                                                                                                                                                                                                                                                                                                                        ",
"                                                                                                                                                                                                                                                                                                                                                                                                                                                                                                                                                                                                                                                                                                                                                                                                                                                                                                                                                                                                                                        ",
"                                                                                                                                                                                                                                                                                                                                                                                                                                                                                                                                                                                                                                                                                                                                                                                                                                                                                                                                                                                                                                        ",
"                                                                                                                                                                                                                                                                                                                                                                                                                                                                                                                                                                                                                                                                                                                                                                                                                                                                                                                                                                                                                                        ",
"                                                                                                                                                                                                                                                                                                                                                                                                                                                                                                                                                                                                                                                                                                                                                                                                                                                                                                                                                                                                                                        ",
"                                                                                                                                                                                                                                                                                                                                                                                                                                                                                                                                                                                                                                                                                                                                                                                                                                                                                                                                                                                                                                        ",
"                                                                                                                                                                                                                                                                                                                                                                                                                                                                                                                                                                                                                                                                                                                                                                                                                                                                                                                                                                                                                                        ",
"                                                                                                                                                                                                                                                                                                                                                                                                                                                                                                                                                                                                                                                                                                                                                                                                                                                                                                                                                                                                                                        ",
"                                                                                                                                                                                                                                                                                                                                                                                                                                                                                                                                                                                                                                                                                                                                                                                                                                                                                                                                                                                                                                        ",
"                                                                                                                                                                                                                                                                                                                                                                                                                                                                                                                                                                                                                                                                                                                                                                                                                                                                                                                                                                                                                                        ",
"                                                                                                                                                                                                                                                                                                                                                                                                                                                                                                                                                                                                                                                                                                                                                                                                                                                                                                                                                                                                                                        ",
"                                                                                                                                                                                                                                                                                                                                                                                                                                                                                                                                                                                                                                                                                                                                                                                                                                                                                                                                                                                                                                        ",
"                                                                                                                                                                                                                                                                                                                                                                                                                                                                                                                                                                                                                                                                                                                                                                                                                                                                                                                                                                                                                                        ",
"                                                                                                                                                                                                                                                                                                                                                                                                                                                                                                                                                                                                                                                                                                                                                                                                                                                                                                                                                                                                                                        ",
"                                                                                                                                                                                                                                                                                                                                                                                                                                                                                                                                                                                                                                                                                                                                                                                                                                                                                                                                                                                                                                        ",
"                                                                                                                                                                                                                                                                                                                                                                                                                                                                                                                                                                                                                                                                                                                                                                                                                                                                                                                                                                                                                                        ",
"                                                                                                                                                                                                                                                                                                                                                                                                                                                                                                                                                                                                                                                                                                                                                                                                                                                                                                                                                                                                                                        ",
"                                                                                                                                                                                                                                                                                                                                                                                                                                                                                                                                                                                                                                                                                                                                                                                                                                                                                                                                                                                                                                        ",
"                                                                                                                                                                                                                                                                                                                                                                                                                                                                                                                                                                                                                                                                                                                                                                                                                                                                                                                                                                                                                                        ",
"                                                                                                                                                                                                                                                                                                                                                                                                                                                                                                                                                                                                                                                                                                                                                                                                                                                                                                                                                                                                                                        ",
"                                                                                                                                                                                                                                                                                                                                                                                                                                                                                                                                                                                                                                                                                                                                                                                                                                                                                                                                                                                                                                        ",
"                                                                                                                                                                                                                                                                                                                                                                                                                                                                                                                                                                                                                                                                                                                                                                                                                                                                                                                                                                                                                                        ",
"                                                                                                                                                                                                                                                                                                                                                                                                                                                                                                                                                                                                                                                                                                                                                                                                                                                                                                                                                                                                                                        ",
"                                                                                                                                                                                                                                                                                                                                                                                                                                                                                                                                                                                                                                                                                                                                                                                                                                                                                                                                                                                                                                        ",
"                                                                                                                                                                                                                                                                                                                                                                                                                                                                                                                                                                                                                                                                                                                                                                                                                                                                                                                                                                                                                                        ",
"                                                                                                                                                                                                                                                                                                                                                                                                                                                                                                                                                                                                                                                                                                                                                                                                                                                                                                                                                                                                                                        ",
"                                                                                                                                                                                                                                                                                                                                                                                                                                                                                                                                                                                                                                                                                                                                                                                                                                                                                                                                                                                                                                        ",
"                                                                                                                                                                                                                                                                                                                                                                                                                                                                                                                                                                                                                                                                                                                                                                                                                                                                                                                                                                                                                                        ",
"                                                                                                                                                                                                                                                                                                                                                                                                                                                                                                                                                                                                                                                                                                                                                                                                                                                                                                                                                                                                                                        ",
"                                                                                                                                                                                                                                                                                                                                                                                                                                                                                                                                                                                                                                                                                                                                                                                                                                                                                                                                                                                                                                        ",
"                                                                                                                                                                                                                                                                                                                                                                                                                                                                                                                                                                                                                                                                                                                                                                                                                                                                                                                                                                                                                                        ",
"                                                                                                                                                                                                                                                                                                                                                                                                                                                                                                                                                                                                                                                                                                                                                                                                                                                                                                                                                                                                                                        ",
"                                                                                                                                                                                                                                                                                                                                                                                                                                                                                                                                                                                                                                                                                                                                                                                                                                                                                                                                                                                                                                        ",
"                                                                                                                                                                                                                                                                                                                                                                                                                                                                                                                                                                                                                                                                                                                                                                                                                                                                                                                                                                                                                                        ",
"                                                                                                                                                                                                                                                                                                                                                                                                                                                                                                                                                                                                                                                                                                                                                                                                                                                                                                                                                                                                                                        ",
"                                                                                                                                                                                                                                                                                                                                                                                                                                                                                                                                                                                                                                                                                                                                                                                                                                                                                                                                                                                                                                        ",
"                                                                                                                                                                                                                                                                                                                                                                                                                                                                                                                                                                                                                                                                                                                                                                                                                                                                                                                                                                                                                                        ",
"                                                                                                                                                                                                                                                                                                                                                                                                                                                                                                                                                                                                                                                                                                                                                                                                                                                                                                                                                                                                                                        ",
"                                                                                                                                                                                                                                                                                                                                                                                                                                                                                                                                                                                                                                                                                                                                                                                                                                                                                                                                                                                                                                        ",
"                                                                                                                                                                                                                                                                                                                                                                                                                                                                                                                                                                                                                                                                                                                                                                                                                                                                                                                                                                                                                                        ",
"                                                                                                                                                                                                                                                                                                                                                                                                                                                                                                                                                                                                                                                                                                                                                                                                                                                                                                                                                                                                                                        ",
"                                                                                                                                                                                                                                                                                                                                                                                                                                                                                                                                                                                                                                                                                                                                                                                                                                                                                                                                                                                                                                        ",
"                                                                                                                                                                                                                                                                                                                                                                                                                                                                                                                                                                                                                                                                                                                                                                                                                                                                                                                                                                                                                                        ",
"                                                                                                                                                                                                                                                                                                                                                                                                                                                                                                                                                                                                                                                                                                                                                                                                                                                                                                                                                                                                                                        ",
"                                                                                                                                                                                                                                                                                                                                                                                                                                                                                                                                                                                                                                                                                                                                                                                                                                                                                                                                                                                                                                        ",
"                                                                                                                                                                                                                                                                                                                                                                                                                                                                                                                                                                                                                                                                                                                                                                                                                                                                                                                                                                                                                                        ",
"                                                                                                                                                                                                                                                                                                                                                                                                                                                                                                                                                                                                                                                                                                                                                                                                                                                                                                                                                                                                                                        ",
"                                                                                                                                                                                                                                                                                                                                                                                                                                                                                                                                                                                                                                                                                                                                                                                                                                                                                                                                                                                                                                        ",
"                                                                                                                                                                                                                                                                                                                                                                                                                                                                                                                                                                                                                                                                                                                                                                                                                                                                                                                                                                                                                                        ",
"                                                                                                                                                                                                                                                                                                                                                                                                                                                                                                                                                                                                                                                                                                                                                                                                                                                                                                                                                                                                                                        ",
"                                                                                                                                                                                                                                                                                                                                                                                                                                                                                                                                                                                                                                                                                                                                                                                                                                                                                                                                                                                                                                        ",
"                                                                                                                                                                                                                                                                                                                                                                                                                                                                                                                                                                                                                                                                                                                                                                                                                                                                                                                                                                                                                                        ",
"                                                                                                                                                                                                                                                                                                                                                                                                                                                                                                                                                                                                                                                                                                                                                                                                                                                                                                                                                                                                                                        ",
"                                                                                                                                                                                                                                                                                                                                                                                                                                                                                                                                                                                                                                                                                                                                                                                                                                                                                                                                                                                                                                        ",
"                                                                                                                                                                                                                                                                                                                                                                                                                                                                                                                                                                                                                                                                                                                                                                                                                                                                                                                                                                                                                                        ",
"                                                                                                                                                                                                                                                                                                                                                                                                                                                                                                                                                                                                                                                                                                                                                                                                                                                                                                                                                                                                                                        ",
"                                                                                                                                                                                                                                                                                                                                                                                                                                                                                                                                                                                                                                                                                                                                                                                                                                                                                                                                                                                                                                        ",
"                                                                                                                                                                                                                                                                                                                                                                                                                                                                                                                                                                                                                                                                                                                                                                                                                                                                                                                                                                                                                                        ",
"                                                                                                                                                                                                                                                                                                                                                                                                                                                                                                                                                                                                                                                                                                                                                                                                                                                                                                                                                                                                                                        ",
"                                                                                                                                                                                                                                                                                                                                                                                                                                                                                                                                                                                                                                                                                                                                                                                                                                                                                                                                                                                                                                        ",
"                                                                                                                                                                                                                                                                                                                                                                                                                                                                                                                                                                                                                                                                                                                                                                                                                                                                                                                                                                                                                                        ",
"                                                                                                                                                                                                                                                                                                                                                                                                                                                                                                                                                                                                                                                                                                                                                                                                                                                                                                                                                                                                                                        ",
"                                                                                                                                                                                                                                                                                                                                                                                                                                                                                                                                                                                                                                                                                                                                                                                                                                                                                                                                                                                                                                        ",
"                                                                                                                                                                                                                                                                                                                                                                                                                                                                                                                                                                                                                                                                                                                                                                                                                                                                                                                                                                                                                                        ",
"                                                                                                                                                                                                                                                                                                                                                                                                                                                                                                                                                                                                                                                                                                                                                                                                                                                                                                                                                                                                                                        ",
"                                                                                                                                                                                                                                                                                                                                                                                                                                                                                                                                                                                                                                                                                                                                                                                                                                                                                                                                                                                                                                        ",
"                                                                                                                                                                                                                                                                                                                                                                                                                                                                                                                                                                                                                                                                                                                                                                                                                                                                                                                                                                                                                                        ",
"                                                                                                                                                                                                                                                                                                                                                                                                                                                                                                                                                                                                                                                                                                                                                                                                                                                                                                                                                                                                                                        ",
"                                                                                                                                                                                                                                                                                                                                                                                                                                                                                                                                                                                                                                                                                                                                                                                                                                                                                                                                                                                                                                        ",
"                                                                                                                                                                                                                                                                                                                                                                                                                                                                                                                                                                                                                                                                                                                                                                                                                                                                                                                                                                                                                                        ",
"                                                                                                                                                                                                                                                                                                                                                                                                                                                                                                                                                                                                                                                                                                                                                                                                                                                                                                                                                                                                                                        ",
"                                                                                                                                                                                                                                                                                                                                                                                                                                                                                                                                                                                                                                                                                                                                                                                                                                                                                                                                                                                                                                        ",
"                                                                                                                                                                                                                                                                                                                                                                                                                                                                                                                                                                                                                                                                                                                                                                                                                                                                                                                                                                                                                                        ",
"                                                                                                                                                                                                                                                                                                                                                                                                                                                                                                                                                                                                                                                                                                                                                                                                                                                                                                                                                                                                                                        ",
"                                                                                                                                                                                                                                                                                                                                                                                                                                                                                                                                                                                                                                                                                                                                                                                                                                                                                                                                                                                                                                        ",
"                                                                                                                                                                                                                                                                                                                                                                                                                                                                                                                                                                                                                                                                                                                                                                                                                                                                                                                                                                                                                                        ",
"                                                                                                                                                                                                                                                                                                                                                                                                                                                                                                                                                                                                                                                                                                                                                                                                                                                                                                                                                                                                                                        ",
"                                                                                                                                                                                                                                                                                                                                                                                                                                                                                                                                                                                                                                                                                                                                                                                                                                                                                                                                                                                                                                        ",
"                                                                                                                                                                                                                                                                                                                                                                                                                                                                                                                                                                                                                                                                                                                                                                                                                                                                                                                                                                                                                                        ",
"                                                                                                                                                                                                                                                                                                                                                                                                                                                                                                                                                                                                                                                                                                                                                                                                                                                                                                                                                                                                                                        ",
"                                                                                                                                                                                                                                                                                                                                                                                                                                                                                                                                                                                                                                                                                                                                                                                                                                                                                                                                                                                                                                        ",
"                                                                                                                                                                                                                                                                                                                                                                                                                                                                                                                                                                                                                                                                                                                                                                                                                                                                                                                                                                                                                                        ",
"                                                                                                                                                                                                                                                                                                                                                                                                                                                                                                                                                                                                                                                                                                                                                                                                                                                                                                                                                                                                                                        ",
"                                                                                                                                                                                                                                                                                                                                                                                                                                                                                                                                                                                                                                                                                                                                                                                                                                                                                                                                                                                                                                        ",
"                                                                                                                                                                                                                                                                                                                                                                                                                                                                                                                                                                                                                                                                                                                                                                                                                                                                                                                                                                                                                                        ",
"                                                                                                                                                                                                                                                                                                                                                                                                                                                                                                                                                                                                                                                                                                                                                                                                                                                                                                                                                                                                                                        ",
"                                                                                                                                                                                                                                                                                                                                                                                                                                                                                                                                                                                                                                                                                                                                                                                                                                                                                                                                                                                                                                        ",
"                                                                                                                                                                                                                                                                                                                                                                                                                                                                                                                                                                                                                                                                                                                                                                                                                                                                                                                                                                                                                                        ",
"                                                                                                                                                                                                                                                                                                                                                                                                                                                                                                                                                                                                                                                                                                                                                                                                                                                                                                                                                                                                                                        ",
"                                                                                                                                                                                                                                                                                                                                                                                                                                                                                                                                                                                                                                                                                                                                                                                                                                                                                                                                                                                                                                        ",
"                                                                                                                                                                                                                                                                                                                                                                                                                                                                                                                                                                                                                                                                                                                                                                                                                                                                                                                                                                                                                                        ",
"                                                                                                                                                                                                                                                                                                                                                                                                                                                                                                                                                                                                                                                                                                                                                                                                                                                                                                                                                                                                                                        ",
"                                                                                                                                                                                                                                                                                                                                                                                                                                                                                                                                                                                                                                                                                                                                                                                                                                                                                                                                                                                                                                        ",
"                                                                                                                                                                                                                                                                                                                                                                                                                                                                                                                                                                                                                                                                                                                                                                                                                                                                                                                                                                                                                                        ",
"                                                                                                                                                                                                                                                                                                                                                                                                                                                                                                                                                                                                                                                                                                                                                                                                                                                                                                                                                                                                                                        ",
"                                                                                                                                                                                                                                                                                                                                                                                                                                                                                                                                                                                                                                                                                                                                                                                                                                                                                                                                                                                                                                        ",
"                                                                                                                                                                                                                                                                                                                                                                                                                                                                                                                                                                                                                                                                                                                                                                                                                                                                                                                                                                                                                                        ",
"                                                                                                                                                                                                                                                                                                                                                                                                                                                                                                                                                                                                                                                                                                                                                                                                                                                                                                                                                                                                                                        ",
"                                                                                                                                                                                                                                                                                                                                                                                                                                                                                                                                                                                                                                                                                                                                                                                                                                                                                                                                                                                                                                        ",
"                                                                                                                                                                                                                                                                                                                                                                                                                                                                                                                                                                                                                                                                                                                                                                                                                                                                                                                                                                                                                                        ",
"                                                                                                                                                                                                                                                                                                                                                                                                                                                                                                                                                                                                                                                                                                                                                                                                                                                                                                                                                                                                                                        ",
"                                                                                                                                                                                                                                                                                                                                                                                                                                                                                                                                                                                                                                                                                                                                                                                                                                                                                                                                                                                                                                        ",
"                                                                                                                                                                                                                                                                                                                                                                                                                                                                                                                                                                                                                                                                                                                                                                                                                                                                                                                                                                                                                                        ",
"                                                                                                                                                                                                                                                                                                                                                                                                                                                                                                                                                                                                                                                                                                                                                                                                                                                                                                                                                                                                                                        ",
"                                                                                                                                                                                                                                                                                                                                                                                                                                                                                                                                                                                                                                                                                                                                                                                                                                                                                                                                                                                                                                        ",
"                                                                                                                                                                                                                                                                                                                                                                                                                                                                                                                                                                                                                                                                                                                                                                                                                                                                                                                                                                                                                                        ",
"                                                                                                                                                                                                                                                                                                                                                                                                                                                                                                                                                                                                                                                                                                                                                                                                                                                                                                                                                                                                                                        ",
"                                                                                                                                                                                                                                                                                                                                                                                                                                                                                                                                                                                                                                                                                                                                                                                                                                                                                                                                                                                                                                        ",
"                                                                                                                                                                                                                                                                                                                                                                                                                                                                                                                                                                                                                                                                                                                                                                                                                                                                                                                                                                                                                                        ",
"                                                                                                                                                                                                                                                                                                                                                                                                                                                                                                                                                                                                                                                                                                                                                                                                                                                                                                                                                                                                                                        ",
"                                                                                                                                                                                                                                                                                                                                                                                                                                                                                                                                                                                                                                                                                                                                                                                                                                                                                                                                                                                                                                        ",
"                                                                                                                                                                                                                                                                                                                                                                                                                                                                                                                                                                                                                                                                                                                                                                                                                                                                                                                                                                                                                                        ",
"                                                                                                                                                                                                                                                                                                                                                                                                                                                                                                                                                                                                                                                                                                                                                                                                                                                                                                                                                                                                                                        ",
"                                                                                                                                                                                                                                                                                                                                                                                                                                                                                                                                                                                                                                                                                                                                                                                                                                                                                                                                                                                                                                        ",
"                                                                                                                                                                                                                                                                                                                                                                                                                                                                                                                                                                                                                                                                                                                                                                                                                                                                                                                                                                                                                                        ",
"                                                                                                                                                                                                                                                                                                                                                                                                                                                                                                                                                                                                                                                                                                                                                                                                                                                                                                                                                                                                                                        ",
"                                                                                                                                                                                                                                                                                                                                                                                                                                                                                                                                                                                                                                                                                                                                                                                                                                                                                                                                                                                                                                        ",
"                                                                                                                                                                                                                                                                                                                                                                                                                                                                                                                                                                                                                                                                                                                                                                                                                                                                                                                                                                                                                                        ",
"                                                                                                                                                                                                                                                                                                                                                                                                                                                                                                                                                                                                                                                                                                                                                                                                                                                                                                                                                                                                                                        ",
"                                                                                                                                                                                                                                                                                                                                                                                                                                                                                                                                                                                                                                                                                                                                                                                                                                                                                                                                                                                                                                        ",
"                                                                                                                                                                                                                                                                                                                                                                                                                                                                                                                                                                                                                                                                                                                                                                                                                                                                                                                                                                                                                                        ",
"                                                                                                                                                                                                                                                                                                                                                                                                                                                                                                                                                                                                                                                                                                                                                                                                                                                                                                                                                                                                                                        ",
"                                                                                                                                                                                                                                                                                                                                                                                                                                                                                                                                                                                                                                                                                                                                                                                                                                                                                                                                                                                                                                        ",
"                                                                                                                                                                                                                                                                                                                                                                                                                                                                                                                                                                                                                                                                                                                                                                                                                                                                                                                                                                                                                                        ",
"                                                                                                                                                                                                                                                                                                                                                                                                                                                                                                                                                                                                                                                                                                                                                                                                                                                                                                                                                                                                                                        ",
"                                                                                                                                                                                                                                                                                                                                                                                                                                                                                                                                                                                                                                                                                                                                                                                                                                                                                                                                                                                                                                        ",
"                                                                                                                                                                                                                                                                                                                                                                                                                                                                                                                                                                                                                                                                                                                                                                                                                                                                                                                                                                                                                                        ",
"                                                                                                                                                                                                                                                                                                                                                                                                                                                                                                                                                                                                                                                                                                                                                                                                                                                                                                                                                                                                                                        ",
"                                                                                                                                                                                                                                                                                                                                                                                                                                                                                                                                                                                                                                                                                                                                                                                                                                                                                                                                                                                                                                        ",
"                                                                                                                                                                                                                                                                                                                                                                                                                                                                                                                                                                                                                                                                                                                                                                                                                                                                                                                                                                                                                                        ",
"                                                                                                                                                                                                                                                                                                                                                                                                                                                                                                                                                                                                                                                                                                                                                                                                                                                                                                                                                                                                                                        ",
"                                                                                                                                                                                                                                                                                                                                                                                                                                                                                                                                                                                                                                                                                                                                                                                                                                                                                                                                                                                                                                        ",
"                                                                                                                                                                                                                                                                                                                                                                                                                                                                                                                                                                                                                                                                                                                                                                                                                                                                                                                                                                                                                                        ",
"                                                                                                                                                                                                                                                                                                                                                                                                                                                                                                                                                                                                                                                                                                                                                                                                                                                                                                                                                                                                                                        ",
"                                                                                                                                                                                                                                                                                                                                                                                                                                                                                                                                                                                                                                                                                                                                                                                                                                                                                                                                                                                                                                        ",
"                                                                                                                                                                                                                                                                                                                                                                                                                                                                                                                                                                                                                                                                                                                                                                                                                                                                                                                                                                                                                                        ",
"                                                                                                                                                                                                                                                                                                                                                                                                                                                                                                                                                                                                                                                                                                                                                                                                                                                                                                                                                                                                                                        ",
"                                                                                                                                                                                                                                                                                                                                                                                                                                                                                                                                                                                                                                                                                                                                                                                                                                                                                                                                                                                                                                        ",
"                                                                                                                                                                                                                                                                                                                                                                                                                                                                                                                                                                                                                                                                                                                                                                                                                                                                                                                                                                                                                                        ",
"                                                                                                                                                                                                                                                                                                                                                                                                                                                                                                                                                                                                                                                                                                                                                                                                                                                                                                                                                                                                                                        ",
"                                                                                                                                                                                                                                                                                                                                                                                                                                                                                                                                                                                                                                                                                                                                                                                                                                                                                                                                                                                                                                        ",
"                                                                                                                                                                                                                                                                                                                                                                                                                                                                                                                                                                                                                                                                                                                                                                                                                                                                                                                                                                                                                                        ",
"                                                                                                                                                                                                                                                                                                                                                                                                                                                                                                                                                                                                                                                                                                                                                                                                                                                                                                                                                                                                                                        ",
"                                                                                                                                                                                                                                                                                                                                                                                                                                                                                                                                                                                                                                                                                                                                                                                                                                                                                                                                                                                                                                        ",
"                                                                                                                                                                                                                                                                                                                                                                                                                                                                                                                                                                                                                                                                                                                                                                                                                                                                                                                                                                                                                                        ",
"                                                                                                                                                                                                                                                                                                                                                                                                                                                                                                                                                                                                                                                                                                                                                                                                                                                                                                                                                                                                                                        ",
"                                                                                                                                                                                                                                                                                                                                                                                                                                                                                                                                                                                                                                                                                                                                                                                                                                                                                                                                                                                                                                        ",
"                                                                                                                                                                                                                                                                                                                                                                                                                                                                                                                                                                                                                                                                                                                                                                                                                                                                                                                                                                                                                                        ",
"                                                                                                                                                                                                                                                                                                                                                                                                                                                                                                                                                                                                                                                                                                                                                                                                                                                                                                                                                                                                                                        ",
"                                                                                                                                                                                                                                                                                                                                                                                                                                                                                                                                                                                                                                                                                                                                                                                                                                                                                                                                                                                                                                        ",
"                                                                                                                                                                                                                                                                                                                                                                                                                                                                                                                                                                                                                                                                                                                                                                                                                                                                                                                                                                                                                                        ",
"                                                                                                                                                                                                                                                                                                                                                                                                                                                                                                                                                                                                                                                                                                                                                                                                                                                                                                                                                                                                                                        ",
"                                                                                                                                                                                                                                                                                                                                                                                                                                                                                                                                                                                                                                                                                                                                                                                                                                                                                                                                                                                                                                        ",
"                                                                                                                                                                                                                                                                                                                                                                                                                                                                                                                                                                                                                                                                                                                                                                                                                                                                                                                                                                                                                                        ",
"                                                                                                                                                                                                                                                                                                                                                                                                                                                                                                                                                                                                                                                                                                                                                                                                                                                                                                                                                                                                                                        ",
"                                                                                                                                                                                                                                                                                                                                                                                                                                                                                                                                                                                                                                                                                                                                                                                                                                                                                                                                                                                                                                        ",
"                                                                                                                                                                                                                                                                                                                                                                                                                                                                                                                                                                                                                                                                                                                                                                                                                                                                                                                                                                                                                                        ",
"                                                                                                                                                                                                                                                                                                                                                                                                                                                                                                                                                                                                                                                                                                                                                                                                                                                                                                                                                                                                                                        ",
"                                                                                                                                                                                                                                                                                                                                                                                                                                                                                                                                                                                                                                                                                                                                                                                                                                                                                                                                                                                                                                        ",
"                                                                                                                                                                                                                                                                                                                                                                                                                                                                                                                                                                                                                                                                                                                                                                                                                                                                                                                                                                                                                                        ",
"                                                                                                                                                                                                                                                                                                                                                                                                                                                                                                                                                                                                                                                                                                                                                                                                                                                                                                                                                                                                                                        ",
"                                                                                                                                                                                                                                                                                                                                                                                                                                                                                                                                                                                                                                                                                                                                                                                                                                                                                                                                                                                                                                        ",
"                                                                                                                                                                                                                                                                                                                                                                                                                                                                                                                                                                                                                                                                                                                                                                                                                                                                                                                                                                                                                                        ",
"                                                                                                                                                                                                                                                                                                                                                                                                                                                                                                                                                                                                                                                                                                                                                                                                                                                                                                                                                                                                                                        ",
"                                                                                                                                                                                                                                                                                                                                                                                                                                                                                                                                                                                                                                                                                                                                                                                                                                                                                                                                                                                                                                        ",
"                                                                                                                                                                                                                                                                                                                                                                                                                                                                                                                                                                                                                                                                                                                                                                                                                                                                                                                                                                                                                                        ",
"                                                                                                                                                                                                                                                                                                                                                                                                                                                                                                                                                                                                                                                                                                                                                                                                                                                                                                                                                                                                                                        ",
"                                                                                                                                                                                                                                                                                                                                                                                                                                                                                                                                                                                                                                                                                                                                                                                                                                                                                                                                                                                                                                        ",
"                                                                                                                                                                                                                                                                                                                                                                                                                                                                                                                                                                                                                                                                                                                                                                                                                                                                                                                                                                                                                                        ",
"                                                                                                                                                                                                                                                                                                                                                                                                                                                                                                                                                                                                                                                                                                                                                                                                                                                                                                                                                                                                                                        ",
"                                                                                                                                                                                                                                                                                                                                                                                                                                                                                                                                                                                                                                                                                                                                                                                                                                                                                                                                                                                                                                        ",
"                                                                                                                                                                                                                                                                                                                                                                                                                                                                                                                                                                                                                                                                                                                                                                                                                                                                                                                                                                                                                                        ",
"                                                                                                                                                                                                                                                                                                                                                                                                                                                                                                                                                                                                                                                                                                                                                                                                                                                                                                                                                                                                                                        ",
"                                                                                                                                                                                                                                                                                                                                                                                                                                                                                                                                                                                                                                                                                                                                                                                                                                                                                                                                                                                                                                        ",
"                                                                                                                                                                                                                                                                                                                                                                                                                                                                                                                                                                                                                                                                                                                                                                                                                                                                                                                                                                                                                                        ",
"                                                                                                                                                                                                                                                                                                                                                                                                                                                                                                                                                                                                                                                                                                                                                                                                                                                                                                                                                                                                                                        ",
"                                                                                                                                                                                                                                                                                                                                                                                                                                                                                                                                                                                                                                                                                                                                                                                                                                                                                                                                                                                                                                        ",
"                                                                                                                                                                                                                                                                                                                                                                                                                                                                                                                                                                                                                                                                                                                                                                                                                                                                                                                                                                                                                                        ",
"                                                                                                                                                                                                                                                                                                                                                                                                                                                                                                                                                                                                                                                                                                                                                                                                                                                                                                                                                                                                                                        ",
"                                                                                                                                                                                                                                                                                                                                                                                                                                                                                                                                                                                                                                                                                                                                                                                                                                                                                                                                                                                                                                        ",
"                                                                                                                                                                                                                                                                                                                                                                                                                                                                                                                                                                                                                                                                                                                                                                                                                                                                                                                                                                                                                                        ",
"                                                                                                                                                                                                                                                                                                                                                                                                                                                                                                                                                                                                                                                                                                                                                                                                                                                                                                                                                                                                                                        ",
"                                                                                                                                                                                                                                                                                                                                                                                                                                                                                                                                                                                                                                                                                                                                                                                                                                                                                                                                                                                                                                        ",
"                                                                                                                                                                                                                                                                                                                                                                                                                                                                                                                                                                                                                                                                                                                                                                                                                                                                                                                                                                                                                                        ",
"                                                                                                                                                                                                                                                                                                                                                                                                                                                                                                                                                                                                                                                                                                                                                                                                                                                                                                                                                                                                                                        ",
"                                                                                                                                                                                                                                                                                                                                                                                                                                                                                                                                                                                                                                                                                                                                                                                                                                                                                                                                                                                                                                        ",
"                                                                                                                                                                                                                                                                                                                                                                                                                                                                                                                                                                                                                                                                                                                                                                                                                                                                                                                                                                                                                                        ",
"                                                                                                                                                                                                                                                                                                                                                                                                                                                                                                                                                                                                                                                                                                                                                                                                                                                                                                                                                                                                                                        ",
"                                                                                                                                                                                                                                                                                                                                                                                                                                                                                                                                                                                                                                                                                                                                                                                                                                                                                                                                                                                                                                        ",
"                                                                                                                                                                                                                                                                                                                                                                                                                                                                                                                                                                                                                                                                                                                                                                                                                                                                                                                                                                                                                                        ",
"                                                                                                                                                                                                                                                                                                                                                                                                                                                                                                                                                                                                                                                                                                                                                                                                                                                                                                                                                                                                                                        ",
"                                                                                                                                                                                                                                                                                                                                                                                                                                                                                                                                                                                                                                                                                                                                                                                                                                                                                                                                                                                                                                        ",
"                                                                                                                                                                                                                                                                                                                                                                                                                                                                                                                                                                                                                                                                                                                                                                                                                                                                                                                                                                                                                                        ",
"                                                                                                                                                                                                                                                                                                                                                                                                                                                                                                                                                                                                                                                                                                                                                                                                                                                                                                                                                                                                                                        ",
"                                                                                                                                                                                                                                                                                                                                                                                                                                                                                                                                                                                                                                                                                                                                                                                                                                                                                                                                                                                                                                        "
};
