/* XPM */
static char *xpm_n[] = {
/* columns rows colors chars-per-pixel */
"64 64 2 1",
"B c #CC0000",
"F c #FFFFFF",
/* pixels */
"BBBBBBBBBBBBBBBBBBBBBBBBBBBBBBBBBBBBBBBBBBBBBBBBBBBBBBBBBBBBBBBB",
"BBBBBBBBBBBBBBBBBBBBBBBBBBBBBBBBBBBBBBBBBBBBBBBBBBBBBBBBBBBBBBBB",
"BBBBBBBBBBBBBBBBBBBBBBBBBBBBBBBBBBBBBBBBBBBBBBBBBBBBBBBBBBBBBBBB",
"BBBBBBBBBBBBBBBBBBBBBBBBBBBBBBBBBBBBBBBBBBBBBBBBBBBBBBBBBBBBBBBB",
"BBBBBBBBBBBBBBBBBBBBBBBBBBBBBBBBBBBBBBBBBBBBBBBBBBBBBBBBBBBBBBBB",
"BBBBBBBBBBBBBBBBBBBBBBBBBBBBBBBBBBBBBBBBBBBBBBBBBBBBBBBBBBBBBBBB",
"BBBBBBBBBBBBBBBBBBBBBBBBBBBBBBBBBBBBBBBBBBBBBBBBBBBBBBBBBBBBBBBB",
"BBBBBBBBBBBBBBBBBBBBBBBBBBBBBBBBBBBBBBBBBBBBBBBBBBBBBBBBBBBBBBBB",
"BBBBBBBBBBBBBBBBBBBBBBBBBBBBBBBBBBBBBBBBBBBBBBBBBBBBBBBBBBBBBBBB",
"BBBBBBBBBBBBBBBBBBBBBBBBBBBBBBBBBBBBBBBBBBBBBBBBBBBBBBBBBBBBBBBB",
"BBBBBBBBBBBBBBBBBBBBBBBBBBBBBBBBBBBBBBBBBBBBBBBBBBBBBBBBBBBBBBBB",
"BBBBBBBBBBBBBBBBBFFFFFFBBBBBBBBBBBBBBBBBBFFFFFFBBBBBBBBBBBBBBBBB",
"BBBBBBBBBBBBBBBBBFFFFFFBBBBBBBBBBBBBBBBBBFFFFFFBBBBBBBBBBBBBBBBB",
"BBBBBBBBBBBBBBBBBFFFFFFBBBBBBBBBBBBBBBBBBFFFFFFBBBBBBBBBBBBBBBBB",
"BBBBBBBBBBBBBBBBBFFFFFFBBBBBBBBBBBBBBBBBBFFFFFFBBBBBBBBBBBBBBBBB",
"BBBBBBBBBBBBBBBBBFFFFFFBBBBBBBBBBBBBBBBBBFFFFFFBBBBBBBBBBBBBBBBB",
"BBBBBBBBBBBBBBBBBFFFFFFBBBBBBBBBBBBBBBBBBFFFFFFBBBBBBBBBBBBBBBBB",
"BBBBBBBBBBBBBBBBBFFFFFFFFFFFFBBBBBBBBBBBBFFFFFFBBBBBBBBBBBBBBBBB",
"BBBBBBBBBBBBBBBBBFFFFFFFFFFFFBBBBBBBBBBBBFFFFFFBBBBBBBBBBBBBBBBB",
"BBBBBBBBBBBBBBBBBFFFFFFFFFFFFBBBBBBBBBBBBFFFFFFBBBBBBBBBBBBBBBBB",
"BBBBBBBBBBBBBBBBBFFFFFFFFFFFFBBBBBBBBBBBBFFFFFFBBBBBBBBBBBBBBBBB",
"BBBBBBBBBBBBBBBBBFFFFFFFFFFFFBBBBBBBBBBBBFFFFFFBBBBBBBBBBBBBBBBB",
"BBBBBBBBBBBBBBBBBFFFFFFFFFFFFBBBBBBBBBBBBFFFFFFBBBBBBBBBBBBBBBBB",
"BBBBBBBBBBBBBBBBBFFFFFFBBBBBBFFFFFFBBBBBBFFFFFFBBBBBBBBBBBBBBBBB",
"BBBBBBBBBBBBBBBBBFFFFFFBBBBBBFFFFFFBBBBBBFFFFFFBBBBBBBBBBBBBBBBB",
"BBBBBBBBBBBBBBBBBFFFFFFBBBBBBFFFFFFBBBBBBFFFFFFBBBBBBBBBBBBBBBBB",
"BBBBBBBBBBBBBBBBBFFFFFFBBBBBBFFFFFFBBBBBBFFFFFFBBBBBBBBBBBBBBBBB",
"BBBBBBBBBBBBBBBBBFFFFFFBBBBBBFFFFFFBBBBBBFFFFFFBBBBBBBBBBBBBBBBB",
"BBBBBBBBBBBBBBBBBFFFFFFBBBBBBFFFFFFBBBBBBFFFFFFBBBBBBBBBBBBBBBBB",
"BBBBBBBBBBBBBBBBBFFFFFFBBBBBBBBBBBBFFFFFFFFFFFFBBBBBBBBBBBBBBBBB",
"BBBBBBBBBBBBBBBBBFFFFFFBBBBBBBBBBBBFFFFFFFFFFFFBBBBBBBBBBBBBBBBB",
"BBBBBBBBBBBBBBBBBFFFFFFBBBBBBBBBBBBFFFFFFFFFFFFBBBBBBBBBBBBBBBBB",
"BBBBBBBBBBBBBBBBBFFFFFFBBBBBBBBBBBBFFFFFFFFFFFFBBBBBBBBBBBBBBBBB",
"BBBBBBBBBBBBBBBBBFFFFFFBBBBBBBBBBBBFFFFFFFFFFFFBBBBBBBBBBBBBBBBB",
"BBBBBBBBBBBBBBBBBFFFFFFBBBBBBBBBBBBFFFFFFFFFFFFBBBBBBBBBBBBBBBBB",
"BBBBBBBBBBBBBBBBBFFFFFFBBBBBBBBBBBBBBBBBBFFFFFFBBBBBBBBBBBBBBBBB",
"BBBBBBBBBBBBBBBBBFFFFFFBBBBBBBBBBBBBBBBBBFFFFFFBBBBBBBBBBBBBBBBB",
"BBBBBBBBBBBBBBBBBFFFFFFBBBBBBBBBBBBBBBBBBFFFFFFBBBBBBBBBBBBBBBBB",
"BBBBBBBBBBBBBBBBBFFFFFFBBBBBBBBBBBBBBBBBBFFFFFFBBBBBBBBBBBBBBBBB",
"BBBBBBBBBBBBBBBBBFFFFFFBBBBBBBBBBBBBBBBBBFFFFFFBBBBBBBBBBBBBBBBB",
"BBBBBBBBBBBBBBBBBFFFFFFBBBBBBBBBBBBBBBBBBFFFFFFBBBBBBBBBBBBBBBBB",
"BBBBBBBBBBBBBBBBBFFFFFFBBBBBBBBBBBBBBBBBBFFFFFFBBBBBBBBBBBBBBBBB",
"BBBBBBBBBBBBBBBBBFFFFFFBBBBBBBBBBBBBBBBBBFFFFFFBBBBBBBBBBBBBBBBB",
"BBBBBBBBBBBBBBBBBFFFFFFBBBBBBBBBBBBBBBBBBFFFFFFBBBBBBBBBBBBBBBBB",
"BBBBBBBBBBBBBBBBBFFFFFFBBBBBBBBBBBBBBBBBBFFFFFFBBBBBBBBBBBBBBBBB",
"BBBBBBBBBBBBBBBBBFFFFFFBBBBBBBBBBBBBBBBBBFFFFFFBBBBBBBBBBBBBBBBB",
"BBBBBBBBBBBBBBBBBFFFFFFBBBBBBBBBBBBBBBBBBFFFFFFBBBBBBBBBBBBBBBBB",
"BBBBBBBBBBBBBBBBBFFFFFFBBBBBBBBBBBBBBBBBBFFFFFFBBBBBBBBBBBBBBBBB",
"BBBBBBBBBBBBBBBBBFFFFFFBBBBBBBBBBBBBBBBBBFFFFFFBBBBBBBBBBBBBBBBB",
"BBBBBBBBBBBBBBBBBFFFFFFBBBBBBBBBBBBBBBBBBFFFFFFBBBBBBBBBBBBBBBBB",
"BBBBBBBBBBBBBBBBBFFFFFFBBBBBBBBBBBBBBBBBBFFFFFFBBBBBBBBBBBBBBBBB",
"BBBBBBBBBBBBBBBBBFFFFFFBBBBBBBBBBBBBBBBBBFFFFFFBBBBBBBBBBBBBBBBB",
"BBBBBBBBBBBBBBBBBFFFFFFBBBBBBBBBBBBBBBBBBFFFFFFBBBBBBBBBBBBBBBBB",
"BBBBBBBBBBBBBBBBBBBBBBBBBBBBBBBBBBBBBBBBBBBBBBBBBBBBBBBBBBBBBBBB",
"BBBBBBBBBBBBBBBBBBBBBBBBBBBBBBBBBBBBBBBBBBBBBBBBBBBBBBBBBBBBBBBB",
"BBBBBBBBBBBBBBBBBBBBBBBBBBBBBBBBBBBBBBBBBBBBBBBBBBBBBBBBBBBBBBBB",
"BBBBBBBBBBBBBBBBBBBBBBBBBBBBBBBBBBBBBBBBBBBBBBBBBBBBBBBBBBBBBBBB",
"BBBBBBBBBBBBBBBBBBBBBBBBBBBBBBBBBBBBBBBBBBBBBBBBBBBBBBBBBBBBBBBB",
"BBBBBBBBBBBBBBBBBBBBBBBBBBBBBBBBBBBBBBBBBBBBBBBBBBBBBBBBBBBBBBBB",
"BBBBBBBBBBBBBBBBBBBBBBBBBBBBBBBBBBBBBBBBBBBBBBBBBBBBBBBBBBBBBBBB",
"BBBBBBBBBBBBBBBBBBBBBBBBBBBBBBBBBBBBBBBBBBBBBBBBBBBBBBBBBBBBBBBB",
"BBBBBBBBBBBBBBBBBBBBBBBBBBBBBBBBBBBBBBBBBBBBBBBBBBBBBBBBBBBBBBBB",
"BBBBBBBBBBBBBBBBBBBBBBBBBBBBBBBBBBBBBBBBBBBBBBBBBBBBBBBBBBBBBBBB",
"BBBBBBBBBBBBBBBBBBBBBBBBBBBBBBBBBBBBBBBBBBBBBBBBBBBBBBBBBBBBBBBB"
};
