/* XPM */
static char *xpm_w[] = {
/* columns rows colors chars-per-pixel */
"64 64 2 1",
"B c #FFCC00",
"F c #000000",
/* pixels */
"BBBBBBBBBBBBBBBBBBBBBBBBBBBBBBBBBBBBBBBBBBBBBBBBBBBBBBBBBBBBBBBB",
"BBBBBBBBBBBBBBBBBBBBBBBBBBBBBBBBBBBBBBBBBBBBBBBBBBBBBBBBBBBBBBBB",
"BBBBBBBBBBBBBBBBBBBBBBBBBBBBBBBBBBBBBBBBBBBBBBBBBBBBBBBBBBBBBBBB",
"BBBBBBBBBBBBBBBBBBBBBBBBBBBBBBBBBBBBBBBBBBBBBBBBBBBBBBBBBBBBBBBB",
"BBBBBBBBBBBBBBBBBBBBBBBBBBBBBBBBBBBBBBBBBBBBBBBBBBBBBBBBBBBBBBBB",
"BBBBBBBBBBBBBBBBBBBBBBBBBBBBBBBBBBBBBBBBBBBBBBBBBBBBBBBBBBBBBBBB",
"BBBBBBBBBBBBBBBBBBBBBBBBBBBBBBBBBBBBBBBBBBBBBBBBBBBBBBBBBBBBBBBB",
"BBBBBBBBBBBBBBBBBBBBBBBBBBBBBBBBBBBBBBBBBBBBBBBBBBBBBBBBBBBBBBBB",
"BBBBBBBBBBBBBBBBBBBBBBBBBBBBBBBBBBBBBBBBBBBBBBBBBBBBBBBBBBBBBBBB",
"BBBBBBBBBBBBBBBBBBBBBBBBBBBBBBBBBBBBBBBBBBBBBBBBBBBBBBBBBBBBBBBB",
"BBBBBBBBBBBBBBBBBBBBBBBBBBBBBBBBBBBBBBBBBBBBBBBBBBBBBBBBBBBBBBBB",
"BBBBBBBBBBBBBBBBBFFFFFFBBBBBBBBBBBBBBBBBBFFFFFFBBBBBBBBBBBBBBBBB",
"BBBBBBBBBBBBBBBBBFFFFFFBBBBBBBBBBBBBBBBBBFFFFFFBBBBBBBBBBBBBBBBB",
"BBBBBBBBBBBBBBBBBFFFFFFBBBBBBBBBBBBBBBBBBFFFFFFBBBBBBBBBBBBBBBBB",
"BBBBBBBBBBBBBBBBBFFFFFFBBBBBBBBBBBBBBBBBBFFFFFFBBBBBBBBBBBBBBBBB",
"BBBBBBBBBBBBBBBBBFFFFFFBBBBBBBBBBBBBBBBBBFFFFFFBBBBBBBBBBBBBBBBB",
"BBBBBBBBBBBBBBBBBFFFFFFBBBBBBBBBBBBBBBBBBFFFFFFBBBBBBBBBBBBBBBBB",
"BBBBBBBBBBBBBBBBBFFFFFFBBBBBBBBBBBBBBBBBBFFFFFFBBBBBBBBBBBBBBBBB",
"BBBBBBBBBBBBBBBBBFFFFFFBBBBBBBBBBBBBBBBBBFFFFFFBBBBBBBBBBBBBBBBB",
"BBBBBBBBBBBBBBBBBFFFFFFBBBBBBBBBBBBBBBBBBFFFFFFBBBBBBBBBBBBBBBBB",
"BBBBBBBBBBBBBBBBBFFFFFFBBBBBBBBBBBBBBBBBBFFFFFFBBBBBBBBBBBBBBBBB",
"BBBBBBBBBBBBBBBBBFFFFFFBBBBBBBBBBBBBBBBBBFFFFFFBBBBBBBBBBBBBBBBB",
"BBBBBBBBBBBBBBBBBFFFFFFBBBBBBBBBBBBBBBBBBFFFFFFBBBBBBBBBBBBBBBBB",
"BBBBBBBBBBBBBBBBBFFFFFFBBBBBBFFFFFFBBBBBBFFFFFFBBBBBBBBBBBBBBBBB",
"BBBBBBBBBBBBBBBBBFFFFFFBBBBBBFFFFFFBBBBBBFFFFFFBBBBBBBBBBBBBBBBB",
"BBBBBBBBBBBBBBBBBFFFFFFBBBBBBFFFFFFBBBBBBFFFFFFBBBBBBBBBBBBBBBBB",
"BBBBBBBBBBBBBBBBBFFFFFFBBBBBBFFFFFFBBBBBBFFFFFFBBBBBBBBBBBBBBBBB",
"BBBBBBBBBBBBBBBBBFFFFFFBBBBBBFFFFFFBBBBBBFFFFFFBBBBBBBBBBBBBBBBB",
"BBBBBBBBBBBBBBBBBFFFFFFBBBBBBFFFFFFBBBBBBFFFFFFBBBBBBBBBBBBBBBBB",
"BBBBBBBBBBBBBBBBBFFFFFFBBBBBBFFFFFFBBBBBBFFFFFFBBBBBBBBBBBBBBBBB",
"BBBBBBBBBBBBBBBBBFFFFFFBBBBBBFFFFFFBBBBBBFFFFFFBBBBBBBBBBBBBBBBB",
"BBBBBBBBBBBBBBBBBFFFFFFBBBBBBFFFFFFBBBBBBFFFFFFBBBBBBBBBBBBBBBBB",
"BBBBBBBBBBBBBBBBBFFFFFFBBBBBBFFFFFFBBBBBBFFFFFFBBBBBBBBBBBBBBBBB",
"BBBBBBBBBBBBBBBBBFFFFFFBBBBBBFFFFFFBBBBBBFFFFFFBBBBBBBBBBBBBBBBB",
"BBBBBBBBBBBBBBBBBFFFFFFBBBBBBFFFFFFBBBBBBFFFFFFBBBBBBBBBBBBBBBBB",
"BBBBBBBBBBBBBBBBBFFFFFFBBBBBBFFFFFFBBBBBBFFFFFFBBBBBBBBBBBBBBBBB",
"BBBBBBBBBBBBBBBBBFFFFFFBBBBBBFFFFFFBBBBBBFFFFFFBBBBBBBBBBBBBBBBB",
"BBBBBBBBBBBBBBBBBFFFFFFBBBBBBFFFFFFBBBBBBFFFFFFBBBBBBBBBBBBBBBBB",
"BBBBBBBBBBBBBBBBBFFFFFFBBBBBBFFFFFFBBBBBBFFFFFFBBBBBBBBBBBBBBBBB",
"BBBBBBBBBBBBBBBBBFFFFFFBBBBBBFFFFFFBBBBBBFFFFFFBBBBBBBBBBBBBBBBB",
"BBBBBBBBBBBBBBBBBFFFFFFBBBBBBFFFFFFBBBBBBFFFFFFBBBBBBBBBBBBBBBBB",
"BBBBBBBBBBBBBBBBBBBBBBBFFFFFFBBBBBBFFFFFFBBBBBBBBBBBBBBBBBBBBBBB",
"BBBBBBBBBBBBBBBBBBBBBBBFFFFFFBBBBBBFFFFFFBBBBBBBBBBBBBBBBBBBBBBB",
"BBBBBBBBBBBBBBBBBBBBBBBFFFFFFBBBBBBFFFFFFBBBBBBBBBBBBBBBBBBBBBBB",
"BBBBBBBBBBBBBBBBBBBBBBBFFFFFFBBBBBBFFFFFFBBBBBBBBBBBBBBBBBBBBBBB",
"BBBBBBBBBBBBBBBBBBBBBBBFFFFFFBBBBBBFFFFFFBBBBBBBBBBBBBBBBBBBBBBB",
"BBBBBBBBBBBBBBBBBBBBBBBFFFFFFBBBBBBFFFFFFBBBBBBBBBBBBBBBBBBBBBBB",
"BBBBBBBBBBBBBBBBBBBBBBBFFFFFFBBBBBBFFFFFFBBBBBBBBBBBBBBBBBBBBBBB",
"BBBBBBBBBBBBBBBBBBBBBBBFFFFFFBBBBBBFFFFFFBBBBBBBBBBBBBBBBBBBBBBB",
"BBBBBBBBBBBBBBBBBBBBBBBFFFFFFBBBBBBFFFFFFBBBBBBBBBBBBBBBBBBBBBBB",
"BBBBBBBBBBBBBBBBBBBBBBBFFFFFFBBBBBBFFFFFFBBBBBBBBBBBBBBBBBBBBBBB",
"BBBBBBBBBBBBBBBBBBBBBBBFFFFFFBBBBBBFFFFFFBBBBBBBBBBBBBBBBBBBBBBB",
"BBBBBBBBBBBBBBBBBBBBBBBFFFFFFBBBBBBFFFFFFBBBBBBBBBBBBBBBBBBBBBBB",
"BBBBBBBBBBBBBBBBBBBBBBBBBBBBBBBBBBBBBBBBBBBBBBBBBBBBBBBBBBBBBBBB",
"BBBBBBBBBBBBBBBBBBBBBBBBBBBBBBBBBBBBBBBBBBBBBBBBBBBBBBBBBBBBBBBB",
"BBBBBBBBBBBBBBBBBBBBBBBBBBBBBBBBBBBBBBBBBBBBBBBBBBBBBBBBBBBBBBBB",
"BBBBBBBBBBBBBBBBBBBBBBBBBBBBBBBBBBBBBBBBBBBBBBBBBBBBBBBBBBBBBBBB",
"BBBBBBBBBBBBBBBBBBBBBBBBBBBBBBBBBBBBBBBBBBBBBBBBBBBBBBBBBBBBBBBB",
"BBBBBBBBBBBBBBBBBBBBBBBBBBBBBBBBBBBBBBBBBBBBBBBBBBBBBBBBBBBBBBBB",
"BBBBBBBBBBBBBBBBBBBBBBBBBBBBBBBBBBBBBBBBBBBBBBBBBBBBBBBBBBBBBBBB",
"BBBBBBBBBBBBBBBBBBBBBBBBBBBBBBBBBBBBBBBBBBBBBBBBBBBBBBBBBBBBBBBB",
"BBBBBBBBBBBBBBBBBBBBBBBBBBBBBBBBBBBBBBBBBBBBBBBBBBBBBBBBBBBBBBBB",
"BBBBBBBBBBBBBBBBBBBBBBBBBBBBBBBBBBBBBBBBBBBBBBBBBBBBBBBBBBBBBBBB",
"BBBBBBBBBBBBBBBBBBBBBBBBBBBBBBBBBBBBBBBBBBBBBBBBBBBBBBBBBBBBBBBB"
};
